datas/cubes/LBK-K-Tone-Intense_33.cube
TITLE "Generated by 3D LUT Creator Pro (c) Oleg Sharonov"
LUT_3D_SIZE 9
#INPUTGAMMA sRGB
#IMAGEPROFILE sRGB
#OUTPUTGAMMA sRGB
0.000000 0.000000 0.000000
0.003154 0.000000 0.000000
0.017349 0.000000 0.000000
0.063953 0.000000 0.000000
0.177156 0.000000 0.000000
0.471565 0.000000 0.000000
0.720943 0.000000 0.000000
0.905469 0.000000 0.000000
1.000000 0.000000 0.000000
0.000000 0.005520 0.000000
0.005520 0.005520 0.000000
0.020503 0.005520 0.000000
0.070003 0.006309 0.000000
0.185650 0.008674 0.000000
0.477690 0.012617 0.000000
0.725830 0.018926 0.000000
0.907333 0.026812 0.000000
1.000000 0.035486 0.000000
0.000000 0.029177 0.000000
0.005520 0.035486 0.000000
0.031543 0.029966 0.000000
0.085170 0.024446 0.000000
0.202261 0.029177 0.000000
0.490736 0.038640 0.000000
0.737243 0.051020 0.000000
0.911865 0.064521 0.000000
1.000000 0.083803 0.000000
0.000000 0.087851 0.000000
0.003943 0.106415 0.000000
0.035486 0.103403 0.000000
0.111859 0.088729 0.000000
0.220678 0.080536 0.000000
0.508491 0.091319 0.000000
0.754760 0.107156 0.000000
0.918893 0.130586 0.000000
1.000000 0.161944 0.000000
0.000000 0.186920 0.000000
0.001577 0.230780 0.000000
0.026812 0.225707 0.000000
0.125919 0.221379 0.000000
0.261792 0.194554 0.000000
0.528273 0.191499 0.000000
0.776200 0.215336 0.000000
0.927660 0.250373 0.000000
1.000000 0.295780 0.000000
0.000000 0.464037 0.000000
0.001577 0.491478 0.000000
0.018926 0.507586 0.000000
0.119755 0.506809 0.000000
0.309564 0.509909 0.000000
0.582682 0.495767 0.000000
0.804731 0.500142 0.000000
0.938308 0.529318 0.000000
1.000000 0.579686 0.000000
0.000000 0.717882 0.000000
0.001577 0.735839 0.000000
0.013406 0.762864 0.000000
0.115355 0.765731 0.000000
0.329022 0.772705 0.000000
0.665753 0.786008 0.000000
0.858691 0.790451 0.000000
0.954841 0.815991 0.000000
1.000000 0.850602 0.000000
0.000000 0.922962 0.000000
0.001577 0.928460 0.000000
0.004731 0.940115 0.000000
0.122387 0.941540 0.000000
0.375677 0.944469 0.000000
0.721273 0.949085 0.000000
0.888962 0.955326 0.000000
0.963856 0.961174 0.000000
1.000000 0.966864 0.000000
0.000000 1.000000 0.000000
0.031543 1.000000 0.000000
0.116042 1.000000 0.000000
0.291864 1.000000 0.000000
0.610187 1.000000 0.000000
0.824217 1.000000 0.000000
0.924810 1.000000 0.000000
0.973511 1.000000 0.000000
1.000000 0.999839 0.022869
0.000000 0.000000 0.002366
0.006309 0.000000 0.006309
0.045463 0.000000 0.002366
0.104919 0.000000 0.001577
0.202647 0.000000 0.001577
0.488026 0.000000 0.001577
0.732859 0.000000 0.001577
0.909436 0.000000 0.001577
1.000000 0.000000 0.001577
0.000000 0.005520 0.004731
0.008674 0.011040 0.008674
0.054295 0.006309 0.002366
0.110072 0.005520 0.001577
0.208538 0.007097 0.001577
0.493025 0.011829 0.001577
0.737323 0.018137 0.001577
0.911137 0.026023 0.001577
1.000000 0.034697 0.001577
0.000000 0.027600 0.006309
0.007097 0.054934 0.008674
0.054295 0.047596 0.005520
0.123036 0.029966 0.001577
0.219444 0.027600 0.001577
0.503816 0.037063 0.001577
0.747605 0.048985 0.001577
0.915222 0.062806 0.001577
1.000000 0.081950 0.001577
0.000000 0.086072 0.007097
0.003154 0.120418 0.006309
0.044738 0.129973 0.005520
0.141164 0.106043 0.001577
0.247924 0.085170 0.001577
0.518187 0.090032 0.001577
0.763132 0.105295 0.001577
0.921618 0.128118 0.001577
1.000000 0.159717 0.001577
0.000000 0.184371 0.007886
0.001577 0.227412 0.006309
0.022869 0.261647 0.001577
0.138306 0.252191 0.001577
0.291226 0.215156 0.001577
0.535530 0.192319 0.001577
0.781904 0.214250 0.001577
0.929614 0.248231 0.001577
1.000000 0.293767 0.001577
0.000000 0.462876 0.010251
0.001577 0.489857 0.007886
0.013406 0.530298 0.001577
0.118753 0.526856 0.001577
0.324905 0.526980 0.001577
0.603383 0.507845 0.001577
0.815183 0.507651 0.001577
0.940726 0.533834 0.001577
1.000000 0.584308 0.001577
0.000000 0.717633 0.014194
0.001577 0.735397 0.011040
0.004731 0.778070 0.001577
0.105669 0.779487 0.001577
0.330454 0.784422 0.001577
0.674910 0.795587 0.001577
0.863465 0.797109 0.001577
0.956181 0.819943 0.001577
1.000000 0.853155 0.001577
0.000000 0.923171 0.021292
0.001577 0.928638 0.018137
0.004731 0.940552 0.007097
0.123360 0.943717 0.009463
0.379416 0.946232 0.014194
0.724684 0.950550 0.023657
0.890027 0.956238 0.043264
0.964109 0.961740 0.078619
1.000000 0.967285 0.111504
0.000000 1.000000 0.054934
0.032332 1.000000 0.058053
0.116726 1.000000 0.065085
0.294901 1.000000 0.076662
0.614009 1.000000 0.095088
0.825635 1.000000 0.124965
0.925167 1.000000 0.162923
0.973622 1.000000 0.204377
1.000000 1.000000 0.213705
0.000000 0.000000 0.014194
0.003943 0.000000 0.068394
0.048985 0.000000 0.034697
0.155164 0.000000 0.019714
0.320041 0.000000 0.008674
0.545626 0.000000 0.003154
0.769115 0.000000 0.003154
0.920032 0.000000 0.003154
1.000000 0.000000 0.003154
0.000000 0.004731 0.015771
0.003154 0.007886 0.043264
0.064521 0.011040 0.045463
0.227242 0.002366 0.019714
0.392697 0.002366 0.003154
0.546216 0.007097 0.003154
0.771498 0.012617 0.003154
0.921260 0.021292 0.003154
1.000000 0.031543 0.003154
0.000000 0.022869 0.020503
0.003154 0.046892 0.038640
0.077155 0.074158 0.059267
0.226902 0.048985 0.025234
0.378299 0.026023 0.003154
0.551489 0.029177 0.003154
0.777173 0.040994 0.003154
0.924184 0.056196 0.003154
1.000000 0.075669 0.003154
0.000000 0.081481 0.026023
0.001577 0.114664 0.033120
0.058662 0.185863 0.050348
0.205331 0.161698 0.032332
0.368059 0.103784 0.003154
0.570912 0.089600 0.003154
0.785714 0.098330 0.003154
0.928697 0.120087 0.003154
1.000000 0.152050 0.003154
0.000000 0.178491 0.029177
0.001577 0.219444 0.030754
0.022869 0.317748 0.033120
0.169145 0.323331 0.028389
0.368155 0.270445 0.006309
0.607158 0.220853 0.003154
0.801650 0.213887 0.003154
0.934385 0.241518 0.003154
1.000000 0.289561 0.003154
0.000000 0.460032 0.034697
0.001577 0.486254 0.033120
0.005520 0.554912 0.020503
0.122712 0.575679 0.019714
0.359451 0.570131 0.016560
0.655637 0.538482 0.003154
0.840590 0.526053 0.003154
0.946723 0.544739 0.003154
1.000000 0.594949 0.003154
0.000000 0.717093 0.044738
0.001577 0.734552 0.041759
0.003154 0.780641 0.025234
0.095908 0.807868 0.018926
0.342072 0.809323 0.019714
0.693192 0.816342 0.022869
0.873550 0.813248 0.003154
0.959362 0.828909 0.003154
1.000000 0.861278 0.025234
0.000000 0.923708 0.066756
0.001577 0.929022 0.059868
0.003943 0.940930 0.038640
0.125602 0.948538 0.046892
0.388483 0.950435 0.058053
0.732496 0.953728 0.081010
0.892527 0.958256 0.121406
0.964672 0.962897 0.189016
1.000000 0.968265 0.250220
0.000000 1.000000 0.140312
0.033909 1.000000 0.145618
0.119422 1.000000 0.159717
0.302704 1.000000 0.184585
0.623858 1.000000 0.219621
0.828909 1.000000 0.274174
0.926207 1.000000 0.341016
0.973817 1.000000 0.417310
1.000000 1.000000 0.430443
0.000000 0.000000 0.044005
0.001577 0.000000 0.074158
0.037852 0.000000 0.183082
0.185225 0.000000 0.132708
0.352928 0.000000 0.070003
0.616995 0.000000 0.040217
0.821232 0.000000 0.018137
0.938483 0.000000 0.004731
1.000000 0.000000 0.004731
0.000000 0.006309 0.044005
0.001577 0.007097 0.070533
0.040217 0.007097 0.215697
0.203994 0.007886 0.151261
0.429328 0.002366 0.079102
0.667852 0.002366 0.037852
0.840995 0.002366 0.011040
0.938658 0.008674 0.004731
1.000000 0.022080 0.004731
0.000000 0.022869 0.049669
0.001577 0.030754 0.074158
0.037063 0.062806 0.202840
0.238483 0.069470 0.189016
0.560424 0.021292 0.089600
0.772894 0.004731 0.021292
0.856456 0.014983 0.004731
0.939212 0.036274 0.004731
1.000000 0.059868 0.004731
0.000000 0.073137 0.061643
0.001577 0.096315 0.086965
0.031543 0.171474 0.172627
0.235730 0.214794 0.199138
0.539202 0.157458 0.105295
0.779226 0.078619 0.004731
0.858100 0.084717 0.004731
0.941715 0.100309 0.004731
1.000000 0.134501 0.004731
0.000000 0.170081 0.074664
0.001577 0.207224 0.090463
0.014194 0.305615 0.130891
0.189433 0.400616 0.169847
0.472274 0.370173 0.119422
0.733706 0.268487 0.020503
0.865416 0.231613 0.004731
0.948596 0.243098 0.004731
1.000000 0.294019 0.004731
0.000000 0.455835 0.090032
0.001577 0.480820 0.096721
0.003154 0.547276 0.102637
0.130280 0.644410 0.130891
0.410716 0.644839 0.119088
0.712296 0.599682 0.061056
0.876336 0.556239 0.004731
0.956778 0.560880 0.004731
1.000000 0.609213 0.004731
0.000000 0.716553 0.118753
0.001577 0.733464 0.119422
0.003154 0.778257 0.110072
0.092168 0.832474 0.113969
0.365444 0.843083 0.118081
0.718214 0.845900 0.120748
0.881650 0.839104 0.081481
0.961542 0.846937 0.071060
1.000000 0.874865 0.129973
0.000000 0.924750 0.168910
0.001577 0.929880 0.164139
0.003154 0.941453 0.142290
0.122712 0.951668 0.164139
0.402782 0.955924 0.186920
0.743895 0.957887 0.215517
0.895824 0.960637 0.267502
0.965572 0.964841 0.359550
1.000000 0.969971 0.437997
0.000000 1.000000 0.285021
0.036274 1.000000 0.292881
0.124005 1.000000 0.312516
0.311221 1.000000 0.347810
0.640387 1.000000 0.398086
0.833054 1.000000 0.463094
0.928164 1.000000 0.547276
0.974178 1.000000 0.643455
1.000000 1.000000 0.652454
0.000000 0.000000 0.102637
0.001577 0.000000 0.107156
0.008674 0.000000 0.506745
0.152574 0.000000 0.389744
0.398961 0.000000 0.308731
0.652783 0.000000 0.196960
0.836052 0.000000 0.126235
0.944817 0.000000 0.079582
1.000000 0.000000 0.038640
0.000000 0.007886 0.105669
0.001577 0.008674 0.116726
0.003154 0.006309 0.526918
0.185863 0.002366 0.502508
0.480890 0.002366 0.367673
0.696955 0.002366 0.216596
0.854808 0.002366 0.129049
0.949401 0.002366 0.075168
1.000000 0.002366 0.029966
0.000000 0.029177 0.115699
0.001577 0.030754 0.135093
0.003154 0.044738 0.368444
0.175811 0.052347 0.496100
0.502901 0.048985 0.391269
0.789902 0.004731 0.257559
0.887990 0.004731 0.125602
0.959532 0.004731 0.054934
1.000000 0.009463 0.006309
0.000000 0.080060 0.141164
0.001577 0.082881 0.156443
0.003154 0.121734 0.302093
0.167494 0.198547 0.481167
0.524256 0.195158 0.422396
0.804874 0.108258 0.273899
0.928904 0.007097 0.070533
0.969971 0.022080 0.006309
1.000000 0.087851 0.006309
0.000000 0.174226 0.171706
0.001577 0.182217 0.182217
0.003154 0.269328 0.288143
0.143686 0.397560 0.416897
0.500010 0.441713 0.424992
0.789353 0.368252 0.303191
0.911319 0.251738 0.099126
0.969245 0.202067 0.006309
1.000000 0.264665 0.006309
0.000000 0.457239 0.204185
0.001577 0.474746 0.220678
0.003154 0.536737 0.276491
0.099916 0.636718 0.353435
0.426363 0.701334 0.389294
0.752697 0.680230 0.325465
0.893555 0.621014 0.189433
0.966190 0.588079 0.076662
1.000000 0.637009 0.085170
0.000000 0.716678 0.255785
0.001577 0.732980 0.267502
0.003154 0.775862 0.289818
0.071584 0.831892 0.324905
0.377178 0.871108 0.371415
0.737163 0.872202 0.363786
0.890622 0.867912 0.322088
0.963489 0.869399 0.302460
1.000000 0.891903 0.366900
0.000000 0.926622 0.345632
0.001577 0.931444 0.348016
0.003154 0.942441 0.346048
0.114317 0.952584 0.379323
0.411558 0.959788 0.427407
0.754838 0.961372 0.456648
0.898024 0.962954 0.502246
0.966443 0.967172 0.599316
1.000000 0.971729 0.675090
0.000000 1.000000 0.507133
0.040994 1.000000 0.516228
0.133009 1.000000 0.539022
0.326804 1.000000 0.578811
0.657220 1.000000 0.632387
0.840287 1.000000 0.698805
0.931090 1.000000 0.787370
0.974539 1.000000 0.878982
1.000000 1.000000 0.881237
0.000000 0.000000 0.389924
0.001577 0.000000 0.390462
0.003154 0.000000 0.507392
0.093011 0.000000 0.715804
0.354547 0.000000 0.652173
0.691975 0.000000 0.590594
0.854610 0.000000 0.505055
0.949775 0.000000 0.451813
1.000000 0.000000 0.420600
0.000000 0.011829 0.393853
0.001577 0.012617 0.394385
0.003154 0.011829 0.498623
0.093011 0.002366 0.785419
0.397296 0.002366 0.702316
0.729295 0.002366 0.623957
0.869270 0.002366 0.521701
0.953871 0.002366 0.458270
1.000000 0.002366 0.420927
0.000000 0.037852 0.402869
0.001577 0.038640 0.407497
0.003154 0.040994 0.487141
0.028389 0.004731 0.920212
0.471423 0.017349 0.776200
0.785345 0.015771 0.680186
0.896724 0.004731 0.560880
0.962897 0.004731 0.470428
1.000000 0.004731 0.416483
0.000000 0.089600 0.417475
0.001577 0.091745 0.432426
0.003154 0.098330 0.484406
0.010251 0.142290 0.778257
0.420682 0.165586 0.746818
0.778443 0.154907 0.681474
0.921499 0.045463 0.598057
0.973705 0.007097 0.470784
1.000000 0.033909 0.400269
0.000000 0.187342 0.448201
0.001577 0.191909 0.457608
0.003154 0.214613 0.499152
0.016560 0.322541 0.669716
0.390821 0.418877 0.723741
0.767824 0.410294 0.682981
0.910530 0.326024 0.604938
0.973566 0.235730 0.487550
1.000000 0.276220 0.432663
0.000000 0.467282 0.481028
0.001577 0.471281 0.486186
0.003154 0.512090 0.535590
0.031543 0.609572 0.633608
0.359649 0.700007 0.686948
0.759405 0.733585 0.689839
0.901295 0.695055 0.628708
0.968433 0.662863 0.557447
1.000000 0.703382 0.549271
0.000000 0.718587 0.524566
0.001577 0.734190 0.540757
0.003154 0.775037 0.578975
0.044005 0.832269 0.630085
0.343962 0.874160 0.674730
0.741275 0.891122 0.687124
0.893866 0.888492 0.664608
0.965150 0.892527 0.653580
1.000000 0.908401 0.679340
0.000000 0.929495 0.613349
0.001577 0.934033 0.620714
0.003154 0.944267 0.635845
0.105295 0.953985 0.663093
0.397560 0.960524 0.695055
0.757319 0.963687 0.716719
0.900094 0.965572 0.735919
0.967228 0.969860 0.783571
1.000000 0.974372 0.824944
0.000000 1.000000 0.727300
0.048294 1.000000 0.732617
0.148333 1.000000 0.745674
0.354648 1.000000 0.768014
0.680764 1.000000 0.796819
0.850535 1.000000 0.835814
0.935060 1.000000 0.882568
0.974622 1.000000 0.918142
1.000000 1.000000 0.919433
0.000000 0.000000 0.647359
0.001577 0.000000 0.647643
0.003154 0.000000 0.682804
0.010251 0.000000 0.905163
0.275676 0.000000 0.861442
0.665753 0.000000 0.834828
0.871462 0.000000 0.806337
0.955212 0.000000 0.764700
1.000000 0.000000 0.748784
0.000000 0.017349 0.649724
0.001577 0.018137 0.650102
0.003154 0.018137 0.685893
0.004731 0.006309 0.901665
0.292881 0.002366 0.887582
0.695358 0.002366 0.855105
0.881966 0.002366 0.821406
0.958682 0.002366 0.775037
1.000000 0.002366 0.755615
0.000000 0.048294 0.655497
0.001577 0.048985 0.655777
0.003154 0.051020 0.692627
0.004731 0.046181 0.856193
0.320839 0.004731 0.938833
0.760175 0.004731 0.900864
0.905225 0.004731 0.855962
0.966359 0.004731 0.798843
1.000000 0.004731 0.771310
0.000000 0.103021 0.665112
0.001577 0.104919 0.668626
0.003154 0.109350 0.702188
0.004731 0.124646 0.817568
0.250525 0.092590 0.955867
0.751214 0.120748 0.900649
0.905592 0.120418 0.859511
0.974317 0.014983 0.829218
1.000000 0.056196 0.788032
0.000000 0.205901 0.683512
0.001577 0.209843 0.691671
0.003154 0.219621 0.714720
0.004731 0.269608 0.799744
0.188390 0.356859 0.903876
0.728033 0.393942 0.887142
0.901049 0.391090 0.858659
0.970390 0.322654 0.824529
1.000000 0.361232 0.802009
0.000000 0.481305 0.711793
0.001577 0.484954 0.717301
0.003154 0.494231 0.732051
0.004731 0.561905 0.804123
0.199335 0.663047 0.862780
0.709776 0.725952 0.872876
0.894520 0.731080 0.856390
0.967537 0.721808 0.836901
1.000000 0.761214 0.829836
0.000000 0.727952 0.744924
0.001577 0.731525 0.748274
0.003154 0.766188 0.778070
0.004731 0.825670 0.824875
0.268487 0.869883 0.852725
0.710196 0.893431 0.863953
0.895390 0.906142 0.866163
0.964897 0.907730 0.856555
1.000000 0.918833 0.862780
0.000000 0.933886 0.809749
0.001577 0.938045 0.816166
0.003154 0.947213 0.830557
0.098729 0.955924 0.847171
0.387126 0.961683 0.863334
0.751409 0.964897 0.872555
0.903140 0.968685 0.885379
0.968517 0.973149 0.904612
1.000000 0.977282 0.921678
0.000000 1.000000 0.874576
0.061643 1.000000 0.877325
0.173771 1.000000 0.883896
0.399833 1.000000 0.894644
0.714428 1.000000 0.907211
0.862552 1.000000 0.924065
0.939154 1.000000 0.939824
0.974678 1.000000 0.950492
1.000000 1.000000 0.951897
0.000000 0.000000 0.854808
0.001577 0.000000 0.854907
0.003154 0.000000 0.860035
0.004731 0.000000 0.918593
0.161944 0.000000 0.966443
0.602135 0.000000 0.955497
0.867233 0.000000 0.949344
0.960382 0.000000 0.941657
1.000000 0.000000 0.935236
0.000000 0.023657 0.855896
0.001577 0.024446 0.856094
0.003154 0.025234 0.862421
0.004731 0.022080 0.916518
0.153095 0.002366 0.972426
0.623957 0.002366 0.962756
0.876144 0.002366 0.955383
0.963320 0.002366 0.946463
1.000000 0.002366 0.939154
0.000000 0.059267 0.858659
0.001577 0.060464 0.858757
0.003154 0.062227 0.867848
0.004731 0.059868 0.912653
0.099522 0.008674 0.979078
0.671936 0.004731 0.974372
0.895700 0.004731 0.967481
0.969413 0.004731 0.957347
1.000000 0.009463 0.947069
0.000000 0.121078 0.863334
0.001577 0.122712 0.863465
0.003154 0.126866 0.875601
0.004731 0.129973 0.909314
0.014194 0.105295 0.979078
0.696308 0.045463 0.979078
0.901542 0.094676 0.971004
0.969301 0.124326 0.958057
1.000000 0.133009 0.949775
0.000000 0.231113 0.870592
0.001577 0.234093 0.873358
0.003154 0.243098 0.885064
0.004731 0.255487 0.908583
0.007097 0.316132 0.970279
0.627376 0.343334 0.977282
0.889777 0.381546 0.965825
0.966667 0.413654 0.955497
1.000000 0.459079 0.948596
0.000000 0.500010 0.885127
0.001577 0.503424 0.888241
0.003154 0.511962 0.896414
0.004731 0.540578 0.917541
0.007097 0.632387 0.962389
0.606023 0.709186 0.967088
0.884212 0.740479 0.961542
0.964363 0.763132 0.954470
1.000000 0.798879 0.951181
0.000000 0.744251 0.902956
0.001577 0.747802 0.905041
0.003154 0.763553 0.912956
0.004731 0.813459 0.934767
0.123683 0.862552 0.953928
0.649158 0.893991 0.959476
0.886544 0.909679 0.959476
0.963799 0.917722 0.956977
1.000000 0.928046 0.958568
0.000000 0.938308 0.931944
0.001577 0.941831 0.935118
0.003154 0.949516 0.942441
0.067305 0.957518 0.950435
0.364177 0.962474 0.955867
0.746345 0.966190 0.958994
0.904306 0.970949 0.963433
0.969664 0.976314 0.968265
1.000000 0.980153 0.971813
0.000000 1.000000 0.960212
0.082416 1.000000 0.961061
0.216775 1.000000 0.963010
0.458565 1.000000 0.965825
0.752697 1.000000 0.968433
0.876272 1.000000 0.971729
0.940726 1.000000 0.974317
0.974622 1.000000 0.978029
1.000000 1.000000 0.978692
0.000000 0.000000 0.999920
0.001577 0.000000 0.999973
0.003154 0.000000 1.000000
0.004731 0.000000 1.000000
0.007097 0.000000 1.000000
0.523510 0.000000 1.000000
0.849604 0.000000 1.000000
0.960863 0.000000 1.000000
1.000000 0.000000 1.000000
0.000000 0.030754 1.000000
0.001577 0.031543 1.000000
0.003154 0.032332 1.000000
0.004731 0.031543 1.000000
0.007097 0.008674 1.000000
0.529072 0.002366 1.000000
0.858691 0.002366 1.000000
0.963320 0.002366 1.000000
1.000000 0.003154 1.000000
0.000000 0.073649 1.000000
0.001577 0.074664 1.000000
0.003154 0.076662 1.000000
0.004731 0.077155 1.000000
0.007097 0.053002 1.000000
0.527473 0.019714 1.000000
0.872009 0.012617 1.000000
0.968377 0.005520 1.000000
1.000000 0.058053 1.000000
0.000000 0.144241 1.000000
0.001577 0.145618 1.000000
0.003154 0.149671 1.000000
0.004731 0.154650 1.000000
0.007097 0.145343 1.000000
0.506096 0.102637 1.000000
0.879872 0.090463 1.000000
0.967341 0.137147 1.000000
1.000000 0.240883 1.000000
0.000000 0.263807 1.000000
0.001577 0.265804 1.000000
0.003154 0.273762 1.000000
0.004731 0.286196 1.000000
0.007097 0.315668 1.000000
0.438852 0.318668 1.000000
0.873903 0.345111 1.000000
0.963489 0.448352 1.000000
1.000000 0.575127 1.000000
0.000000 0.523945 1.000000
0.001577 0.527226 1.000000
0.003154 0.535469 1.000000
0.004731 0.549505 1.000000
0.007097 0.619009 1.000000
0.448730 0.689839 1.000000
0.866584 0.746936 1.000000
0.961598 0.790524 1.000000
1.000000 0.834896 1.000000
0.000000 0.765616 1.000000
0.001577 0.768963 1.000000
0.003154 0.777472 1.000000
0.004731 0.819106 1.000000
0.007097 0.866747 1.000000
0.571580 0.895266 1.000000
0.875313 0.913198 1.000000
0.962276 0.924512 1.000000
1.000000 0.937490 1.000000
0.000000 0.945250 1.000000
0.001577 0.948049 1.000000
0.003154 0.954042 1.000000
0.051686 0.959957 1.000000
0.359748 0.964109 1.000000
0.754022 0.968573 1.000000
0.907272 0.973400 1.000000
0.970642 0.979078 1.000000
1.000000 0.982547 1.000000
0.000000 1.000000 1.000000
0.104163 1.000000 1.000000
0.265804 1.000000 1.000000
0.500339 1.000000 1.000000
0.763553 1.000000 1.000000
0.874929 1.000000 1.000000
0.940435 1.000000 1.000000
0.974622 1.000000 1.000000
1.000000 1.000000 1.000000
