datas/cubes/LBK-K-Tone-Intense_33.cube
TITLE "Generated by 3D LUT Creator Pro (c) Oleg Sharonov"
LUT_3D_SIZE 5
#INPUTGAMMA sRGB
#IMAGEPROFILE sRGB
#OUTPUTGAMMA sRGB
0.000000 0.000000 0.000000
0.017349 0.000000 0.000000
0.177156 0.000000 0.000000
0.720943 0.000000 0.000000
1.000000 0.000000 0.000000
0.000000 0.029177 0.000000
0.031543 0.029966 0.000000
0.202261 0.029177 0.000000
0.737243 0.051020 0.000000
1.000000 0.083803 0.000000
0.000000 0.186920 0.000000
0.026812 0.225707 0.000000
0.261792 0.194554 0.000000
0.776200 0.215336 0.000000
1.000000 0.295780 0.000000
0.000000 0.717882 0.000000
0.013406 0.762864 0.000000
0.329022 0.772705 0.000000
0.858691 0.790451 0.000000
1.000000 0.850602 0.000000
0.000000 1.000000 0.000000
0.116042 1.000000 0.000000
0.610187 1.000000 0.000000
0.924810 1.000000 0.000000
1.000000 0.999839 0.022869
0.000000 0.000000 0.014194
0.048985 0.000000 0.034697
0.320041 0.000000 0.008674
0.769115 0.000000 0.003154
1.000000 0.000000 0.003154
0.000000 0.022869 0.020503
0.077155 0.074158 0.059267
0.378299 0.026023 0.003154
0.777173 0.040994 0.003154
1.000000 0.075669 0.003154
0.000000 0.178491 0.029177
0.022869 0.317748 0.033120
0.368155 0.270445 0.006309
0.801650 0.213887 0.003154
1.000000 0.289561 0.003154
0.000000 0.717093 0.044738
0.003154 0.780641 0.025234
0.342072 0.809323 0.019714
0.873550 0.813248 0.003154
1.000000 0.861278 0.025234
0.000000 1.000000 0.140312
0.119422 1.000000 0.159717
0.623858 1.000000 0.219621
0.926207 1.000000 0.341016
1.000000 1.000000 0.430443
0.000000 0.000000 0.102637
0.008674 0.000000 0.506745
0.398961 0.000000 0.308731
0.836052 0.000000 0.126235
1.000000 0.000000 0.038640
0.000000 0.029177 0.115699
0.003154 0.044738 0.368444
0.502901 0.048985 0.391269
0.887990 0.004731 0.125602
1.000000 0.009463 0.006309
0.000000 0.174226 0.171706
0.003154 0.269328 0.288143
0.500010 0.441713 0.424992
0.911319 0.251738 0.099126
1.000000 0.264665 0.006309
0.000000 0.716678 0.255785
0.003154 0.775862 0.289818
0.377178 0.871108 0.371415
0.890622 0.867912 0.322088
1.000000 0.891903 0.366900
0.000000 1.000000 0.507133
0.133009 1.000000 0.539022
0.657220 1.000000 0.632387
0.931090 1.000000 0.787370
1.000000 1.000000 0.881237
0.000000 0.000000 0.647359
0.003154 0.000000 0.682804
0.275676 0.000000 0.861442
0.871462 0.000000 0.806337
1.000000 0.000000 0.748784
0.000000 0.048294 0.655497
0.003154 0.051020 0.692627
0.320839 0.004731 0.938833
0.905225 0.004731 0.855962
1.000000 0.004731 0.771310
0.000000 0.205901 0.683512
0.003154 0.219621 0.714720
0.188390 0.356859 0.903876
0.901049 0.391090 0.858659
1.000000 0.361232 0.802009
0.000000 0.727952 0.744924
0.003154 0.766188 0.778070
0.268487 0.869883 0.852725
0.895390 0.906142 0.866163
1.000000 0.918833 0.862780
0.000000 1.000000 0.874576
0.173771 1.000000 0.883896
0.714428 1.000000 0.907211
0.939154 1.000000 0.939824
1.000000 1.000000 0.951897
0.000000 0.000000 0.999920
0.003154 0.000000 1.000000
0.007097 0.000000 1.000000
0.849604 0.000000 1.000000
1.000000 0.000000 1.000000
0.000000 0.073649 1.000000
0.003154 0.076662 1.000000
0.007097 0.053002 1.000000
0.872009 0.012617 1.000000
1.000000 0.058053 1.000000
0.000000 0.263807 1.000000
0.003154 0.273762 1.000000
0.007097 0.315668 1.000000
0.873903 0.345111 1.000000
1.000000 0.575127 1.000000
0.000000 0.765616 1.000000
0.003154 0.777472 1.000000
0.007097 0.866747 1.000000
0.875313 0.913198 1.000000
1.000000 0.937490 1.000000
0.000000 1.000000 1.000000
0.265804 1.000000 1.000000
0.763553 1.000000 1.000000
0.940435 1.000000 1.000000
1.000000 1.000000 1.000000
