datas/cubes/LBK-K-Tone-Intense_33.cube
TITLE "Generated by 3D LUT Creator Pro (c) Oleg Sharonov"
LUT_3D_SIZE 33
#INPUTGAMMA sRGB
#IMAGEPROFILE sRGB
#OUTPUTGAMMA sRGB
0.000000 0.000000 0.000000
0.000789 0.000000 0.000000
0.000789 0.000000 0.000000
0.001577 0.000000 0.000000
0.003154 0.000000 0.000000
0.005520 0.000000 0.000000
0.008674 0.000000 0.000000
0.012617 0.000000 0.000000
0.017349 0.000000 0.000000
0.023657 0.000000 0.000000
0.032332 0.000000 0.000000
0.045463 0.000000 0.000000
0.063953 0.000000 0.000000
0.086072 0.000000 0.000000
0.111504 0.000000 0.000000
0.142009 0.000000 0.000000
0.177156 0.000000 0.000000
0.254145 0.000000 0.000000
0.329243 0.000000 0.000000
0.401831 0.000000 0.000000
0.471565 0.000000 0.000000
0.538181 0.000000 0.000000
0.601510 0.000000 0.000000
0.661758 0.000000 0.000000
0.720943 0.000000 0.000000
0.776612 0.000000 0.000000
0.826533 0.000000 0.000000
0.869270 0.000000 0.000000
0.905469 0.000000 0.000000
0.936525 0.000000 0.000000
0.962276 0.000000 0.000000
0.982602 0.000000 0.000000
1.000000 0.000000 0.000000
0.000000 0.000789 0.000000
0.000789 0.000789 0.000000
0.000789 0.000789 0.000000
0.002366 0.000789 0.000000
0.003943 0.000789 0.000000
0.006309 0.000789 0.000000
0.009463 0.000789 0.000000
0.013406 0.000789 0.000000
0.018137 0.000789 0.000000
0.024446 0.000789 0.000000
0.033120 0.000789 0.000000
0.046892 0.000789 0.000000
0.065085 0.001577 0.000000
0.087409 0.001577 0.000000
0.112919 0.001577 0.000000
0.143408 0.001577 0.000000
0.178713 0.001577 0.000000
0.255487 0.001577 0.000000
0.330564 0.002366 0.000000
0.403041 0.002366 0.000000
0.472699 0.002366 0.000000
0.539202 0.003154 0.000000
0.602344 0.003154 0.000000
0.662679 0.003943 0.000000
0.721808 0.003943 0.000000
0.777360 0.004731 0.000000
0.827085 0.005520 0.000000
0.869690 0.005520 0.000000
0.905837 0.006309 0.000000
0.936700 0.007097 0.000000
0.962389 0.007097 0.000000
0.982602 0.007886 0.000000
1.000000 0.008674 0.000000
0.000000 0.001577 0.000000
0.000789 0.001577 0.000000
0.001577 0.001577 0.000000
0.002366 0.001577 0.000000
0.003943 0.001577 0.000000
0.007097 0.001577 0.000000
0.010251 0.001577 0.000000
0.014194 0.001577 0.000000
0.018926 0.001577 0.000000
0.025234 0.002366 0.000000
0.034697 0.002366 0.000000
0.047596 0.002366 0.000000
0.066202 0.002366 0.000000
0.088729 0.003154 0.000000
0.114317 0.003154 0.000000
0.144793 0.003154 0.000000
0.180255 0.003943 0.000000
0.257265 0.003943 0.000000
0.331987 0.004731 0.000000
0.404333 0.004731 0.000000
0.473900 0.005520 0.000000
0.540219 0.006309 0.000000
0.603227 0.007097 0.000000
0.663552 0.007886 0.000000
0.722796 0.008674 0.000000
0.778144 0.009463 0.000000
0.827774 0.011040 0.000000
0.870109 0.011829 0.000000
0.906203 0.012617 0.000000
0.937022 0.013406 0.000000
0.962530 0.014983 0.000000
0.982656 0.015771 0.000000
1.000000 0.017349 0.000000
0.000000 0.003154 0.000000
0.000789 0.003154 0.000000
0.001577 0.003154 0.000000
0.003154 0.003154 0.000000
0.004731 0.003154 0.000000
0.007886 0.003154 0.000000
0.011040 0.003154 0.000000
0.014194 0.003154 0.000000
0.019714 0.003154 0.000000
0.026812 0.003154 0.000000
0.036274 0.003943 0.000000
0.048985 0.003943 0.000000
0.067852 0.003943 0.000000
0.090463 0.004731 0.000000
0.116385 0.004731 0.000000
0.146981 0.005520 0.000000
0.182650 0.005520 0.000000
0.259320 0.006309 0.000000
0.334055 0.007097 0.000000
0.406133 0.007886 0.000000
0.475519 0.008674 0.000000
0.541771 0.010251 0.000000
0.604627 0.011040 0.000000
0.664974 0.012617 0.000000
0.723987 0.013406 0.000000
0.779375 0.014983 0.000000
0.828668 0.016560 0.000000
0.870786 0.018137 0.000000
0.906692 0.019714 0.000000
0.937314 0.021292 0.000000
0.962756 0.022869 0.000000
0.982739 0.024446 0.000000
1.000000 0.026023 0.000000
0.000000 0.005520 0.000000
0.000789 0.006309 0.000000
0.001577 0.006309 0.000000
0.003154 0.006309 0.000000
0.005520 0.005520 0.000000
0.007886 0.005520 0.000000
0.011829 0.005520 0.000000
0.014983 0.005520 0.000000
0.020503 0.005520 0.000000
0.028389 0.005520 0.000000
0.038640 0.005520 0.000000
0.051686 0.005520 0.000000
0.070003 0.006309 0.000000
0.092590 0.006309 0.000000
0.119088 0.007097 0.000000
0.149937 0.007886 0.000000
0.185650 0.008674 0.000000
0.262081 0.009463 0.000000
0.336538 0.010251 0.000000
0.408602 0.011829 0.000000
0.477690 0.012617 0.000000
0.543614 0.014194 0.000000
0.606333 0.015771 0.000000
0.666758 0.017349 0.000000
0.725830 0.018926 0.000000
0.780901 0.021292 0.000000
0.829905 0.022869 0.000000
0.871655 0.025234 0.000000
0.907333 0.026812 0.000000
0.937811 0.029177 0.000000
0.963010 0.030754 0.000000
0.982849 0.033120 0.000000
1.000000 0.035486 0.000000
0.000000 0.008674 0.000000
0.000789 0.010251 0.000000
0.001577 0.010251 0.000000
0.003154 0.010251 0.000000
0.006309 0.010251 0.000000
0.008674 0.008674 0.000000
0.011829 0.008674 0.000000
0.016560 0.007886 0.000000
0.022080 0.007886 0.000000
0.030754 0.007886 0.000000
0.041759 0.007886 0.000000
0.054934 0.007886 0.000000
0.072622 0.008674 0.000000
0.095088 0.009463 0.000000
0.122061 0.010251 0.000000
0.153356 0.011040 0.000000
0.189225 0.011829 0.000000
0.265520 0.013406 0.000000
0.339638 0.014194 0.000000
0.411222 0.015771 0.000000
0.480197 0.017349 0.000000
0.546157 0.019714 0.000000
0.608649 0.021292 0.000000
0.668990 0.022869 0.000000
0.727952 0.025234 0.000000
0.782831 0.027600 0.000000
0.831482 0.029966 0.000000
0.872812 0.032332 0.000000
0.908279 0.034697 0.000000
0.938424 0.037063 0.000000
0.963377 0.040217 0.000000
0.982958 0.042516 0.000000
1.000000 0.046181 0.000000
0.000000 0.013406 0.000000
0.000789 0.015771 0.000000
0.001577 0.015771 0.000000
0.003154 0.015771 0.000000
0.006309 0.015771 0.000000
0.009463 0.014983 0.000000
0.013406 0.013406 0.000000
0.018137 0.012617 0.000000
0.024446 0.011829 0.000000
0.033909 0.011829 0.000000
0.045463 0.011829 0.000000
0.059267 0.011829 0.000000
0.075168 0.011829 0.000000
0.098330 0.012617 0.000000
0.125284 0.013406 0.000000
0.156951 0.014983 0.000000
0.193135 0.016560 0.000000
0.269188 0.018137 0.000000
0.343334 0.019714 0.000000
0.414655 0.021292 0.000000
0.483306 0.022869 0.000000
0.548978 0.025234 0.000000
0.611158 0.027600 0.000000
0.671800 0.029966 0.000000
0.730634 0.032332 0.000000
0.785086 0.035486 0.000000
0.833328 0.037852 0.000000
0.874096 0.040994 0.000000
0.909253 0.043264 0.000000
0.939154 0.046892 0.000000
0.963799 0.049669 0.000000
0.983096 0.053651 0.000000
1.000000 0.056820 0.000000
0.000000 0.019714 0.000000
0.000789 0.023657 0.000000
0.001577 0.024446 0.000000
0.003154 0.023657 0.000000
0.005520 0.023657 0.000000
0.009463 0.023657 0.000000
0.014194 0.022869 0.000000
0.019714 0.020503 0.000000
0.027600 0.018926 0.000000
0.037852 0.018137 0.000000
0.049669 0.017349 0.000000
0.063953 0.017349 0.000000
0.080060 0.017349 0.000000
0.101090 0.017349 0.000000
0.128739 0.018926 0.000000
0.160711 0.020503 0.000000
0.197557 0.022080 0.000000
0.273488 0.023657 0.000000
0.347293 0.026023 0.000000
0.418465 0.028389 0.000000
0.486868 0.029966 0.000000
0.552188 0.033120 0.000000
0.614111 0.035486 0.000000
0.675045 0.037852 0.000000
0.733706 0.040994 0.000000
0.787848 0.044005 0.000000
0.835338 0.046892 0.000000
0.875601 0.050348 0.000000
0.910469 0.053651 0.000000
0.939999 0.056820 0.000000
0.964306 0.061056 0.000000
0.983288 0.065085 0.000000
1.000000 0.069470 0.000000
0.000000 0.029177 0.000000
0.000789 0.033909 0.000000
0.001577 0.035486 0.000000
0.003154 0.035486 0.000000
0.005520 0.035486 0.000000
0.009463 0.035486 0.000000
0.014983 0.035486 0.000000
0.022869 0.033120 0.000000
0.031543 0.029966 0.000000
0.041759 0.027600 0.000000
0.054934 0.026023 0.000000
0.068934 0.025234 0.000000
0.085170 0.024446 0.000000
0.104163 0.024446 0.000000
0.132407 0.026023 0.000000
0.164864 0.027600 0.000000
0.202261 0.029177 0.000000
0.277979 0.031543 0.000000
0.351606 0.033909 0.000000
0.422640 0.036274 0.000000
0.490736 0.038640 0.000000
0.555720 0.041759 0.000000
0.617651 0.044738 0.000000
0.678716 0.047596 0.000000
0.737243 0.051020 0.000000
0.790817 0.053651 0.000000
0.837715 0.057439 0.000000
0.877453 0.061056 0.000000
0.911865 0.064521 0.000000
0.940930 0.068934 0.000000
0.964841 0.073649 0.000000
0.983452 0.078619 0.000000
1.000000 0.083803 0.000000
0.000000 0.040217 0.000000
0.000789 0.046181 0.000000
0.000789 0.050348 0.000000
0.002366 0.049669 0.000000
0.005520 0.049669 0.000000
0.009463 0.049669 0.000000
0.014194 0.048985 0.000000
0.024446 0.048985 0.000000
0.035486 0.046181 0.000000
0.046892 0.041759 0.000000
0.059868 0.038640 0.000000
0.074664 0.036274 0.000000
0.091319 0.035486 0.000000
0.110072 0.034697 0.000000
0.135977 0.035486 0.000000
0.168910 0.037063 0.000000
0.206847 0.039429 0.000000
0.282652 0.040994 0.000000
0.356057 0.044005 0.000000
0.426845 0.046181 0.000000
0.494900 0.048985 0.000000
0.559625 0.052347 0.000000
0.621565 0.054934 0.000000
0.682804 0.058662 0.000000
0.741077 0.061643 0.000000
0.794207 0.065085 0.000000
0.840287 0.068934 0.000000
0.879459 0.073137 0.000000
0.913379 0.077646 0.000000
0.942005 0.082416 0.000000
0.965460 0.088291 0.000000
0.983644 0.093846 0.000000
1.000000 0.099522 0.000000
0.000000 0.054934 0.000000
0.000789 0.060464 0.000000
0.000789 0.066756 0.000000
0.002366 0.066756 0.000000
0.004731 0.066202 0.000000
0.008674 0.066202 0.000000
0.014194 0.065646 0.000000
0.023657 0.065085 0.000000
0.037852 0.064521 0.000000
0.052347 0.060464 0.000000
0.065646 0.055568 0.000000
0.080536 0.052347 0.000000
0.097930 0.049669 0.000000
0.117405 0.047596 0.000000
0.139456 0.046892 0.000000
0.173085 0.048294 0.000000
0.211692 0.051020 0.000000
0.287366 0.053002 0.000000
0.360738 0.055568 0.000000
0.431555 0.058662 0.000000
0.499284 0.061056 0.000000
0.563778 0.064521 0.000000
0.625893 0.067305 0.000000
0.687300 0.071060 0.000000
0.745358 0.074664 0.000000
0.797796 0.078619 0.000000
0.843015 0.082881 0.000000
0.881650 0.087409 0.000000
0.915101 0.092590 0.000000
0.943166 0.098330 0.000000
0.966078 0.104542 0.000000
0.983891 0.111148 0.000000
1.000000 0.117744 0.000000
0.000000 0.070533 0.000000
0.000789 0.076167 0.000000
0.000789 0.082881 0.000000
0.001577 0.085622 0.000000
0.003943 0.085170 0.000000
0.007886 0.084261 0.000000
0.013406 0.083803 0.000000
0.022080 0.083343 0.000000
0.037063 0.082416 0.000000
0.055568 0.081950 0.000000
0.071060 0.076662 0.000000
0.086965 0.071584 0.000000
0.104919 0.067305 0.000000
0.124646 0.064521 0.000000
0.147523 0.062227 0.000000
0.177156 0.062227 0.000000
0.216237 0.064521 0.000000
0.292118 0.066756 0.000000
0.365444 0.069470 0.000000
0.436123 0.072104 0.000000
0.503816 0.075168 0.000000
0.568173 0.078134 0.000000
0.630625 0.081481 0.000000
0.692149 0.085170 0.000000
0.749922 0.089600 0.000000
0.801686 0.093846 0.000000
0.845934 0.098729 0.000000
0.884022 0.104163 0.000000
0.916879 0.110072 0.000000
0.944383 0.116726 0.000000
0.966724 0.123683 0.000000
0.984138 0.130891 0.000000
1.000000 0.138306 0.000000
0.000000 0.087851 0.000000
0.000789 0.093846 0.000000
0.000789 0.100700 0.000000
0.001577 0.107156 0.000000
0.003943 0.106415 0.000000
0.007097 0.105669 0.000000
0.012617 0.104919 0.000000
0.021292 0.104163 0.000000
0.035486 0.103403 0.000000
0.054295 0.102637 0.000000
0.076167 0.101867 0.000000
0.093429 0.094262 0.000000
0.111859 0.088729 0.000000
0.132708 0.084261 0.000000
0.156188 0.081010 0.000000
0.182000 0.078619 0.000000
0.220678 0.080536 0.000000
0.296781 0.082881 0.000000
0.370269 0.085170 0.000000
0.440942 0.088291 0.000000
0.508491 0.091319 0.000000
0.572803 0.094676 0.000000
0.635748 0.098330 0.000000
0.697429 0.102637 0.000000
0.754760 0.107156 0.000000
0.805659 0.112214 0.000000
0.849072 0.117744 0.000000
0.886607 0.124005 0.000000
0.918893 0.130586 0.000000
0.945684 0.138017 0.000000
0.967481 0.145618 0.000000
0.984384 0.153875 0.000000
1.000000 0.161944 0.000000
0.000000 0.107524 0.000000
0.000789 0.113620 0.000000
0.000789 0.121078 0.000000
0.001577 0.132407 0.000000
0.003154 0.131803 0.000000
0.007097 0.130891 0.000000
0.011829 0.129973 0.000000
0.019714 0.128739 0.000000
0.033120 0.127806 0.000000
0.052347 0.126866 0.000000
0.074664 0.125919 0.000000
0.099916 0.124326 0.000000
0.119422 0.115355 0.000000
0.141164 0.108623 0.000000
0.165345 0.103784 0.000000
0.192319 0.099916 0.000000
0.225021 0.098729 0.000000
0.301236 0.101090 0.000000
0.375018 0.103784 0.000000
0.445772 0.106786 0.000000
0.513240 0.110072 0.000000
0.577660 0.113969 0.000000
0.641299 0.118081 0.000000
0.702956 0.123036 0.000000
0.759829 0.128118 0.000000
0.809891 0.133906 0.000000
0.852360 0.140028 0.000000
0.889401 0.146981 0.000000
0.920960 0.154392 0.000000
0.947069 0.162434 0.000000
0.968153 0.171243 0.000000
0.984631 0.180036 0.000000
1.000000 0.189225 0.000000
0.000000 0.130586 0.000000
0.000789 0.137147 0.000000
0.000789 0.144793 0.000000
0.001577 0.156443 0.000000
0.002366 0.160958 0.000000
0.006309 0.159966 0.000000
0.011040 0.158717 0.000000
0.018137 0.157458 0.000000
0.031543 0.156188 0.000000
0.050348 0.154907 0.000000
0.072622 0.153875 0.000000
0.098729 0.152835 0.000000
0.126866 0.149671 0.000000
0.149671 0.139742 0.000000
0.175360 0.132407 0.000000
0.203418 0.126866 0.000000
0.234421 0.122712 0.000000
0.305735 0.122712 0.000000
0.379602 0.125602 0.000000
0.450538 0.129049 0.000000
0.518187 0.133009 0.000000
0.582791 0.137147 0.000000
0.647027 0.141728 0.000000
0.708722 0.146981 0.000000
0.765120 0.152835 0.000000
0.814164 0.159218 0.000000
0.855896 0.166065 0.000000
0.892277 0.173543 0.000000
0.923171 0.181783 0.000000
0.948481 0.190882 0.000000
0.968881 0.200706 0.000000
0.984850 0.210214 0.000000
1.000000 0.220150 0.000000
0.000000 0.156951 0.000000
0.000789 0.163897 0.000000
0.000789 0.171706 0.000000
0.001577 0.183513 0.000000
0.001577 0.193744 0.000000
0.005520 0.192727 0.000000
0.010251 0.191499 0.000000
0.016560 0.190055 0.000000
0.029177 0.188808 0.000000
0.048294 0.187342 0.000000
0.070533 0.186287 0.000000
0.096721 0.185225 0.000000
0.127806 0.184371 0.000000
0.158717 0.179155 0.000000
0.185650 0.168675 0.000000
0.215156 0.160711 0.000000
0.247770 0.154907 0.000000
0.312986 0.150468 0.000000
0.384303 0.152050 0.000000
0.455390 0.155677 0.000000
0.523136 0.159717 0.000000
0.588294 0.164623 0.000000
0.653205 0.169847 0.000000
0.714762 0.175360 0.000000
0.770554 0.181783 0.000000
0.818477 0.188808 0.000000
0.859609 0.196162 0.000000
0.895328 0.204568 0.000000
0.925345 0.213705 0.000000
0.949889 0.223468 0.000000
0.969664 0.234257 0.000000
0.985178 0.244823 0.000000
1.000000 0.255487 0.000000
0.000000 0.186920 0.000000
0.000789 0.193947 0.000000
0.000789 0.202261 0.000000
0.001577 0.214250 0.000000
0.001577 0.230780 0.000000
0.003943 0.229607 0.000000
0.009463 0.228428 0.000000
0.015771 0.227242 0.000000
0.026812 0.225707 0.000000
0.045463 0.224504 0.000000
0.068394 0.223121 0.000000
0.094676 0.222078 0.000000
0.125919 0.221379 0.000000
0.161944 0.220853 0.000000
0.196162 0.213705 0.000000
0.227412 0.203033 0.000000
0.261792 0.194554 0.000000
0.327027 0.188599 0.000000
0.390911 0.184585 0.000000
0.460398 0.187131 0.000000
0.528273 0.191499 0.000000
0.594314 0.196561 0.000000
0.659679 0.202261 0.000000
0.721273 0.208538 0.000000
0.776200 0.215336 0.000000
0.822934 0.222948 0.000000
0.863530 0.231280 0.000000
0.898488 0.240405 0.000000
0.927660 0.250373 0.000000
0.951295 0.261213 0.000000
0.970530 0.272799 0.000000
0.985479 0.284103 0.000000
1.000000 0.295780 0.000000
0.000000 0.257707 0.000000
0.000789 0.264093 0.000000
0.000789 0.271417 0.000000
0.001577 0.282255 0.000000
0.001577 0.297155 0.000000
0.003154 0.302093 0.000000
0.007886 0.300991 0.000000
0.014194 0.299883 0.000000
0.025234 0.298771 0.000000
0.043264 0.297654 0.000000
0.066202 0.296656 0.000000
0.092590 0.295780 0.000000
0.124326 0.295278 0.000000
0.160958 0.294775 0.000000
0.202454 0.294775 0.000000
0.240086 0.286977 0.000000
0.276627 0.277304 0.000000
0.341966 0.270166 0.000000
0.405620 0.264950 0.000000
0.467927 0.261647 0.000000
0.533409 0.264093 0.000000
0.600467 0.268908 0.000000
0.666392 0.274311 0.000000
0.727708 0.280127 0.000000
0.781867 0.286847 0.000000
0.827636 0.294145 0.000000
0.867556 0.302216 0.000000
0.901726 0.310867 0.000000
0.929998 0.320383 0.000000
0.952641 0.330893 0.000000
0.971367 0.342072 0.000000
0.985780 0.352725 0.000000
1.000000 0.363786 0.000000
0.000000 0.327583 0.000000
0.000789 0.333404 0.000000
0.000789 0.339956 0.000000
0.001577 0.349560 0.000000
0.001577 0.362708 0.000000
0.002366 0.372843 0.000000
0.007097 0.371987 0.000000
0.013406 0.371129 0.000000
0.022869 0.370364 0.000000
0.040217 0.369406 0.000000
0.063382 0.368541 0.000000
0.090463 0.367963 0.000000
0.122712 0.367480 0.000000
0.159966 0.367287 0.000000
0.202454 0.367480 0.000000
0.250373 0.368059 0.000000
0.291737 0.359947 0.000000
0.357359 0.351708 0.000000
0.421254 0.345632 0.000000
0.483375 0.341650 0.000000
0.543910 0.339425 0.000000
0.607106 0.340381 0.000000
0.673515 0.345424 0.000000
0.734512 0.351096 0.000000
0.787591 0.357459 0.000000
0.832508 0.364275 0.000000
0.871752 0.371987 0.000000
0.905041 0.380437 0.000000
0.932239 0.389564 0.000000
0.954042 0.399397 0.000000
0.972119 0.410126 0.000000
0.986136 0.420191 0.000000
1.000000 0.430523 0.000000
0.000000 0.396417 0.000000
0.000789 0.401571 0.000000
0.000789 0.407412 0.000000
0.001577 0.415985 0.000000
0.001577 0.427648 0.000000
0.002366 0.441944 0.000000
0.006309 0.441174 0.000000
0.012617 0.440633 0.000000
0.021292 0.439937 0.000000
0.037852 0.439395 0.000000
0.061056 0.438852 0.000000
0.088729 0.438463 0.000000
0.121078 0.438230 0.000000
0.159218 0.438386 0.000000
0.202647 0.438696 0.000000
0.251738 0.439240 0.000000
0.306217 0.440556 0.000000
0.373222 0.432268 0.000000
0.437529 0.425638 0.000000
0.499746 0.421009 0.000000
0.562190 0.418300 0.000000
0.624554 0.417393 0.000000
0.684836 0.418053 0.000000
0.741315 0.420764 0.000000
0.793261 0.426845 0.000000
0.837648 0.433374 0.000000
0.876144 0.440710 0.000000
0.908401 0.448654 0.000000
0.934444 0.457387 0.000000
0.955497 0.466779 0.000000
0.973094 0.479293 0.000000
0.986764 0.491141 0.000000
1.000000 0.503751 0.000000
0.000000 0.464037 0.000000
0.000789 0.468644 0.000000
0.000789 0.473759 0.000000
0.001577 0.481305 0.000000
0.001577 0.491478 0.000000
0.002366 0.504534 0.000000
0.004731 0.508491 0.000000
0.011040 0.507975 0.000000
0.018926 0.507586 0.000000
0.035486 0.507198 0.000000
0.059267 0.506939 0.000000
0.086520 0.506809 0.000000
0.119755 0.506809 0.000000
0.158717 0.507133 0.000000
0.203225 0.507651 0.000000
0.253396 0.508685 0.000000
0.309564 0.509909 0.000000
0.389564 0.510937 0.000000
0.454127 0.503816 0.000000
0.518187 0.498821 0.000000
0.582682 0.495767 0.000000
0.645553 0.494432 0.000000
0.704786 0.494766 0.000000
0.758170 0.496633 0.000000
0.804731 0.500142 0.000000
0.846736 0.505185 0.000000
0.883296 0.511642 0.000000
0.913833 0.519697 0.000000
0.938308 0.529318 0.000000
0.958625 0.540399 0.000000
0.974789 0.553291 0.000000
0.987610 0.565868 0.000000
1.000000 0.579686 0.000000
0.000000 0.530176 0.000000
0.000789 0.534137 0.000000
0.000789 0.538722 0.000000
0.001577 0.545094 0.000000
0.001577 0.553929 0.000000
0.002366 0.565248 0.000000
0.003154 0.573357 0.000000
0.009463 0.573080 0.000000
0.017349 0.572858 0.000000
0.032332 0.572692 0.000000
0.056820 0.572692 0.000000
0.084717 0.572747 0.000000
0.118418 0.573080 0.000000
0.158215 0.573523 0.000000
0.203994 0.574409 0.000000
0.255785 0.575513 0.000000
0.313571 0.576890 0.000000
0.395888 0.578975 0.000000
0.471707 0.579358 0.000000
0.538722 0.574132 0.000000
0.604576 0.570689 0.000000
0.667214 0.569125 0.000000
0.724315 0.569125 0.000000
0.774361 0.570745 0.000000
0.819210 0.573856 0.000000
0.859019 0.578701 0.000000
0.892807 0.585065 0.000000
0.920242 0.593254 0.000000
0.942702 0.603591 0.000000
0.961740 0.615884 0.000000
0.976507 0.629348 0.000000
0.988455 0.642402 0.000000
1.000000 0.656196 0.000000
0.000000 0.594420 0.000000
0.000789 0.597847 0.000000
0.000789 0.601771 0.000000
0.001577 0.607364 0.000000
0.001577 0.614922 0.000000
0.002366 0.625199 0.000000
0.002366 0.637396 0.000000
0.007886 0.637396 0.000000
0.016560 0.637396 0.000000
0.029966 0.637396 0.000000
0.054295 0.637638 0.000000
0.082881 0.638024 0.000000
0.117405 0.638507 0.000000
0.157963 0.639327 0.000000
0.205140 0.640435 0.000000
0.258442 0.641923 0.000000
0.318209 0.643837 0.000000
0.401571 0.646172 0.000000
0.482686 0.649063 0.000000
0.560367 0.649347 0.000000
0.626932 0.645268 0.000000
0.688352 0.643264 0.000000
0.742388 0.643120 0.000000
0.790341 0.644648 0.000000
0.833362 0.647927 0.000000
0.870560 0.653064 0.000000
0.901172 0.659911 0.000000
0.925850 0.668626 0.000000
0.946954 0.679206 0.000000
0.964728 0.691453 0.000000
0.978029 0.704276 0.000000
0.989191 0.716595 0.000000
1.000000 0.729498 0.000000
0.000000 0.656290 0.000000
0.000789 0.659494 0.000000
0.000789 0.663047 0.000000
0.001577 0.668353 0.000000
0.001577 0.675673 0.000000
0.002366 0.685365 0.000000
0.002366 0.697644 0.000000
0.006309 0.701291 0.000000
0.014983 0.701462 0.000000
0.027600 0.701718 0.000000
0.051686 0.702231 0.000000
0.081010 0.702743 0.000000
0.116385 0.703680 0.000000
0.158215 0.704786 0.000000
0.206658 0.706101 0.000000
0.261502 0.707836 0.000000
0.323331 0.709944 0.000000
0.408093 0.712589 0.000000
0.491613 0.715679 0.000000
0.576120 0.719249 0.000000
0.648732 0.719497 0.000000
0.708089 0.717425 0.000000
0.759520 0.717093 0.000000
0.806016 0.718587 0.000000
0.846736 0.721808 0.000000
0.880857 0.726729 0.000000
0.908096 0.733343 0.000000
0.931267 0.741594 0.000000
0.951037 0.751331 0.000000
0.967537 0.762710 0.000000
0.979547 0.773910 0.000000
0.989925 0.784606 0.000000
1.000000 0.795478 0.000000
0.000000 0.717882 0.000000
0.000789 0.720901 0.000000
0.000789 0.724315 0.000000
0.001577 0.729132 0.000000
0.001577 0.735839 0.000000
0.002366 0.744489 0.000000
0.002366 0.755265 0.000000
0.004731 0.762519 0.000000
0.013406 0.762864 0.000000
0.025234 0.763362 0.000000
0.048985 0.763897 0.000000
0.079582 0.764700 0.000000
0.115355 0.765731 0.000000
0.158466 0.766950 0.000000
0.208351 0.768508 0.000000
0.265235 0.770402 0.000000
0.329022 0.772705 0.000000
0.415321 0.775337 0.000000
0.501786 0.778368 0.000000
0.588025 0.781904 0.000000
0.665753 0.786008 0.000000
0.725584 0.786561 0.000000
0.776125 0.786266 0.000000
0.820814 0.787591 0.000000
0.858691 0.790451 0.000000
0.889213 0.794788 0.000000
0.914558 0.800644 0.000000
0.936408 0.807690 0.000000
0.954841 0.815991 0.000000
0.970167 0.825324 0.000000
0.980897 0.834044 0.000000
0.990605 0.842410 0.000000
1.000000 0.850602 0.000000
0.000000 0.777958 0.000000
0.000789 0.780529 0.000000
0.000789 0.783497 0.000000
0.001577 0.787738 0.000000
0.001577 0.793407 0.000000
0.002366 0.800644 0.000000
0.002366 0.809572 0.000000
0.003154 0.818861 0.000000
0.011040 0.819350 0.000000
0.022869 0.819873 0.000000
0.046181 0.820605 0.000000
0.077155 0.821475 0.000000
0.114317 0.822587 0.000000
0.158717 0.823836 0.000000
0.210400 0.825393 0.000000
0.269188 0.827223 0.000000
0.335245 0.829356 0.000000
0.423128 0.831790 0.000000
0.512793 0.834589 0.000000
0.600467 0.837783 0.000000
0.677554 0.841366 0.000000
0.740957 0.845331 0.000000
0.791620 0.846134 0.000000
0.834180 0.847304 0.000000
0.868785 0.849538 0.000000
0.896538 0.853089 0.000000
0.920661 0.857673 0.000000
0.941163 0.863041 0.000000
0.958370 0.869205 0.000000
0.972537 0.875856 0.000000
0.981997 0.882093 0.000000
0.990958 0.888429 0.000000
1.000000 0.894706 0.000000
0.000000 0.833737 0.000000
0.000789 0.835882 0.000000
0.000789 0.838258 0.000000
0.001577 0.841669 0.000000
0.001577 0.846134 0.000000
0.002366 0.851731 0.000000
0.002366 0.858527 0.000000
0.003154 0.866325 0.000000
0.009463 0.868591 0.000000
0.020503 0.869205 0.000000
0.042516 0.869883 0.000000
0.075168 0.870721 0.000000
0.113270 0.871719 0.000000
0.159218 0.872876 0.000000
0.212609 0.874256 0.000000
0.273488 0.875792 0.000000
0.341966 0.877612 0.000000
0.431951 0.879586 0.000000
0.524752 0.881903 0.000000
0.613705 0.884401 0.000000
0.689533 0.886890 0.000000
0.752073 0.889777 0.000000
0.804945 0.892870 0.000000
0.844962 0.894178 0.000000
0.876336 0.895949 0.000000
0.902894 0.898550 0.000000
