datas/cubes/TC - RESOLUTE_60.cube
TITLE "Generate by Resolve"
LUT_3D_SIZE 5
0 1.5259e-05 0.00115969
0.148302 6.10361e-05 0.00143435
0.550942 0 0
0.834043 0 0
0.952773 0 0
0 0.167452 0
0.148028 0.161486 0.000518807
0.632212 0.108309 0
0.88603 0.131487 0
0.997711 0.171862 0.0074464
0 0.586816 0
0.100465 0.600443 0
0.631098 0.563272 0.000534066
0.899992 0.603632 0.0416266
1 0.641825 0.0390784
0.0621042 0.899992 0.0610361
0.168872 0.899992 0.061799
0.651789 0.898985 0.0257267
0.899855 0.884199 0.0280308
1 0.89041 0.0306096
0.0621653 1 0.0610971
0.204532 1 0.0652018
0.661067 1 0.0255436
0.898894 1 0.0261082
1 1 0.0284733
0 0.00520333 0.132601
0.136431 0 0.19292
0.551537 0 0.111574
0.837034 0 0.100984
0.955032 0 0.108797
0 0.179507 0.116289
0.132479 0.172747 0.14786
0.611383 0.121614 0.139727
0.89662 0.151217 0.170214
0.999649 0.194995 0.217533
0 0.597589 0.100023
0.101122 0.611841 0.10515
0.638529 0.584298 0.162173
0.899992 0.611475 0.154849
1 0.648844 0.163409
0.0640421 0.899992 0.186572
0.171618 0.899992 0.188083
0.635477 0.899565 0.132097
0.897902 0.885664 0.171908
1 0.89012 0.181857
0.0692607 1 0.216724
0.198642 1 0.214298
0.631891 1 0.134981
0.891142 1 0.134951
1 1 0.157046
0 0.0277104 0.353292
0.0999924 0.000289921 0.542321
0.528038 0 0.538781
0.827878 0 0.497093
0.949111 0 0.531167
0 0.236652 0.24387
0.0999924 0.242588 0.273671
0.605417 0.114992 0.595315
0.896422 0.149599 0.630793
0.99968 0.194003 0.683909
0 0.638071 0.201495
0.100694 0.652293 0.212696
0.604486 0.594614 0.584955
0.898817 0.620691 0.621988
1 0.655406 0.656687
0.105501 0.899992 0.288533
0.208988 0.899992 0.292302
0.555062 0.899031 0.560632
0.86215 0.873167 0.560311
0.994965 0.873365 0.60206
0.102327 1 0.283528
0.222843 1 0.302419
0.538781 1 0.568612
0.839933 1 0.479515
0.985199 1 0.50428
0 0.0438392 0.612711
0.0999924 0.011902 0.771771
0.430381 0 0.850401
0.829923 0 0.812024
0.95285 0 0.828031
0 0.311971 0.359319
0.0999924 0.305196 0.51194
0.530358 0.144442 0.880369
0.899351 0.161501 0.894759
1 0.208453 0.899947
0 0.688685 0.479042
0.0999924 0.711177 0.407736
0.36759 0.691325 0.736034
0.897749 0.625101 0.895659
1 0.657404 0.899062
0.0436866 0.899992 0.415824
0.147463 0.899992 0.417304
0.50724 0.899977 0.687709
0.82858 0.870451 0.836149
0.97467 0.867475 0.865629
0.0391699 1 0.42031
0.151522 1 0.428458
0.509911 1 0.640681
0.809491 1 0.812726
0.951812 0.999771 0.84863
0 0.0565652 0.785824
0.0999924 0.0272221 0.915084
0.347189 0 0.968872
0.838193 0 0.952789
0.955032 0 0.956085
0 0.361593 0.492409
0.0999924 0.348501 0.677211
0.469551 0.181613 0.996124
0.899794 0.177874 0.999847
1 0.223957 1
0 0.729931 0.647456
0.0999924 0.753475 0.535683
0.299794 0.738842 0.845869
0.891035 0.639536 1
1 0.664195 1
0.0387732 0.899992 0.520668
0.139818 0.899992 0.524788
0.443046 0.899992 0.828763
0.761608 0.895842 0.927657
0.922194 0.885863 0.972045
0.0388037 1 0.520653
0.148974 1 0.530434
0.453422 1 0.780209
0.779217 1 0.915908
0.943297 1 0.956146
