datas/cubes/TC - CLARITY_20.cube
TITLE "Generate by Resolve"
LUT_3D_SIZE 5
0 0 0
0.212055 0 3.0518e-05
0.521141 3.0518e-05 0.0104829
0.8 0 0.00808728
1 0 0.00787366
0 0.209842 0
0.209537 0.209537 0
0.535103 0.202625 0.0108034
0.8 0.199985 0.00740063
1 0.200931 0.00994888
0.0171359 0.498085 0.0181888
0.223346 0.512383 0.0187533
0.516487 0.515282 0.0423285
0.780789 0.523552 0.0128786
0.98378 0.542733 0.0215915
0 0.8 0
0.199985 0.8 0
0.525536 0.795697 0.033875
0.778958 0.798566 0.0191653
0.985397 0.799329 0.0171511
0 1 0
0.211902 1 0
0.530098 1 0.0339666
0.778912 1 0.0162203
0.98471 1 0.0126497
0 0 0.225467
0.209033 0 0.22295
0.514061 0.000427253 0.216007
0.8 0 0.211933
1 0 0.21294
0 0.209628 0.213962
0.209735 0.209552 0.215518
0.531365 0.204685 0.220859
0.8 0.199985 0.223651
1 0.20383 0.244968
0.0178225 0.503517 0.222782
0.225727 0.517189 0.226734
0.519142 0.519921 0.250996
0.775219 0.529717 0.236408
0.978897 0.546868 0.247852
0 0.8 0.199985
0.199985 0.8 0.199985
0.526787 0.793683 0.254459
0.7785 0.796765 0.247044
0.985 0.797894 0.244022
0 1 0.199985
0.207294 1 0.199985
0.529793 0.999924 0.254444
0.776776 1 0.244739
0.983536 1 0.239689
0 0 0.581415
0.203601 0 0.570092
0.497276 0.00166323 0.514855
0.8 0 0.541314
1 0 0.550362
0 0.204654 0.552514
0.205264 0.205905 0.556939
0.520867 0.20621 0.53518
0.8 0.199985 0.576349
1 0.204776 0.595987
0.0359197 0.500694 0.523262
0.248005 0.512291 0.539132
0.524254 0.519417 0.536355
0.783078 0.528267 0.552285
0.991623 0.542733 0.570138
0 0.797147 0.556664
0.222324 0.793805 0.573053
0.524681 0.7906 0.545846
0.775967 0.792462 0.545495
0.99089 0.793988 0.550103
0.0134127 0.999146 0.599771
0.234913 0.996246 0.598642
0.528084 0.996414 0.55256
0.775143 0.99855 0.545388
0.987747 0.999451 0.547356
0 0 0.8
0.201297 0 0.8
0.516106 0 0.8
0.8 0 0.8
1 0 0.8
0 0.201694 0.8
0.202197 0.204013 0.8
0.542947 0.199985 0.8
0.8 0.199985 0.8
1 0.207813 0.8
0.0123598 0.509255 0.8
0.229435 0.519478 0.8
0.520043 0.52398 0.781811
0.781353 0.532204 0.789639
0.989166 0.544686 0.796124
0.0127565 0.789456 0.8
0.225376 0.79115 0.8
0.533883 0.785061 0.8
0.77319 0.79086 0.8
0.993866 0.792844 0.8
0.0173342 0.996872 0.8
0.228229 0.99649 0.8
0.536522 0.991241 0.8
0.771252 0.998016 0.8
0.989456 0.999786 0.8
0 0 1
0.201175 0 1
0.515236 0 1
0.8 0 1
1 0 1
0 0.202426 1
0.202625 0.206668 1
0.548577 0.200031 1
0.8 0.199985 1
1 0.215259 1
0.0104219 0.516121 1
0.228183 0.52607 1
0.523735 0.530266 0.988235
0.783062 0.537484 0.995331
0.989914 0.548043 0.999435
0.01355 0.790265 1
0.225956 0.791684 1
0.534401 0.785443 1
0.773419 0.790768 1
0.992782 0.792721 1
0.0174258 0.996826 1
0.228199 0.99646 1
0.536095 0.991196 1
0.771313 0.997574 1
0.989349 0.999634 1
