datas/cubes/TC - FLOURISH_20.cube
TITLE "Generate by Resolve"
LUT_3D_SIZE 9
0 0.00172427 0.00972
0.0999924 0.00170901 0.00949111
0.20943 0.000274662 0.00694286
0.369329 0 0
0.557961 0 0
0.699992 0 0
0.8 0 0
0.899992 0 0
1 0 0
0 0.108659 0.0077821
0.0999924 0.108675 0.00747692
0.207004 0.106996 0.00482185
0.371603 0.0999924 0
0.563241 0.0999924 0
0.699992 0.0999924 0
0.8 0.0999924 0
0.899992 0.0999924 0
1 0.0999924 0
0 0.221576 0.000640879
0.0999924 0.222522 0.000350958
0.202457 0.222477 0
0.368093 0.211612 0
0.570443 0.199985 0
0.699992 0.199985 0
0.8 0.199985 0
0.899992 0.199985 0
1 0.199985 0
0 0.349264 0
0.0999924 0.354208 0
0.199985 0.359991 0
0.351354 0.352087 0.00354009
0.557717 0.34052 0
0.699992 0.335378 0
0.8 0.331991 0
0.899992 0.333639 0
1 0.340093 0
0 0.514443 0
0.0999924 0.523766 0
0.199985 0.533211 0
0.322255 0.530312 0
0.533761 0.51429 0.00653086
0.699992 0.516564 0.00521859
0.8 0.51545 0.00520333
0.899992 0.518318 0.00596628
1 0.524529 0.00759899
0 0.686763 0
0.0999924 0.69395 0
0.199985 0.698207 0
0.308125 0.697948 0
0.531823 0.6804 0.000274662
0.696101 0.673793 0.0215305
0.8 0.672435 0.0285191
0.899992 0.673396 0.0292821
1 0.675685 0.0309758
0.00280766 0.8 0.00215152
0.1028 0.8 0.00215152
0.202792 0.8 0.00215152
0.320302 0.8 0
0.532357 0.8 0
0.695445 0.797955 0.0374456
0.8 0.797681 0.0499733
0.899992 0.797681 0.0499733
1 0.797681 0.0499733
0.00280766 0.899992 0.00215152
0.1028 0.899992 0.00215152
0.202792 0.899992 0.00215152
0.324102 0.899992 0
0.535302 0.899992 0
0.695583 0.897963 0.0370184
0.8 0.897688 0.0499733
0.899992 0.897688 0.0499733
1 0.897688 0.0499733
0.00280766 1 0.00215152
0.1028 1 0.00215152
0.202792 1 0.00215152
0.331853 1 0
0.540612 1 0.000274662
0.695369 0.997971 0.0373388
0.8 0.997696 0.0499733
0.899992 0.997696 0.0499733
1 0.997696 0.0499733
0 0.00102235 0.122087
0.0999924 0.00102235 0.121798
0.208942 9.15541e-05 0.117968
0.369284 0 0.102525
0.55819 0 0.0999924
0.699992 0 0.0999924
0.8 0 0.0999924
0.899992 0 0.0999924
1 0 0.0999924
7.62951e-05 0.107927 0.11957
0.100069 0.107942 0.119387
0.207187 0.1066 0.115938
0.372564 0.0999924 0.102632
0.564614 0.0999924 0.0999924
0.699992 0.0999924 0.0999924
0.8 0.0999924 0.0999924
0.899992 0.0999924 0.0999924
1 0.0999924 0.0999924
0 0.221225 0.112688
0.0999924 0.222309 0.113176
0.202533 0.22269 0.111345
0.371984 0.211841 0.10074
0.573663 0.2 0.0999924
0.699992 0.199985 0.0999924
0.8 0.199985 0.0999924
0.899992 0.199985 0.0999924
1 0.199985 0.0999924
0 0.350912 0.0999924
0.0999924 0.356405 0.0999924
0.199985 0.362722 0.0999924
0.355581 0.354574 0.104112
0.562295 0.34342 0.0999924
0.699992 0.338003 0.0999924
0.8 0.3346 0.0999924
0.899992 0.336217 0.0999924
1 0.343587 0.0999924
0 0.517662 0.0999924
0.0999924 0.527199 0.0999924
0.199985 0.536873 0.0999924
0.326802 0.532998 0.0999924
0.538125 0.517479 0.106874
0.699992 0.519707 0.106081
0.8 0.518318 0.105943
0.899992 0.521218 0.106676
1 0.527352 0.108339
0 0.689219 0.0999924
0.0999924 0.696162 0.0999924
0.199985 0.699046 0.0999924
0.311788 0.699168 0.0999924
0.536553 0.681727 0.100267
0.698131 0.675593 0.12398
0.8 0.674037 0.129671
0.899992 0.674739 0.130297
1 0.676921 0.13193
0.00280766 0.8 0.102144
0.1028 0.8 0.102144
0.202792 0.8 0.102144
0.322637 0.8 0.0999924
0.536034 0.8 0.0999924
0.696406 0.797909 0.138872
0.8 0.797681 0.14995
0.899992 0.797681 0.14995
1 0.797681 0.14995
0.00280766 0.899992 0.102144
0.1028 0.899992 0.102144
0.202792 0.899992 0.102144
0.325689 0.899992 0.0999924
0.537102 0.899992 0.0999924
0.696193 0.897932 0.137835
0.8 0.897688 0.14995
0.899992 0.897688 0.14995
1 0.897688 0.14995
0.00280766 1 0.102144
0.1028 1 0.102144
0.202792 1 0.102144
0.332921 1 0.0999924
0.541451 1 0.100359
0.695705 0.997955 0.13785
0.8 0.997696 0.14995
0.899992 0.997696 0.14995
1 0.997696 0.14995
0 1.5259e-05 0.246357
0.0999924 0 0.245853
0.207126 0 0.240696
0.367208 0 0.221836
0.55758 0 0.199985
0.699992 0 0.199985
0.8 0 0.199985
0.899992 0 0.199985
1 0 0.199985
0 0.106783 0.242237
0.0999924 0.106859 0.241978
0.205936 0.105425 0.238788
0.371756 0.0999924 0.222385
0.565209 0.0999924 0.201221
0.699992 0.0999924 0.199985
0.8 0.0999924 0.199985
0.899992 0.0999924 0.199985
1 0.0999924 0.199985
0.000381476 0.218967 0.236896
0.100252 0.220142 0.238346
0.204273 0.220905 0.237003
0.374823 0.211276 0.219806
0.576242 0.200015 0.201694
0.699992 0.199985 0.200137
0.8 0.199985 0.199985
0.899992 0.199985 0.199985
1 0.199985 0.199985
0 0.351629 0.211276
0.0999924 0.357641 0.212848
0.199985 0.364141 0.214618
0.358297 0.357275 0.21854
0.568444 0.345678 0.202106
0.699992 0.339437 0.200031
0.8 0.336309 0.199985
0.899992 0.33814 0.199985
1 0.345846 0.199985
0 0.520409 0.199985
0.0999924 0.530159 0.199985
0.199985 0.539818 0.199985
0.329732 0.5355 0.199985
0.541924 0.520531 0.210437
0.699992 0.522087 0.206912
0.8 0.520378 0.2065
0.899992 0.523064 0.207202
1 0.529259 0.208957
0 0.691066 0.199985
0.0999924 0.696986 0.199985
0.199985 0.699687 0.199985
0.315663 0.699992 0.199985
0.53727 0.672541 0.208316
0.699748 0.676768 0.226001
0.8 0.674907 0.230381
0.899992 0.67541 0.230808
1 0.67744 0.232349
0.00280766 0.8 0.202152
0.1028 0.8 0.202152
0.202792 0.8 0.202152
0.324575 0.8 0.199985
0.538537 0.8 0.199985
0.696941 0.797894 0.239796
0.8 0.797681 0.249958
0.899992 0.797681 0.249958
1 0.797681 0.249958
0.00280766 0.899992 0.202152
0.1028 0.899992 0.202152
0.202792 0.899992 0.202167
0.326772 0.899992 0.199985
0.53817 0.899992 0.199985
0.69659 0.897917 0.238193
0.8 0.897688 0.249958
0.899992 0.897688 0.249958
1 0.897688 0.249958
0.00280766 1 0.202152
0.102739 1 0.202274
0.202762 1 0.202213
0.333333 1 0.199985
0.541558 1 0.20032
0.695659 0.997955 0.237751
0.8 0.997696 0.249958
0.899992 0.997696 0.249958
1 0.997696 0.249958
0 0 0.418067
0.0999924 0 0.417273
0.201068 0 0.410788
0.35967 0 0.381704
0.552544 0 0.342824
0.699992 0 0.32047
0.8 0 0.311666
0.899992 0 0.307805
1 0 0.305531
0 0.101625 0.413977
0.0999924 0.101747 0.413825
0.201709 0.100755 0.410101
0.365072 0.0999924 0.384909
0.561334 0.0999924 0.348806
0.699992 0.0999924 0.326787
0.8 0.0999924 0.31902
0.899992 0.0999924 0.317418
1 0.0999924 0.31783
0 0.215549 0.401404
0.0999924 0.21677 0.404288
0.201083 0.217594 0.404868
0.371283 0.208072 0.385275
0.574807 0.199985 0.357443
0.699992 0.199985 0.339422
0.8 0.199985 0.332128
0.899992 0.199985 0.33228
1 0.199985 0.338323
0 0.344808 0.383017
0.0999924 0.350515 0.39086
0.199985 0.356802 0.398367
0.356405 0.358282 0.366842
0.573877 0.34464 0.350286
0.699992 0.338186 0.341115
0.8 0.334676 0.335454
0.899992 0.336843 0.335439
1 0.344762 0.342016
0 0.519951 0.335805
0.0999924 0.529152 0.343496
0.199985 0.53817 0.352377
0.323842 0.539193 0.331273
0.541497 0.522728 0.348424
0.699992 0.522942 0.330831
0.8 0.521065 0.327733
0.899992 0.523659 0.328481
1 0.529656 0.333516
0 0.692439 0.310002
0.0999924 0.698116 0.316915
0.199985 0.699901 0.325139
0.312322 0.699992 0.316182
0.534722 0.673182 0.339574
0.699687 0.676844 0.340337
0.8 0.675059 0.337163
0.899992 0.675364 0.336507
1 0.67715 0.337743
0 0.8 0.319554
0.0999924 0.8 0.32314
0.199985 0.8 0.328069
0.312001 0.8 0.310674
0.534279 0.8 0.317693
0.695537 0.798749 0.344076
0.8 0.798337 0.350301
0.899992 0.798215 0.350393
1 0.798154 0.350469
0 0.899992 0.322133
0.0999924 0.899992 0.327047
0.199985 0.899992 0.329213
0.313802 0.899992 0.308736
0.533028 0.899992 0.305959
0.6963 0.899046 0.336553
0.8 0.898039 0.350439
0.899992 0.897917 0.350378
1 0.897871 0.350362
0 1 0.333211
0.0999924 1 0.33875
0.199985 1 0.337118
0.318715 1 0.311696
0.535439 1 0.306706
0.695171 0.998962 0.33547
0.8 0.997909 0.350439
0.899992 0.997803 0.350271
1 0.997757 0.350164
0 0 0.598459
0.0999924 0 0.598169
0.199985 0 0.595956
0.348745 0 0.574929
0.542855 0 0.537179
0.699992 0 0.505455
0.8 0 0.4878
0.899992 0 0.481651
1 0 0.478737
0 0.0999924 0.597574
0.0999924 0.0999924 0.597589
0.2 0.0999924 0.596445
0.354879 0.0999924 0.579675
0.553033 0.0999924 0.546151
0.699992 0.0999924 0.517464
0.8 0.0999924 0.5066
0.899992 0.0999924 0.508049
1 0.0999924 0.512413
0 0.209384 0.592096
0.0999924 0.210834 0.595254
0.199985 0.211917 0.59762
0.364416 0.202716 0.583947
0.569482 0.199985 0.560357
0.699992 0.199985 0.542199
0.8 0.199985 0.536141
0.899992 0.199985 0.538888
1 0.199985 0.54818
0 0.340764 0.570291
0.0999924 0.346777 0.578515
0.199985 0.35346 0.585687
0.353338 0.353567 0.573602
0.571191 0.340108 0.559518
0.699992 0.334035 0.550072
0.8 0.330816 0.544457
0.899992 0.332952 0.547417
1 0.340475 0.557626
0 0.509178 0.559716
0.0999924 0.518029 0.568856
0.199985 0.526772 0.577447
0.33463 0.528893 0.562936
0.541909 0.523323 0.526314
0.699992 0.518502 0.51838
0.8 0.516701 0.515129
0.899992 0.519036 0.516777
1 0.524437 0.522744
0 0.684352 0.540703
0.0999924 0.691463 0.553109
0.199985 0.697963 0.565255
0.309209 0.697978 0.548501
0.521309 0.685954 0.500252
0.694743 0.674281 0.51632
0.8 0.672816 0.509972
0.899992 0.672908 0.509392
1 0.674281 0.511925
0 0.8 0.539223
0.0999924 0.8 0.549966
0.199985 0.8 0.559777
0.304128 0.8 0.537148
0.512825 0.8 0.486946
0.686336 0.797009 0.519234
0.8 0.798718 0.505684
0.899992 0.798764 0.502297
1 0.798672 0.500679
0 0.899992 0.551003
0.0999924 0.899992 0.559289
0.199985 0.899992 0.561318
0.304891 0.899992 0.534234
0.511269 0.899992 0.482429
0.686381 0.898955 0.51928
0.8 0.898665 0.511543
0.899992 0.898863 0.493675
1 0.898909 0.490608
0 1 0.568643
0.0999924 1 0.574075
0.199985 1 0.571527
0.308949 1 0.538048
0.511879 1 0.482292
0.686 0.998978 0.518105
0.8 0.998703 0.510201
0.899992 0.998947 0.487922
1 0.998993 0.48397
0 0 0.699992
0.0999924 0 0.699992
0.199985 0 0.699992
0.338598 0 0.699992
0.53283 0 0.699992
0.699275 0 0.69041
0.8 0 0.677058
0.899992 0 0.674601
1 0 0.674296
0 0.0999924 0.699992
0.0999924 0.0999924 0.699992
0.199985 0.0999924 0.699992
0.34583 0.0999924 0.699992
0.543496 0.0999924 0.699992
0.699718 0.0999924 0.694194
0.8 0.0999924 0.688045
0.899992 0.0999924 0.68957
1 0.0999924 0.691844
0 0.206439 0.699992
0.0999924 0.208011 0.699992
0.199985 0.209369 0.699992
0.359609 0.201144 0.699992
0.562692 0.199985 0.699992
0.699992 0.199985 0.69955
0.8 0.199985 0.698711
0.899992 0.199985 0.698924
1 0.199985 0.699809
0 0.338231 0.699992
0.0999924 0.344488 0.699992
0.199985 0.351522 0.699992
0.352285 0.350622 0.699992
0.570687 0.337469 0.699992
0.699992 0.331746 0.699992
0.8 0.328725 0.699992
0.899992 0.330968 0.699992
1 0.33875 0.699992
0 0.507012 0.699992
0.0999924 0.51545 0.699992
0.199985 0.52369 0.699992
0.335729 0.527687 0.699992
0.541573 0.521172 0.69987
0.699992 0.51545 0.699733
0.8 0.513512 0.698268
0.899992 0.51577 0.699519
1 0.52105 0.698894
0 0.675364 0.699992
0.102266 0.681865 0.699992
0.207752 0.687465 0.699992
0.326741 0.688807 0.699992
0.526116 0.678569 0.698375
0.694804 0.671839 0.674693
0.8 0.669261 0.670527
0.899992 0.6692 0.669535
1 0.670405 0.669917
0.00590524 0.8 0.699992
0.108705 0.8 0.699992
0.211215 0.8 0.699992
0.318425 0.8 0.699992
0.509377 0.8 0.690806
0.686397 0.799756 0.665217
0.8 0.799008 0.6663
0.899992 0.798947 0.664042
1 0.797971 0.662455
0.0081178 0.899992 0.699992
0.110552 0.899992 0.699992
0.21088 0.899992 0.699992
0.317861 0.899992 0.699992
0.505257 0.899992 0.686625
0.681361 0.899809 0.659724
0.8 0.89897 0.664668
0.899992 0.898817 0.657694
1 0.898772 0.655329
0.0133822 1 0.699992
0.115206 1 0.699992
0.214084 1 0.699992
0.320806 1 0.699992
0.503944 1 0.684794
0.679118 0.999741 0.65449
0.8 0.998978 0.664927
0.899992 0.998764 0.654322
1 0.998688 0.649897
0 0 0.8
0.0999924 0 0.8
0.199985 0 0.8
0.334401 0 0.8
0.52755 0 0.8
0.692103 0 0.8
0.8 0 0.8
0.899992 0 0.799969
1 0 0.8
0 0.0999924 0.8
0.0999924 0.0999924 0.8
0.199985 0.0999924 0.8
0.342687 0.0999924 0.8
0.540703 0.0999924 0.8
0.699367 0.0999924 0.8
0.8 0.0999924 0.8
0.899992 0.0999924 0.8
1 0.0999924 0.8
0 0.204242 0.8
0.0999924 0.205982 0.8
0.199985 0.207553 0.8
0.358495 0.200702 0.8
0.562264 0.199985 0.8
0.699992 0.199985 0.8
0.8 0.199985 0.8
0.899992 0.199985 0.8
1 0.199985 0.8
0 0.336522 0.8
0.0999924 0.342947 0.8
0.199985 0.34992 0.8
0.352956 0.349004 0.8
0.570855 0.336019 0.8
0.699992 0.33051 0.8
0.8 0.327718 0.8
0.899992 0.330037 0.8
1 0.338186 0.8
0 0.506355 0.8
0.0999924 0.514412 0.8
0.200015 0.522667 0.8
0.336095 0.526925 0.8
0.54255 0.520348 0.8
0.699992 0.514656 0.8
0.8 0.512673 0.8
0.899992 0.514733 0.8
1 0.519966 0.8
0.00918593 0.672374 0.8
0.111437 0.679179 0.8
0.213672 0.685481 0.8
0.330343 0.687037 0.8
0.528557 0.676936 0.8
0.695018 0.670787 0.8
0.8 0.667491 0.8
0.899992 0.667201 0.8
1 0.668208 0.8
0.0194858 0.8 0.8
0.119478 0.8 0.8
0.219486 0.8 0.8
0.325277 0.8 0.8
0.518456 0.8 0.8
0.68397 0.799558 0.8
0.8 0.799893 0.798825
0.899992 0.799542 0.797955
1 0.797848 0.79678
0.0194858 0.899992 0.8
0.119478 0.899992 0.8
0.219486 0.899992 0.8
0.325673 0.899992 0.8
0.515419 0.899992 0.8
0.67953 0.899565 0.799985
0.8 0.899931 0.796628
0.899992 0.899855 0.794125
1 0.899779 0.791775
0.0194858 1 0.8
0.119478 1 0.8
0.219486 1 0.8
0.325994 1 0.8
0.513603 1 0.8
0.675212 0.999664 0.799252
0.8 0.999832 0.793164
0.899992 0.99971 0.789563
1 0.999619 0.786755
0 0 0.899992
0.0999924 0 0.899992
0.199985 0 0.899992
0.332647 0 0.899992
0.525948 0 0.899992
0.691646 0 0.899992
0.8 0 0.899992
0.899992 0 0.899992
1 0 0.899992
0 0.0999924 0.899992
0.0999924 0.0999924 0.899992
0.199985 0.0999924 0.899992
0.34197 0.0999924 0.899992
0.54107 0.0999924 0.899992
0.699199 0.0999924 0.899992
0.8 0.0999924 0.899992
0.899992 0.0999924 0.899992
1 0.0999924 0.899992
0 0.203326 0.899992
0.0999924 0.205127 0.899992
0.199985 0.206851 0.899992
0.359945 0.200076 0.899992
0.564477 0.199985 0.899992
0.699992 0.199985 0.899992
0.8 0.199985 0.899992
0.899992 0.199985 0.899992
1 0.199985 0.899992
0 0.33637 0.899992
0.0999924 0.343206 0.899992
0.199985 0.350484 0.899992
0.355673 0.349264 0.899992
0.572702 0.336416 0.899992
0.699992 0.330892 0.899992
0.8 0.328176 0.899992
0.899992 0.330694 0.899992
1 0.339544 0.899992
0 0.507118 0.899992
0.0999924 0.515053 0.899992
0.200015 0.523598 0.899992
0.338384 0.527749 0.899992
0.544839 0.520928 0.899992
0.699992 0.515206 0.899992
0.8 0.513252 0.899992
0.899992 0.514946 0.899992
1 0.520226 0.899992
0.00941482 0.673243 0.899992
0.111711 0.679973 0.899992
0.213901 0.686061 0.899992
0.332097 0.687373 0.899992
0.529763 0.677134 0.899992
0.695247 0.670802 0.899992
0.8 0.667292 0.899992
0.899992 0.666819 0.899992
1 0.667735 0.899992
0.0194858 0.8 0.899992
0.119478 0.8 0.899992
0.219486 0.8 0.899992
0.325917 0.8 0.899992
0.518822 0.8 0.899992
0.684031 0.799542 0.899992
0.8 0.8 0.899992
0.899992 0.798733 0.899992
1 0.797055 0.899992
0.0194858 0.899992 0.899992
0.119478 0.899992 0.899992
0.219486 0.899992 0.899992
0.32549 0.899992 0.899992
0.514885 0.899992 0.899992
0.679454 0.899413 0.899992
0.8 0.899992 0.899992
0.899992 0.899992 0.899992
1 0.899992 0.899992
0.0194858 1 0.899992
0.119478 1 0.899992
0.219486 1 0.899992
0.325505 1 0.899992
0.512627 1 0.899992
0.675425 0.999313 0.899992
0.8 1 0.899992
0.899992 1 0.899992
1 1 0.899901
0 0 1
0.0999924 0 1
0.199985 0 1
0.331441 0 1
0.525002 0 1
0.691508 0 1
0.8 0 1
0.899992 0 1
1 0 1
0 0.0999924 1
0.0999924 0.0999924 1
0.199985 0.0999924 1
0.341955 0.0999924 1
0.542336 0.0999924 1
0.698924 0.0999924 1
0.8 0.0999924 1
0.899992 0.0999924 1
1 0.0999924 1
0 0.20267 1
0.0999924 0.204639 1
0.199985 0.206592 1
0.362951 0.199985 1
0.566278 0.199985 1
0.699992 0.199985 1
0.8 0.199985 1
0.899992 0.199985 1
1 0.199985 1
0 0.336904 1
0.0999924 0.343923 1
0.199985 0.351919 1
0.359213 0.350637 1
0.575555 0.337819 1
0.699992 0.33225 1
0.8 0.330022 1
0.899992 0.333135 1
1 0.343175 1
0 0.508293 1
0.0999924 0.516197 1
0.199985 0.525322 1
0.341329 0.529549 1
0.547753 0.522316 1
0.699992 0.516548 1
0.8 0.514748 1
0.899992 0.516579 1
1 0.522118 1
0.00981155 0.674357 1
0.112108 0.681163 1
0.214343 0.687266 1
0.334218 0.688441 1
0.531441 0.67776 1
0.695445 0.671183 1
0.8 0.667521 1
0.899992 0.666972 1
1 0.667964 1
0.0194858 0.8 1
0.119478 0.8 1
0.219486 0.8 1
0.326955 0.8 1
0.519646 0.8 1
0.684306 0.799542 1
0.8 0.799939 1
0.899992 0.798001 1
1 0.79649 1
0.0194858 0.899992 1
0.119478 0.899992 1
0.219486 0.899992 1
0.325551 0.899992 1
0.5149 0.899992 1
0.679225 0.899397 1
0.8 0.899992 1
0.899992 0.899992 1
1 0.899992 1
0.0194858 1 1
0.119478 1 1
0.219486 1 1
0.325475 1 1
0.512367 1 1
0.675074 0.999298 1
0.8 1 1
0.899992 1 1
1 1 1
