datas/cubes/TC - HERO_20.cube
TITLE "Generate by Resolve"
LUT_3D_SIZE 33
0 4.57771e-05 0.000122072
0.0250095 3.0518e-05 6.10361e-05
0.0502937 1.5259e-05 4.57771e-05
0.076936 1.5259e-05 3.0518e-05
0.10547 0 3.0518e-05
0.134813 1.5259e-05 7.62951e-05
0.16466 1.5259e-05 9.15541e-05
0.195438 0 4.57771e-05
0.227893 0 0
0.264057 0 0
0.303899 0 0
0.344747 0 0
0.38497 0 0
0.424598 0 0
0.4636 0 0
0.501732 0 0
0.537499 0 0
0.571527 0 0
0.604013 0 0
0.635111 0 0
0.665293 0 0
0.694636 0 0
0.723339 0 0
0.751476 0 0
0.779126 0 0
0.80647 0 0
0.833585 0 0
0.860517 0 0
0.88716 0 0
0.913146 0 0
0.938338 0 0
0.963348 0 0
0.988342 0 0
0 0.0262455 7.62951e-05
0.0250095 0.026215 7.62951e-05
0.0502022 0.0261997 7.62951e-05
0.0770886 0.0260471 6.10361e-05
0.106325 0.025803 7.62951e-05
0.136446 0.0256199 0.000122072
0.167269 0.0253452 9.15541e-05
0.199222 0.0250706 3.0518e-05
0.23212 0.0249943 0
0.267323 0.0249943 0
0.306081 0.0249943 0
0.346517 0.0249943 0
0.386389 0.0249943 0
0.426123 0.0249943 0
0.464973 0.0249943 0
0.502998 0.0249943 0
0.538888 0.0249943 0
0.57261 0.0249943 0
0.604852 0.0249943 0
0.63595 0.0249943 0
0.666041 0.0249943 0
0.695338 0.0249943 0
0.723964 0.0249943 0
0.752041 0.0249943 0
0.779706 0.0249943 0
0.80708 0.0249943 0
0.834226 0.0249943 0
0.861219 0.0249943 0
0.887587 0.0249943 0
0.913222 0.0249943 0
0.938354 0.0249943 0
0.963378 0.0249943 0
0.988418 0.0249943 0
1.5259e-05 0.0538491 6.10361e-05
0.0250095 0.0537881 7.62951e-05
0.0500954 0.0537728 7.62951e-05
0.0768749 0.0534371 6.10361e-05
0.106416 0.052842 6.10361e-05
0.137392 0.05243 9.15541e-05
0.169802 0.0518044 6.10361e-05
0.204013 0.0508736 1.5259e-05
0.23946 0.0501411 0
0.275959 0.0499886 0
0.313466 0.0499886 0
0.351019 0.0499886 0
0.389395 0.0499886 0
0.428046 0.0499886 0
0.466484 0.0499886 0
0.504158 0.0499886 0
0.539895 0.0499886 0
0.573449 0.0499886 0
0.605661 0.0499886 0
0.636667 0.0499886 0
0.666651 0.0499886 0
0.695949 0.0499886 0
0.72459 0.0499886 0
0.752728 0.0499886 0
0.780407 0.0499886 0
0.807797 0.0499886 0
0.835004 0.0499886 0
0.862074 0.0499886 0
0.888045 0.0500038 0
0.913451 0.0500496 0
0.938674 0.0501106 0
0.963958 0.0502174 0
0.989334 0.0503853 0
1.5259e-05 0.0838941 6.10361e-05
0.0250095 0.083772 7.62951e-05
0.0500191 0.0835889 7.62951e-05
0.0764935 0.0829023 6.10361e-05
0.105745 0.0818036 3.0518e-05
0.137072 0.0811627 1.5259e-05
0.170123 0.0803998 1.5259e-05
0.206043 0.0788586 0
0.24538 0.0766918 0
0.286519 0.0750896 0
0.326421 0.0749828 0
0.362173 0.0749828 0
0.397833 0.0749828 0
0.434119 0.0749828 0
0.470497 0.0749828 0
0.506676 0.0749828 0
0.541634 0.0749828 0
0.57467 0.0749828 0
0.606516 0.0749828 0
0.637446 0.0749828 0
0.667353 0.0749828 0
0.69662 0.0749828 0
0.725368 0.0749828 0
0.753567 0.0749828 0
0.781384 0.0749828 0
0.809003 0.0749828 0
0.836515 0.0750439 0
0.863722 0.0751812 0
0.88986 0.0756085 0
0.91545 0.076173 0
0.94107 0.0768444 0
0.966751 0.0776226 0
0.992477 0.078584 0
0 0.115633 3.0518e-05
0.0249943 0.11545 4.57771e-05
0.0499886 0.114946 4.57771e-05
0.0761578 0.113817 4.57771e-05
0.104845 0.11223 1.5259e-05
0.13576 0.111147 0
0.168551 0.110323 0
0.20412 0.108812 0
0.244343 0.106142 0
0.289754 0.102602 0
0.336385 0.100603 0
0.37673 0.10013 0
0.412955 0.100023 0
0.44741 0.0999924 0
0.480919 0.0999924 0
0.514611 0.0999924 0
0.547066 0.0999924 0
0.578607 0.0999924 0
0.609537 0.0999924 0
0.640055 0.0999924 0
0.669871 0.0999924 0
0.69929 0.100008 0
0.728237 0.100114 0
0.756817 0.100404 0
0.785229 0.100893 0
0.813306 0.101671 0
0.840833 0.102663 0
0.867536 0.103731 0
0.893568 0.104952 0
0.919234 0.10634 0
0.944869 0.107668 0
0.97052 0.109071 0
0.996201 0.110552 3.0518e-05
0 0.147295 0
0.0249943 0.147112 0
0.0499886 0.146517 0
0.0755932 0.145144 0
0.103426 0.14313 0
0.134112 0.141619 0
0.166613 0.140826 0
0.201221 0.139696 0
0.239719 0.137606 0
0.283467 0.134203 0
0.332113 0.129809 0
0.379553 0.127214 0
0.42266 0.125994 0
0.461372 0.125414 0
0.49604 0.125185 0
0.527703 0.125109 0
0.558434 0.12517 0
0.588769 0.125338 0
0.618708 0.125582 0
0.648554 0.125963 0
0.678096 0.126436 0
0.707301 0.127047 0
0.736065 0.127932 0
0.764446 0.129427 0
0.792218 0.131167 0
0.819333 0.133013 0
0.845624 0.134646 0
0.871443 0.136049 0
0.897032 0.137224 0
0.922591 0.138384 0
0.948165 0.139605 0
0.97377 0.140932 3.0518e-05
0.999222 0.142351 0.000228885
0 0.179736 0
0.0249943 0.179736 0
0.0499886 0.17908 0
0.0751202 0.17763 0
0.101534 0.175235 0
0.131685 0.173053 0
0.164508 0.172091 0
0.198749 0.171267 0
0.236515 0.169574 0
0.278538 0.166842 0
0.325551 0.162982 0
0.374533 0.158938 0
0.421927 0.156054 0
0.465385 0.154177 0
0.504326 0.15314 0
0.538186 0.153063 0
0.570459 0.153429 0
0.601892 0.154162 0
0.632715 0.155261 0
0.661753 0.156451 0
0.689998 0.157702 0
0.717632 0.15903 0
0.744533 0.160403 0
0.771069 0.161929 0
0.79736 0.163607 0
0.82324 0.165179 9.15541e-05
0.848844 0.16672 0.00030518
0.874205 0.168124 0.00062562
0.899413 0.169421 0.000991836
0.92462 0.170871 0.00143435
0.949691 0.172564 0.00201419
0.974762 0.174578 0.00270085
0.999847 0.176791 0.00343328
0 0.213748 0
0.0249943 0.214008 0
0.0499886 0.213504 0
0.0749828 0.212161 0
0.100252 0.209491 0
0.128405 0.206516 0
0.161273 0.205035 0
0.195758 0.204135 0
0.232776 0.202914 0
0.274296 0.200793 0
0.320195 0.197635 0
0.368017 0.194369 0
0.415671 0.191241 0
0.461479 0.188754 0
0.504646 0.187121 0
0.541863 0.187182 0
0.577279 0.187869 0
0.611124 0.189014 0.000122072
0.642863 0.190433 0.000717174
0.670893 0.191333 0.000900282
0.697353 0.192111 0.000976577
0.723156 0.193027 0.00108339
0.748669 0.194263 0.00134279
0.77406 0.195712 0.00170901
0.79939 0.197345 0.00215152
0.824628 0.199054 0.00263981
0.84979 0.200778 0.00318914
0.874861 0.202594 0.00378424
0.899916 0.2047 0.00440986
0.924956 0.206912 0.00503548
0.949996 0.209155 0.00563058
0.975006 0.211536 0.0062562
1 0.213962 0.0068513
0 0.249882 0
0.0249943 0.250507 0
0.0499886 0.250462 0
0.0749828 0.249378 0
0.0999924 0.246738 0
0.125795 0.242878 0
0.156558 0.240391 0
0.191867 0.23917 0
0.228748 0.238132 0
0.269093 0.236713 0
0.315175 0.234165 0
0.362509 0.231449 0
0.409674 0.228977 0
0.455726 0.227024 0
0.500298 0.22565 0
0.540139 0.225818 6.10361e-05
0.578149 0.226566 0.000534066
0.61413 0.227756 0.0015259
0.646082 0.229297 0.00343328
0.674067 0.230015 0.0043946
0.699657 0.230274 0.00471504
0.724758 0.230838 0.00486763
0.749828 0.231815 0.00512703
0.774884 0.233051 0.00543221
0.799924 0.234668 0.00584421
0.824979 0.23653 0.00630198
0.849989 0.23859 0.00679026
0.874998 0.240925 0.00727855
0.899992 0.243305 0.00773632
0.925002 0.245701 0.00816358
0.949996 0.248264 0.00859083
0.975006 0.250858 0.00900282
1 0.253544 0.00936904
0 0.28838 0
0.0249943 0.289494 0
0.0499886 0.290028 0
0.0749828 0.289555 0
0.0999924 0.287221 0
0.12517 0.282628 0
0.152911 0.278691 0
0.186587 0.276982 0
0.224262 0.275853 0
0.264179 0.27483 0
0.309026 0.27306 0
0.357092 0.270588 0
0.40441 0.268605 0
0.450446 0.26714 0
0.495186 0.266285 0
0.536171 0.266514 0.000167849
0.575204 0.267216 0.00103761
0.612512 0.268406 0.00274662
0.645197 0.270085 0.00546273
0.674266 0.271214 0.00730907
0.699992 0.271778 0.00830091
0.725002 0.271962 0.00840772
0.749996 0.272557 0.00852979
0.77499 0.273564 0.00869764
0.8 0.275044 0.00892653
0.824994 0.276829 0.00918593
0.850004 0.279042 0.00946059
0.874998 0.281483 0.00973526
0.899992 0.283986 0.0099794
0.925002 0.28658 0.010193
0.949996 0.289143 0.0103761
0.975006 0.291966 0.0105287
1 0.294575 0.0106355
0 0.329335 0
0.0249943 0.330877 0
0.0499886 0.332021 0
0.0749828 0.332204 0
0.0999924 0.330541 0
0.124987 0.325902 0
0.15082 0.320729 0
0.181491 0.318166 0
0.218891 0.316655 0
0.25948 0.315511 0
0.303014 0.314168 0
0.350454 0.312306 0
0.398199 0.310414 0
0.445228 0.309071 0
0.49041 0.308095 0
0.531563 0.308248 0.000198367
0.570703 0.308995 0.00103761
0.608026 0.310079 0.00270085
0.642359 0.311711 0.00543221
0.673167 0.313329 0.00790417
0.699992 0.314534 0.00991836
0.725002 0.314778 0.0103456
0.749996 0.315236 0.0105135
0.77499 0.315892 0.0105592
0.8 0.317174 0.0106203
0.824994 0.318914 0.0106661
0.850004 0.320943 0.0106966
0.874998 0.323262 0.0107271
0.899992 0.32578 0.0107424
0.925002 0.32845 0.0107118
0.949996 0.331395 0.0106661
0.975006 0.334249 0.0106203
1 0.336934 0.0105898
0 0.372076 0
0.0249943 0.373907 0
0.0499886 0.375525 0
0.0749828 0.37641 0
0.0999924 0.375357 0
0.124987 0.371359 0
0.150103 0.365774 0
0.178393 0.3617 0
0.213855 0.359792 0
0.254963 0.358282 0
0.298604 0.356741 0
0.345068 0.355016 0
0.39205 0.353491 0
0.438575 0.351934 0
0.484535 0.350622 0
0.526421 0.350301 3.0518e-05
0.566125 0.350683 0.000335698
0.603449 0.351843 0.00103761
0.638239 0.353384 0.00340276
0.670649 0.355047 0.00602731
0.699916 0.356832 0.00880446
0.725002 0.357778 0.0100404
0.749996 0.358358 0.0105745
0.77499 0.359091 0.0106355
0.8 0.360113 0.0106355
0.824994 0.361608 0.0106203
0.850004 0.363455 0.0105898
0.874998 0.365637 0.0105287
0.899992 0.368139 0.0104677
0.925002 0.370809 0.0103609
0.949996 0.373465 0.0102388
0.975006 0.376043 0.0100099
1 0.378622 0.00975052
0 0.415579 0
0.0249943 0.41735 0
0.0499886 0.419028 0
0.0749828 0.420401 0
0.0999924 0.42031 0
0.124987 0.416983 0
0.149996 0.411063 0
0.176486 0.405997 0
0.209583 0.403326 0
0.250431 0.401404 0
0.294591 0.399466 0
0.340719 0.397391 0
0.386954 0.395697 0
0.432822 0.394202 0
0.478492 0.392752 0
0.521096 0.392126 0
0.561715 0.392264 9.15541e-05
0.599527 0.392935 0.00030518
0.634699 0.394263 0.00141909
0.668101 0.395804 0.00329595
0.699245 0.397513 0.00624094
0.724865 0.398962 0.00833143
0.749996 0.400229 0.00953689
0.77499 0.401114 0.00993362
0.8 0.402075 0.00988785
0.824994 0.403464 0.00979629
0.850004 0.405142 0.00965896
0.874998 0.407202 0.00949111
0.899992 0.409598 0.00926223
0.925002 0.412024 0.0090486
0.949996 0.414557 0.00881971
0.975006 0.416938 0.00851453
1 0.419379 0.00814832
0 0.458473 0
0.0249943 0.460227 0
0.0499886 0.46186 0
0.0749828 0.463386 0
0.0999924 0.463767 0
0.124987 0.46128 0
0.149996 0.455543 0
0.175372 0.449668 0
0.206531 0.446387 0
0.24625 0.444266 0
0.290654 0.441825 0
0.336934 0.439292 0
0.382757 0.437217 0
0.427939 0.43566 0
0.472877 0.434333 0
0.516136 0.433585 0
0.557183 0.433249 0
0.595682 0.433585 0
0.631159 0.434638 0.000274662
0.665248 0.435966 0.00125124
0.697688 0.437705 0.0033875
0.724407 0.439353 0.00572213
0.749996 0.440726 0.00743114
0.77499 0.441886 0.00831617
0.8 0.442985 0.00836194
0.824994 0.444389 0.00822461
0.850004 0.446159 0.00801099
0.874998 0.448035 0.00773632
0.899992 0.450172 0.00733959
0.925002 0.452384 0.00689708
0.949996 0.454582 0.00634775
0.975006 0.456687 0.00581369
1 0.458839 0.00527962
0 0.500465 0
0.0249943 0.50219 0
0.0500343 0.50396 6.10361e-05
0.075227 0.505226 0.000274662
0.100359 0.505882 0.000411994
0.125338 0.504112 0.000396735
0.150195 0.498756 0.000244144
0.175051 0.4925 7.62951e-05
0.204669 0.488701 1.5259e-05
0.242435 0.486488 1.5259e-05
0.286717 0.483864 0
0.333471 0.480873 0
0.379324 0.478508 0
0.424292 0.476692 0
0.468406 0.475303 0
0.51133 0.474357 0
0.552544 0.473838 0
0.591669 0.473854 0
0.627543 0.474617 1.5259e-05
0.66212 0.475837 9.15541e-05
0.695125 0.477104 0.000366217
0.723552 0.478676 0.00230411
0.749966 0.480156 0.00408942
0.77499 0.481544 0.0053254
0.8 0.482612 0.00553903
0.824994 0.48394 0.00526436
0.850004 0.485222 0.00497444
0.874998 0.486824 0.00460822
0.899992 0.488487 0.00421149
0.925002 0.490303 0.0037995
0.949996 0.49221 0.0033875
0.975006 0.494179 0.00299077
1 0.496071 0.00263981
0.00109865 0.541314 0.00137331
0.0264134 0.543069 0.00166323
0.0515145 0.544549 0.00170901
0.076585 0.54583 0.00177005
0.101488 0.546654 0.00166323
0.126329 0.545449 0.00151064
0.151019 0.54052 0.00120546
0.175402 0.533913 0.000549325
0.204456 0.529641 0.000320439
0.241352 0.527245 0.000564584
0.284474 0.524773 0.000854505
0.330892 0.521492 0.000808728
0.377172 0.518761 0.000595102
0.422293 0.516518 0.000381476
0.466209 0.514717 0.000183108
0.508553 0.513588 6.10361e-05
0.549447 0.512947 0
0.588418 0.512718 0
0.624338 0.513405 0
0.658915 0.514092 3.0518e-05
0.691997 0.51516 9.15541e-05
0.721889 0.51635 0.000823987
0.749462 0.517617 0.00169375
0.77499 0.518929 0.00250248
0.8 0.520058 0.00283818
0.824994 0.521218 0.00270085
0.850004 0.522377 0.00248722
0.874998 0.52372 0.00221256
0.899992 0.525261 0.00189212
0.925002 0.527016 0.00151064
0.949996 0.528649 0.0011902
0.975006 0.530297 0.000900282
1 0.53196 0.000640879
0.00393683 0.580697 0.00456245
0.0296178 0.582254 0.00527962
0.0553445 0.583612 0.00596628
0.0810407 0.584543 0.00662242
0.106416 0.585138 0.00695811
0.131197 0.584268 0.00669871
0.154894 0.580026 0.00535592
0.178027 0.573724 0.00343328
0.205859 0.569085 0.00247196
0.241596 0.566567 0.00270085
0.28368 0.564401 0.00323491
0.329274 0.561196 0.00302129
0.375784 0.557946 0.00231937
0.42092 0.555291 0.00164797
0.464897 0.55314 0.00102235
0.506859 0.551797 0.000610361
0.547372 0.550927 0.000289921
0.586099 0.550469 0.000106813
0.621759 0.550744 3.0518e-05
0.656229 0.551171 0
0.68925 0.551904 0
0.720104 0.552834 3.0518e-05
0.748669 0.553948 0.000183108
0.774945 0.555016 0.000488289
0.8 0.556176 0.000717174
0.824994 0.557214 0.000656138
0.850004 0.558328 0.000518807
0.874998 0.559487 0.000350958
0.899992 0.560876 0.000213626
0.925002 0.562203 0.00015259
0.949996 0.563485 0.000137331
0.975006 0.564828 0.000137331
1 0.566094 0.000122072
0.00976577 0.617075 0.0104524
0.0352636 0.617563 0.010956
0.0607004 0.61796 0.0113832
0.0860609 0.618402 0.0117647
0.111406 0.619013 0.0121004
0.136156 0.618875 0.011841
0.159564 0.616449 0.0102388
0.181933 0.611719 0.00756847
0.208408 0.607431 0.00593576
0.242832 0.604852 0.00616464
0.283864 0.603006 0.00708019
0.32845 0.599847 0.00672923
0.375082 0.59617 0.0053254
0.420462 0.593118 0.00396735
0.464485 0.590478 0.00270085
0.506279 0.588739 0.00173953
0.546349 0.587533 0.000946059
0.584649 0.58677 0.000320439
0.620005 0.586709 0.000106813
0.6542 0.586862 0
0.686931 0.587335 0
0.71812 0.588022 0
0.747463 0.588708 3.0518e-05
0.774762 0.589441 9.15541e-05
0.799969 0.590311 0.00015259
0.824994 0.591104 0.000167849
0.850004 0.59202 0.000137331
0.874998 0.593011 0.000106813
0.899992 0.593988 6.10361e-05
0.925002 0.595056 3.0518e-05
0.949996 0.596139 1.5259e-05
0.975006 0.597223 0
1 0.598352 0
0.0144045 0.64744 0.0151217
0.0398413 0.647837 0.0155795
0.0652934 0.648341 0.016022
0.0907149 0.648875 0.0164645
0.116075 0.649348 0.0168154
0.141054 0.649439 0.0167849
0.16463 0.648142 0.0153506
0.187259 0.646006 0.0129549
0.212573 0.64332 0.0111086
0.245563 0.641154 0.0109255
0.285512 0.639185 0.0114595
0.329 0.636072 0.0108034
0.375509 0.632227 0.0089723
0.420935 0.628717 0.0071107
0.465187 0.625772 0.00537118
0.506752 0.62356 0.00396735
0.546548 0.621897 0.00277714
0.584482 0.620798 0.00178531
0.619455 0.620447 0.000976577
0.6533 0.620401 0.000350958
0.68571 0.620661 3.0518e-05
0.716716 0.621118 0
0.746349 0.621607 0
0.774304 0.622217 0
0.799939 0.622889 0
0.824994 0.623606 0
0.850004 0.624414 0
0.874998 0.625177 0
0.899992 0.626017 0
0.925002 0.626932 0
0.949996 0.627832 0
0.975006 0.628717 0
1 0.629602 0
0.0180667 0.674998 0.0188144
0.0435645 0.674998 0.0193332
0.0691081 0.674983 0.0198825
0.0942092 0.674815 0.0199893
0.119203 0.674815 0.0199741
0.143969 0.67483 0.0197452
0.168032 0.674678 0.0187839
0.191302 0.674327 0.0170291
0.216312 0.673579 0.0154574
0.248203 0.672694 0.0150759
0.287236 0.671672 0.0153964
0.329732 0.669642 0.0145571
0.375906 0.666438 0.0124056
0.421485 0.663127 0.0101472
0.46569 0.659922 0.00799573
0.50724 0.657328 0.00622568
0.547021 0.655253 0.00469978
0.584634 0.653819 0.0034638
0.619272 0.653208 0.00227359
0.652796 0.652934 0.00123598
0.684825 0.652979 0.000488289
0.715602 0.653223 0.000183108
0.745388 0.653544 4.57771e-05
0.7738 0.654002 1.5259e-05
0.799893 0.654566 0
0.824994 0.655146 0
0.850004 0.655741 0
0.874998 0.656336 0
0.899992 0.656992 0
0.925002 0.657679 0
0.949996 0.658396 0
0.975006 0.659068 0
1 0.659754 0
0.0202792 0.699992 0.0210574
0.045304 0.699992 0.021088
0.0703441 0.699992 0.0211337
0.0954604 0.699992 0.0212558
0.120607 0.699992 0.0213931
0.145647 0.699992 0.0214389
0.170306 0.699992 0.021088
0.194369 0.699992 0.0201419
0.219715 0.699992 0.0191196
0.250751 0.699992 0.0187991
0.288869 0.699809 0.0189212
0.330922 0.699565 0.0178836
0.376547 0.698039 0.0154879
0.421927 0.695781 0.0129244
0.466316 0.692638 0.0103914
0.507912 0.689769 0.00833143
0.547723 0.687327 0.00657664
0.585199 0.685649 0.00529488
0.619577 0.684718 0.00416571
0.652766 0.684153 0.00302129
0.684428 0.68397 0.00175479
0.714961 0.684031 0.000762951
0.744747 0.684169 0.000198367
0.773434 0.684474 4.57771e-05
0.799832 0.684779 0
0.824994 0.685176 0
0.850004 0.685618 0
0.874998 0.686091 0
0.899992 0.686625 0
0.925002 0.68719 0
0.949996 0.687785 0
0.975006 0.68838 0
1 0.689006 0
0.0208591 0.725002 0.0216373
0.0459297 0.725002 0.0217288
0.070985 0.725002 0.0217746
0.0959793 0.725002 0.0217746
0.120989 0.725002 0.0217746
0.145983 0.725002 0.0217746
0.170871 0.725002 0.0216678
0.195544 0.725002 0.0213321
0.221775 0.725002 0.0209506
0.252842 0.725002 0.0209049
0.29044 0.725002 0.021149
0.332219 0.725002 0.0200046
0.377295 0.724559 0.0176089
0.422629 0.723705 0.0148623
0.466926 0.722316 0.0121462
0.508659 0.720058 0.00985733
0.548714 0.717845 0.00790417
0.585794 0.71603 0.00653086
0.620127 0.714885 0.00546273
0.653147 0.714122 0.00445563
0.684443 0.713802 0.00328069
0.714733 0.71371 0.002121
0.744457 0.713787 0.00114443
0.773205 0.713939 0.000503548
0.799756 0.714183 0.000183108
0.824979 0.714488 6.10361e-05
0.850004 0.714824 1.5259e-05
0.874998 0.715282 0
0.899992 0.715724 0
0.925002 0.716167 0
0.949996 0.716686 0
0.975006 0.717174 0
1 0.717693 0
0.0209964 0.749996 0.0217746
0.0459754 0.749996 0.0217746
0.070985 0.749996 0.0217746
0.0959793 0.749996 0.0217746
0.120989 0.749996 0.0217746
0.145983 0.749996 0.0217746
0.170977 0.749996 0.0217746
0.195941 0.749996 0.0217288
0.222858 0.749996 0.0218357
0.254353 0.749996 0.0221866
0.291417 0.749996 0.0226902
0.33344 0.749996 0.0215
0.377997 0.749996 0.0192111
0.423468 0.749966 0.0163577
0.467796 0.749798 0.013489
0.509667 0.748592 0.0110475
0.549706 0.747051 0.00892653
0.58648 0.745541 0.00750744
0.620829 0.744396 0.00645457
0.653696 0.743481 0.00556954
0.684703 0.743084 0.00459297
0.714824 0.742885 0.0034638
0.74432 0.742809 0.00231937
0.773083 0.74287 0.00129702
0.799649 0.743038 0.000640879
0.824964 0.743282 0.000289921
0.850004 0.743572 9.15541e-05
0.874998 0.743877 1.5259e-05
0.899992 0.744213 0
0.925002 0.744595 0
0.949996 0.744991 1.5259e-05
0.975006 0.745388 1.5259e-05
1 0.7458 3.0518e-05
0.0209964 0.77499 0.0217746
0.0459754 0.77499 0.0217746
0.070985 0.77499 0.0217746
0.0959793 0.77499 0.0217746
0.120989 0.77499 0.0217746
0.145983 0.77499 0.0217746
0.170977 0.77499 0.0217746
0.196063 0.77499 0.0217899
0.223178 0.77499 0.0220035
0.255238 0.77499 0.0226444
0.292805 0.77499 0.02327
0.334707 0.77499 0.0222477
0.379049 0.77499 0.0201267
0.424949 0.77499 0.0172427
0.468956 0.77499 0.0143435
0.510781 0.774853 0.0118257
0.55108 0.774578 0.00958267
0.587488 0.773907 0.00816358
0.621851 0.773083 0.0071107
0.654612 0.772244 0.00630198
0.685222 0.77174 0.00547799
0.715145 0.771435 0.00451667
0.744488 0.771282 0.0034638
0.773144 0.771252 0.00239567
0.799588 0.771359 0.00149538
0.824964 0.771511 0.000823987
0.850004 0.771695 0.000350958
0.874998 0.771939 9.15541e-05
0.899992 0.772168 1.5259e-05
0.925002 0.772412 1.5259e-05
0.949996 0.772702 6.10361e-05
0.975006 0.772976 9.15541e-05
1 0.773251 0.00015259
0.0209964 0.8 0.0217746
0.0459754 0.8 0.0217746
0.070985 0.8 0.0217746
0.0959793 0.8 0.0217746
0.120989 0.8 0.0217746
0.145983 0.8 0.0217746
0.170977 0.8 0.0217746
0.196262 0.8 0.0218051
0.223682 0.8 0.0220493
0.25684 0.8 0.0228428
0.294759 0.8 0.0232547
0.336706 0.8 0.0222019
0.381109 0.8 0.0201419
0.427222 0.8 0.017258
0.470878 0.8 0.0144503
0.512749 0.799969 0.0119478
0.552926 0.799908 0.00972
0.588922 0.799756 0.0083772
0.623209 0.799512 0.00735485
0.655604 0.799207 0.00665293
0.685985 0.798993 0.00595102
0.71574 0.798871 0.00512703
0.744915 0.798795 0.00419623
0.773465 0.798779 0.00320439
0.799664 0.798825 0.00231937
0.824979 0.798886 0.00157168
0.850004 0.798962 0.000991836
0.874998 0.799054 0.00062562
0.899992 0.799161 0.000534066
0.925002 0.799298 0.000564584
0.949996 0.79942 0.000610361
0.975006 0.799527 0.000656138
1 0.799603 0.000717174
0.0209964 0.824994 0.0217746
0.0459754 0.824994 0.0217746
0.070985 0.824994 0.0217746
0.0959793 0.824994 0.0217746
0.120989 0.824994 0.0217746
0.145983 0.824994 0.0217746
0.170993 0.824994 0.0217746
0.19646 0.824994 0.0218357
0.224521 0.824994 0.0221408
0.259251 0.824994 0.0230411
0.29749 0.824994 0.0231937
0.33962 0.824994 0.0220188
0.383948 0.824994 0.0198978
0.429801 0.824994 0.0169985
0.473411 0.824994 0.0142672
0.515129 0.824994 0.0117952
0.554894 0.824994 0.00967422
0.590661 0.824994 0.0083772
0.624582 0.824964 0.00741588
0.656565 0.824872 0.00680552
0.686748 0.824811 0.00621042
0.716335 0.824765 0.00549325
0.745357 0.82475 0.00466926
0.773785 0.82475 0.00378424
0.799725 0.824765 0.00294499
0.824979 0.824781 0.0021973
0.850004 0.824811 0.00158694
0.874998 0.824842 0.00117494
0.899992 0.824887 0.00108339
0.925002 0.824918 0.00111391
0.949996 0.824964 0.00115969
0.975006 0.824994 0.00120546
1 0.824994 0.00125124
0.0209964 0.850004 0.0217746
0.0459754 0.850004 0.0217746
0.070985 0.850004 0.0217746
0.0959793 0.850004 0.0217746
0.120989 0.850004 0.0217746
0.145983 0.850004 0.0217746
0.171054 0.850004 0.0217899
0.196902 0.850004 0.0218814
0.226337 0.850004 0.0223392
0.262272 0.850004 0.0231937
0.30106 0.850004 0.0230716
0.343374 0.850004 0.0216983
0.388159 0.850004 0.0193637
0.433463 0.850004 0.016495
0.476692 0.850004 0.0138247
0.518227 0.850004 0.0114137
0.557122 0.850004 0.00946059
0.592447 0.850004 0.00823987
0.625895 0.850004 0.00737011
0.65742 0.850004 0.00683604
0.687465 0.850004 0.00631724
0.71693 0.850004 0.00569161
0.745785 0.850004 0.00497444
0.774014 0.850004 0.00418097
0.799786 0.850004 0.00340276
0.824994 0.850004 0.00270085
0.850004 0.850004 0.00207523
0.874998 0.850004 0.00167849
0.899992 0.850004 0.0016022
0.925002 0.850004 0.00161746
0.949996 0.850004 0.00164797
0.975006 0.850004 0.00167849
1 0.850004 0.00170901
0.0209964 0.874998 0.0217746
0.0459754 0.874998 0.0217746
0.070985 0.874998 0.0217746
0.0959793 0.874998 0.0217746
0.120989 0.874998 0.0217746
0.145983 0.874998 0.0217746
0.171069 0.874998 0.0217899
0.197803 0.874998 0.021973
0.230167 0.874998 0.0227359
