datas/cubes/TC - FORWARD_20.cube
TITLE "Generate by Resolve"
LUT_3D_SIZE 33
0 0.00169375 0.00561532
0.0256352 0.00170901 0.0053254
0.0516823 0.00169375 0.00511177
0.0781109 0.00161746 0.00494392
0.10547 0.00143435 0.00471504
0.13315 0.00125124 0.00419623
0.161242 0.00105287 0.00340276
0.190143 0.000823987 0.00233463
0.22034 0.000701915 0.000915541
0.251972 0.00105287 4.57771e-05
0.284688 0.00178531 0
0.319173 0.002533 0
0.357076 0.0027924 0
0.401251 0.00205997 0
0.458564 0 0
0.529778 0 0
0.585077 0 0
0.624994 0 0
0.649989 0 0
0.674998 0 0
0.699992 0 0
0.725002 0 0
0.749996 0 0
0.77499 0 0
0.8 0 0
0.824994 0 0
0.850004 0 0
0.874998 0 0
0.899992 0 0
0.925002 0 0
0.949996 0 0
0.975006 0 0
1 0 0
0 0.0283513 0.00390631
0.0252842 0.0281987 0.0040589
0.0510567 0.027985 0.00425727
0.0776532 0.0277104 0.00456245
0.104723 0.027451 0.00437934
0.13228 0.0271305 0.0039826
0.160433 0.0267033 0.00334173
0.189303 0.0261387 0.0024567
0.219532 0.0256657 0.00111391
0.251087 0.0259709 7.62951e-05
0.283848 0.026688 0
0.318105 0.027451 0
0.355535 0.0278172 0
0.399252 0.0271458 0
0.454612 0.0249943 0
0.525643 0.0249943 0
0.58349 0.0249943 0
0.624994 0.0249943 0
0.649989 0.0249943 0
0.674998 0.0249943 0
0.699992 0.0249943 0
0.725002 0.0249943 0
0.749996 0.0249943 0
0.77499 0.0249943 0
0.8 0.0249943 0
0.824994 0.0249943 0
0.850004 0.0249943 0
0.874998 0.0249943 0
0.899992 0.0249943 0
0.925002 0.0249943 0
0.949996 0.0249943 0
0.975006 0.0249943 0
1 0.0249943 0
0 0.055024 0.0021973
0.0251164 0.0548257 0.00248722
0.0503853 0.0545815 0.00296025
0.0771038 0.0541695 0.0037995
0.103944 0.0539254 0.00390631
0.131167 0.0537118 0.0034638
0.159243 0.0532692 0.00294499
0.188144 0.0526436 0.00216678
0.218326 0.0518349 0.000946059
0.250126 0.0513771 6.10361e-05
0.282994 0.0516518 0
0.317159 0.0523995 0
0.35436 0.0527962 0
0.397604 0.0522316 0
0.451102 0.0499886 0
0.522194 0.0499886 0
0.582177 0.0499886 0
0.624918 0.0499886 0
0.649989 0.0499886 0
0.674998 0.0499886 0
0.699992 0.0499886 0
0.725002 0.0499886 0
0.749996 0.0499886 0
0.77499 0.0499886 0
0.8 0.0499886 0
0.824994 0.0499886 0
0.850004 0.0499886 0
0.874998 0.0499886 0
0.899992 0.0499886 0
0.925002 0.0499886 0
0.949996 0.0499886 0
0.975006 0.0499886 0
1 0.0499886 0
1.5259e-05 0.081529 0.000717174
0.0251926 0.0813611 0.000854505
0.0507362 0.0810559 0.00111391
0.0772564 0.0806439 0.00205997
0.103914 0.0803235 0.00292973
0.130602 0.0801862 0.00323491
0.158373 0.0798199 0.00270085
0.187121 0.0792401 0.00187686
0.217227 0.0782635 0.000701915
0.249165 0.0772259 0
0.282216 0.0769207 0
0.31632 0.077348 0
0.353429 0.0777905 0
0.396262 0.0773175 0
0.448585 0.0749828 0
0.519997 0.0749828 0
0.581323 0.0749828 0
0.624338 0.0749828 0
0.649989 0.0749828 0
0.674998 0.0749828 0
0.699992 0.0749828 0
0.725002 0.0749828 0
0.749996 0.0749828 0
0.77499 0.0749828 0
0.8 0.0749828 0
0.824994 0.0749828 0
0.850004 0.0749828 0
0.874998 0.0749828 0
0.899992 0.0749828 0
0.925002 0.0749828 0
0.949996 0.0749828 0
0.975006 0.0749828 0
1 0.0749828 0
0.000885023 0.107912 0
0.0257877 0.10782 0
0.0513924 0.10753 0
0.0775464 0.107164 0.000534066
0.104189 0.106752 0.00157168
0.13048 0.106645 0.00273136
0.157656 0.106447 0.00254826
0.186084 0.105974 0.00170901
0.216114 0.105104 0.000503548
0.248051 0.103807 0
0.281392 0.102754 0
0.31545 0.102434 0
0.352438 0.10277 0
0.394934 0.102388 0
0.446754 0.100084 0
0.517723 0.0999924 0
0.580636 0.0999924 0
0.623987 0.0999924 0
0.649989 0.0999924 0
0.674998 0.0999924 0
0.699992 0.0999924 0
0.725002 0.0999924 0
0.749996 0.0999924 0
0.77499 0.0999924 0
0.8 0.0999924 0
0.824994 0.0999924 0
0.850004 0.0999924 0
0.874998 0.0999924 0
0.899992 0.0999924 0
0.925002 0.0999924 0
0.949996 0.0999924 0
0.975006 0.0999924 0
1 0.0999924 0
0.00254826 0.134203 0
0.027451 0.134142 0
0.0526741 0.133959 0
0.0783398 0.133684 4.57771e-05
0.104829 0.133242 0.000320439
0.131365 0.132998 0.00170901
0.157961 0.132952 0.00225834
0.18555 0.132723 0.00173953
0.215091 0.132052 0.000534066
0.24686 0.130755 1.5259e-05
0.280537 0.129183 0
0.314809 0.128206 0
0.351522 0.127901 0
0.393652 0.127459 0
0.445426 0.125231 0
0.516258 0.124987 0
0.580331 0.124987 0
0.623804 0.124987 0
0.649989 0.124987 0
0.674998 0.124987 0
0.699992 0.124987 0
0.725002 0.124987 0
0.749996 0.124987 0
0.77499 0.124987 0
0.8 0.124987 0
0.824994 0.124987 0
0.850004 0.124987 0
0.874998 0.124987 0
0.899992 0.124987 0
0.925002 0.124987 0
0.949996 0.124987 0
0.975006 0.124987 0
1 0.124987 0
0.00440986 0.160616 0
0.0293278 0.160571 0
0.0543221 0.160464 0
0.07953 0.160311 0
0.105684 0.159976 0
0.132296 0.159655 0.000579843
0.158831 0.159518 0.00149538
0.185397 0.159594 0.00167849
0.214206 0.159167 0.000793469
0.245533 0.158083 1.5259e-05
0.279454 0.156344 0
0.314137 0.15462 0
0.35053 0.153292 0
0.392233 0.152529 0
0.444068 0.150423 0
0.514839 0.149996 0
0.580514 0.149996 0
0.623453 0.149996 0
0.649989 0.149996 0
0.674998 0.149996 0
0.699992 0.149996 0
0.725002 0.149996 0
0.749996 0.149996 0
0.77499 0.149996 0
0.8 0.149996 0
0.824994 0.149996 0
0.850004 0.149996 0
0.874998 0.149996 0
0.899992 0.149996 0
0.925002 0.149996 0
0.949996 0.149996 0
0.975006 0.149996 0
1 0.149996 0
0.0065156 0.187228 0
0.0314641 0.187198 0
0.0563973 0.187152 0
0.0814679 0.187091 0
0.106966 0.186908 0
0.133196 0.186633 4.57771e-05
0.160281 0.186297 0.000335698
0.186023 0.186557 0.00120546
0.213718 0.186465 0.00115969
0.244388 0.185733 0.000198367
0.278126 0.184161 0
0.313466 0.182132 0
0.349615 0.179873 0
0.390677 0.17789 0
0.442695 0.175631 0
0.513924 0.17499 0
0.580957 0.17499 0
0.623117 0.17499 0
0.649989 0.17499 0
0.674998 0.17499 0
0.699992 0.17499 0
0.725002 0.17499 0
0.749996 0.17499 0
0.77499 0.17499 0
0.8 0.17499 0
0.824994 0.17499 0
0.850004 0.17499 0
0.874998 0.17499 0
0.899992 0.17499 0
0.925002 0.17499 0
0.949996 0.17499 0
0.975006 0.17499 0
1 0.17499 0
0.00889601 0.214206 0
0.0338903 0.214206 0
0.0588846 0.214191 0
0.0838788 0.214191 0
0.108904 0.214191 0
0.134585 0.214054 0
0.161379 0.213764 0
0.188128 0.213703 0.000289921
0.21413 0.21413 0.000839246
0.243488 0.213809 0.000869764
0.276585 0.21268 0.000106813
0.312444 0.210758 0
0.349065 0.208576 9.15541e-05
0.389868 0.205737 0
0.440711 0.20174 0
0.512688 0.199985 0
0.580316 0.199985 0
0.622995 0.199985 0
0.649989 0.199985 0
0.674998 0.199985 0
0.699992 0.199985 0
0.725002 0.199985 0
0.749996 0.199985 0
0.77499 0.199985 0
0.8 0.199985 0
0.824994 0.199985 0
0.850004 0.199985 0
0.874998 0.199985 0
0.899992 0.199985 0
0.925002 0.199985 0
0.949996 0.199985 0
0.975006 0.199985 0
1 0.199985 0
0.0114137 0.241917 0
0.0364385 0.241978 0
0.0614786 0.242023 0
0.0865492 0.242115 0
0.111589 0.242176 0
0.136782 0.242237 0
0.162631 0.242252 0
0.189807 0.242039 0
0.216892 0.242069 0.000320439
0.243534 0.242603 0.00109865
0.275303 0.242069 0.0012665
0.311025 0.240696 0.000579843
0.348653 0.238636 0.00077821
0.389456 0.236057 0.000335698
0.437903 0.232044 0
0.508659 0.225483 0
0.579263 0.224994 0
0.623667 0.224994 0
0.649989 0.224994 0
0.674998 0.224994 0
0.699992 0.224994 0
0.725002 0.224994 0
0.749996 0.224994 0
0.77499 0.224994 0
0.8 0.224994 0
0.824994 0.224994 0
0.850004 0.224994 0
0.874998 0.224994 0
0.899992 0.224994 0
0.925002 0.224994 0
0.949996 0.224994 0
0.975006 0.224994 0
1 0.224994 0
0.0144503 0.27071 0
0.0395209 0.270817 0
0.0646372 0.270954 0
0.0897688 0.271122 0
0.1149 0.271275 0
0.140108 0.271534 0
0.165347 0.271839 0
0.191485 0.271931 0
0.218921 0.271855 0
0.247517 0.272084 0.000656138
0.275334 0.272923 0.00224308
0.309941 0.272129 0.00262455
0.347921 0.270726 0.00250248
0.388571 0.268696 0.00242618
0.435142 0.265827 0.000793469
0.498619 0.258717 0
0.573968 0.251469 0
0.624872 0.250217 0
0.649989 0.249989 0
0.674998 0.249989 0
0.699992 0.249989 0
0.725002 0.249989 0
0.749996 0.249989 0
0.77499 0.249989 0
0.8 0.249989 0
0.824994 0.249989 0
0.850004 0.249989 0
0.874998 0.249989 0
0.899992 0.249989 0
0.925002 0.249989 0
0.949996 0.249989 0
0.975006 0.249989 0
1 0.251255 0
0.0185397 0.300771 0
0.0437324 0.30103 0
0.0689403 0.301289 0
0.0941939 0.30161 0
0.119448 0.301915 0
0.144732 0.302266 0
0.170153 0.302785 0
0.195743 0.303395 0
0.221698 0.303838 0
0.251057 0.303899 0
0.281224 0.304433 0.00241093
0.310826 0.30576 0.00448615
0.34815 0.305119 0.00552377
0.38822 0.303807 0.0056611
0.433143 0.3019 0.00460822
0.48719 0.298116 0.000961318
0.562921 0.289052 0
0.622583 0.283619 0
0.649989 0.281056 0
0.674998 0.279164 0
0.699992 0.278065 0
0.725002 0.277546 0
0.749996 0.277501 0
0.77499 0.278004 0
0.8 0.278935 0
0.824994 0.280217 0
0.850004 0.281865 0
0.874998 0.28397 0
0.899992 0.28574 0
0.925002 0.287541 0
0.949996 0.289311 0
0.975006 0.291173 0
1 0.293034 0
0.0241703 0.332708 0
0.0495003 0.33312 0
0.0748913 0.333608 0
0.100313 0.334127 0
0.125719 0.33463 0
0.15111 0.335119 0
0.176852 0.336019 0
0.202655 0.337011 0
0.228412 0.337942 0
0.255222 0.338491 0
0.287404 0.338552 0.0011902
0.318746 0.339788 0.00616464
0.350423 0.34165 0.00825513
0.389975 0.341253 0.00979629
0.432654 0.34078 0.00970474
0.481437 0.339391 0.00733959
0.547265 0.333715 0.000640879
0.615991 0.326955 0
0.649989 0.324132 0
0.674998 0.321202 0
0.699992 0.318898 0
0.725002 0.317632 0
0.749996 0.317479 0
0.77499 0.318456 0
0.8 0.32018 0
0.824994 0.322362 0
0.850004 0.324865 0
0.874998 0.327764 0
0.899992 0.3308 0
0.925002 0.332769 0
0.949996 0.334829 0
0.975006 0.336904 0
1 0.339055 0
0.0317388 0.367041 0
0.0573739 0.367849 0
0.0830396 0.368673 0
0.108782 0.369604 0
0.134508 0.370504 0
0.160174 0.371344 0
0.185855 0.372183 0
0.211933 0.373526 0
0.238071 0.37496 0
0.263996 0.37612 0
0.293202 0.376608 0.000656138
0.328817 0.376822 0.00643931
0.360128 0.379095 0.0112612
0.394095 0.381323 0.0134737
0.435874 0.381704 0.0150607
0.481254 0.381949 0.0139773
0.535393 0.379828 0.00730907
0.605753 0.373922 0
0.649989 0.370336 0
0.674998 0.367544 0
0.699992 0.365072 0
0.725002 0.363638 0
0.749996 0.363149 0
0.77499 0.363943 0
0.8 0.365652 0
0.824994 0.368093 0
0.850004 0.370962 0
0.874998 0.374121 0
0.899992 0.377661 0
0.925002 0.380514 0
0.949996 0.382895 0
0.975006 0.38526 0
1 0.387396 0
0.0417792 0.404578 0
0.067689 0.405737 0
0.0936141 0.406897 0
0.11957 0.408087 0
0.145525 0.409293 0
0.171389 0.410361 0
0.197192 0.411368 0
0.223484 0.412955 0
0.249989 0.414816 0
0.276417 0.416571 0
0.302693 0.417487 9.15541e-05
0.337072 0.417334 0.00451667
0.374624 0.418112 0.0129549
0.405295 0.421805 0.0171054
0.441718 0.424277 0.0193637
0.485466 0.424964 0.0202182
0.532876 0.424781 0.0160067
0.593149 0.421698 0.00289921
0.649683 0.417762 0
0.674998 0.415076 0
0.699992 0.412543 0
0.725002 0.411078 0
0.749996 0.410574 0
0.77499 0.411154 0
0.8 0.413123 0
0.824994 0.415747 0
0.850004 0.418891 0
0.874998 0.422171 0
0.899992 0.425956 0
0.925002 0.429709 0
0.949996 0.432151 0
0.975006 0.434409 0
1 0.436683 0
0.0542916 0.445075 0
0.0804456 0.446479 0
0.106661 0.447944 0
0.133013 0.449546 0
0.159319 0.451102 0
0.185473 0.452491 0
0.211398 0.45359 0
0.237598 0.455009 0
0.264317 0.457053 0
0.291081 0.459174 0
0.317098 0.460426 0
0.346746 0.460456 0.00109865
0.386664 0.459983 0.0104829
0.422934 0.461585 0.0196078
0.452781 0.465766 0.0228733
0.491569 0.467704 0.0245823
0.535958 0.468254 0.0230259
0.58674 0.467689 0.0117037
0.645975 0.465415 0.00015259
0.674998 0.463584 0
0.699992 0.461463 0
0.725002 0.460075 0
0.749996 0.45948 0
0.77499 0.460151 0
0.8 0.461936 0
0.824994 0.46453 0
0.850004 0.467536 0
0.874998 0.470909 0
0.899992 0.474342 0
0.925002 0.478233 0
0.949996 0.480873 0
0.975006 0.48304 0
1 0.485206 0
0.0692454 0.488106 0
0.0955673 0.489769 0
0.12195 0.491478 0
0.148379 0.493248 0
0.174746 0.494957 0
0.20087 0.496437 0
0.226841 0.497841 0
0.252613 0.498955 0
0.27924 0.501213 0
0.305837 0.503487 0
0.332021 0.50518 0
0.35761 0.505531 0
0.396384 0.503487 0.00132753
0.438499 0.502907 0.0155337
0.471824 0.505699 0.0244755
0.502281 0.509957 0.0272221
0.541604 0.511971 0.0272831
0.5879 0.512551 0.0191501
0.640299 0.512093 0.00341802
0.674998 0.511299 0
0.699992 0.510201 0
0.725002 0.508858 0
0.749996 0.5084 0
0.77499 0.508904 0
0.8 0.510323 0
0.824994 0.512551 0
0.850004 0.515358 0
0.874998 0.518425 0
0.899992 0.521599 0
0.925002 0.524865 0
0.949996 0.528069 0
0.975006 0.529976 0
1 0.531685 0
0.0842298 0.533516 0
0.110597 0.535531 0
0.137026 0.537667 0
0.163455 0.539788 0
0.189761 0.541741 0
0.215946 0.543526 0
0.241901 0.544945 0
0.267536 0.545892 0
0.293889 0.547799 0
0.320562 0.550027 0
0.347204 0.552163 0
0.37293 0.553048 0
0.405219 0.551125 0
0.452644 0.547539 0.00141909
0.491447 0.547372 0.0157626
0.521019 0.551202 0.0252842
0.552132 0.555306 0.0263981
0.593057 0.557153 0.0202487
0.640024 0.557595 0.00660716
0.674998 0.557336 0
0.699992 0.557168 0
0.725002 0.556069 0
0.749996 0.555657 0
0.77499 0.556008 0
0.8 0.557 0
0.824994 0.558877 0
0.850004 0.561242 0
0.874998 0.563821 0
0.899992 0.566415 0
0.925002 0.568933 0
0.949996 0.571649 0
0.975006 0.573663 0
1 0.575006 0
0.100664 0.581491 0
0.127352 0.583551 0
0.15404 0.585611 0
0.180636 0.587549 0
0.207233 0.589487 0
0.233722 0.590921 0
0.260029 0.592081 0
0.285878 0.592844 0
0.312093 0.594034 0
0.339117 0.596063 0
0.366506 0.598169 0
0.392859 0.599313 0
0.418097 0.598871 0
0.464714 0.594766 0
0.509071 0.592004 0.000854505
0.542687 0.592889 0.00784314
0.570474 0.596811 0.0149691
0.602747 0.600275 0.012604
0.64416 0.601297 0.00399786
0.674998 0.601022 0
0.699992 0.601114 0
0.725002 0.600534 0
0.749996 0.600061 0
0.77499 0.600153 0
0.8 0.600717 0
0.824994 0.601999 0
0.850004 0.603723 0
0.874998 0.605707 0
0.899992 0.607752 0
0.925002 0.609735 0
0.949996 0.61178 0
0.975006 0.613809 0
1 0.614862 0
0.121035 0.626856 0
0.147921 0.628504 0
0.17467 0.629969 0
0.201419 0.631434 0
0.228168 0.632883 0
0.254749 0.634211 0
0.281056 0.635309 0
0.306874 0.635996 0
0.332799 0.636759 0
0.359976 0.63856 0
0.387274 0.640452 0
0.413611 0.64155 0
0.438544 0.641505 0
0.474922 0.638987 0
0.521523 0.635859 0
0.560861 0.634668 0
0.591058 0.636484 0.000106813
0.61828 0.640055 0.00103761
0.648844 0.641947 0.000411994
0.674998 0.641871 0
0.699992 0.641428 0
0.725002 0.641108 0
0.749996 0.640589 0
0.77499 0.640482 0
0.8 0.640772 0
0.824994 0.641642 0
0.850004 0.642863 0
0.874998 0.644282 0
0.899992 0.645823 0
0.925002 0.647349 0
0.949996 0.648814 0
0.975006 0.650248 0
1 0.651331 0
0.140536 0.668177 0
0.167224 0.669596 0
0.193835 0.670924 0
0.2206 0.672389 0
0.247318 0.673793 0
0.273777 0.675013 0
0.299367 0.675502 0
0.324681 0.675761 0
0.349966 0.67599 0
0.376333 0.677134 0
0.402243 0.677882 0
0.427771 0.678325 0
0.452384 0.678019 0
0.482292 0.676768 0
0.528603 0.673961 0
0.570474 0.672587 0
0.59997 0.673167 0
0.624994 0.676097 0
0.649989 0.678813 0
0.674998 0.679683 0
0.699992 0.679179 0
0.725002 0.678614 0
0.749996 0.678065 0
0.77499 0.677806 0
0.8 0.677852 0
0.824994 0.678309 0
0.850004 0.679072 0
0.874998 0.680079 0
0.899992 0.681178 0
0.925002 0.682322 0
0.949996 0.683452 0
0.975006 0.68452 0
1 0.685573 0
0.152407 0.703014 0
0.177996 0.703517 0
0.203632 0.704036 0
0.228687 0.704082 0
0.253681 0.704082 0
0.278691 0.704082 0
0.303685 0.704082 0
0.328679 0.704082 0
0.353689 0.704082 0
0.378683 0.704082 0
0.403693 0.704082 0
0.428687 0.704082 0
0.453681 0.704082 0
0.48246 0.703639 0
0.527962 0.701625 0
0.571283 0.700923 0
0.6 0.702037 0
0.624994 0.705623 0
0.649989 0.709957 0
0.674998 0.712428 0
0.699992 0.713268 0
0.725002 0.713191 0
0.749996 0.712779 0
0.77499 0.712413 0
0.8 0.7122 0
0.824994 0.712245 0
0.850004 0.712551 0
0.874998 0.713039 0
0.899992 0.713588 0
0.925002 0.714076 0
0.949996 0.714534 0
0.975006 0.714931 0
1 0.715282 0
0.153689 0.729091 0
0.178683 0.729091 0
0.203677 0.729091 0
0.228687 0.729091 0
0.253681 0.729091 0
0.278691 0.729091 0
0.303685 0.729091 0
0.328679 0.729091 0
0.353689 0.729091 0
0.378683 0.729091 0
0.403693 0.729091 0
0.428687 0.729091 0
0.453681 0.729091 0
0.481788 0.72871 0
0.526497 0.726726 0
0.570031 0.725948 0
0.6 0.726909 0
0.624994 0.730312 0
0.649989 0.734844 0
0.674998 0.73814 0
0.699992 0.740001 0
0.725002 0.74081 0
0.749996 0.741054 0
0.77499 0.74107 0
0.8 0.74107 0
0.824994 0.74107 0
0.850004 0.74107 0
0.874998 0.74107 0
0.899992 0.741054 0
0.925002 0.741024 0
0.949996 0.741024 0
0.975006 0.741039 0
1 0.74107 0
0.153689 0.754086 0
0.178683 0.754086 0
0.203677 0.754086 0
0.228687 0.754086 0
0.253681 0.754086 0
0.278691 0.754086 0
0.303685 0.754086 0
0.328679 0.754086 0
0.353689 0.754086 0
0.378683 0.754086 0
0.403693 0.754086 0
0.428687 0.754086 0
0.453681 0.754086 0
0.481559 0.753735 0
0.52607 0.751766 0
0.569589 0.750942 0
0.6 0.751827 0
0.624994 0.755047 0
0.649989 0.759518 0
0.674998 0.762875 0
0.699992 0.764858 0
0.725002 0.765728 0
0.749996 0.766033 0
0.77499 0.766064 0
0.8 0.766064 0
0.824994 0.766064 0
0.850004 0.766064 0
0.874998 0.766064 0
0.899992 0.766064 0
0.925002 0.766064 0
0.949996 0.766064 0
0.975006 0.766064 0
1 0.766064 0
0.153689 0.77908 0
0.178683 0.77908 0
0.203677 0.77908 0
0.228687 0.77908 0
0.253681 0.77908 0
0.278691 0.77908 0
0.303685 0.77908 0
0.328679 0.77908 0
0.353689 0.77908 0
0.378683 0.77908 0
0.403693 0.77908 0
0.428687 0.77908 0
0.453681 0.77908 0
0.482643 0.778607 0
0.527184 0.776699 0
0.57023 0.775937 0
0.6 0.776837 0
0.624994 0.779995 0
0.649989 0.78436 0
0.674998 0.787732 0
0.699992 0.789746 0
0.725002 0.790677 0
0.749996 0.791012 0
0.77499 0.791074 0
0.8 0.791074 0
0.824994 0.791074 0
0.850004 0.791074 0
0.874998 0.791074 0
0.899992 0.791074 0
0.925002 0.791074 0
0.949996 0.791074 0
0.975006 0.791074 0
1 0.791074 0
0.153689 0.804089 0
0.178683 0.804089 0
0.203677 0.804089 0
0.228687 0.804089 0
0.253681 0.804089 0
0.278691 0.804089 0
0.303685 0.804089 0
0.328679 0.804089 0
0.353689 0.804089 0
0.378683 0.804089 0
0.403693 0.804089 0
0.428687 0.804089 0
0.453681 0.804089 0
0.485451 0.803281 0
0.529824 0.801526 0
0.571801 0.800916 0
0.6 0.801984 0
0.624994 0.805173 0
0.649989 0.809461 0
0.674998 0.812726 0
0.699992 0.81471 0
0.725002 0.815641 0
0.749996 0.815991 0
0.77499 0.816068 0
0.8 0.816068 0
0.824994 0.816068 0
0.850004 0.816068 0
0.874998 0.816068 0
0.899992 0.816068 0
0.925002 0.816068 0
0.949996 0.816068 0
0.975006 0.816068 0
1 0.816068 0
0.153689 0.829084 0
0.178683 0.829084 0
0.203677 0.829084 0
0.228687 0.829084 0
0.253681 0.829084 0
0.278691 0.829084 0
0.303685 0.829084 0
0.328679 0.829084 0
0.353689 0.829084 0
0.378683 0.829084 0
0.403693 0.829084 0
0.428687 0.829084 0
0.453681 0.829084 0
0.489677 0.827832 0
0.533623 0.826322 0
0.573831 0.82594 0
0.6 0.827253 0
0.624994 0.830579 0
0.649989 0.834714 0
0.674998 0.837827 0
0.699992 0.839734 0
0.725002 0.840635 0
0.749996 0.840986 0
0.77499 0.841062 0
0.8 0.841077 0
0.824994 0.841077 0
0.850004 0.841077 0
0.874998 0.841077 0
0.899992 0.841077 0
0.925002 0.841077 0
0.949996 0.841077 0
0.975006 0.841077 0
1 0.841077 0
0.153689 0.854093 0
0.178683 0.854093 0
0.203677 0.854093 0
0.228687 0.854093 0
0.253681 0.854093 0
0.278691 0.854093 0
0.303685 0.854093 0
0.328679 0.854093 0
0.353689 0.854093 0
