datas/cubes/TC - CLARITY_20.cube
TITLE "Generate by Resolve"
LUT_3D_SIZE 9
0 0 0
0.103792 0 1.5259e-05
0.212055 0 3.0518e-05
0.354803 0.00135805 0.00677501
0.521141 3.0518e-05 0.0104829
0.699992 0 0.00825513
0.8 0 0.00808728
0.899992 0 0.00798047
1 0 0.00787366
3.0518e-05 0.103441 0
0.10338 0.103319 0
0.211109 0.102724 0
0.356527 0.103044 0.00724804
0.529427 0.0999924 0.010193
0.699992 0.0999924 0.00822461
0.8 0.0999924 0.0080415
0.899992 0.0999924 0.00790417
1 0.0999924 0.00769055
0 0.209842 0
0.102129 0.210513 0
0.209537 0.209537 0
0.358907 0.208087 0.00813306
0.535103 0.202625 0.0108034
0.699992 0.199985 0.00762951
0.8 0.199985 0.00740063
0.899992 0.199985 0.00781262
1 0.200931 0.00994888
0.00210575 0.342962 0.00270085
0.104723 0.347875 0.00416571
0.210544 0.350958 0.00469978
0.355047 0.350805 0.0112917
0.523445 0.347585 0.020798
0.699992 0.337789 0.00433356
0.8 0.343709 0.00202945
0.899992 0.355032 0.00187686
1 0.368795 0.0027924
0.0171359 0.498085 0.0181888
0.117327 0.507393 0.017731
0.223346 0.512383 0.0187533
0.367208 0.512169 0.034226
0.516487 0.515282 0.0423285
0.671427 0.517418 0.0174868
0.780789 0.523552 0.0128786
0.884901 0.533516 0.0152743
0.98378 0.542733 0.0215915
0 0.679927 0
0.0999924 0.688502 0
0.199985 0.69189 0
0.355764 0.680354 0.00375372
0.527947 0.669245 0.0528115
0.664057 0.673991 0.0351873
0.777768 0.679454 0.0240482
0.883604 0.684977 0.022858
0.985412 0.688869 0.0239414
0 0.8 0
0.0999924 0.8 0
0.199985 0.8 0
0.354009 0.8 0
0.525536 0.795697 0.033875
0.66183 0.796674 0.0302434
0.778958 0.798566 0.0191653
0.883955 0.799023 0.0171511
0.985397 0.799329 0.0171511
0 0.899992 0
0.0999924 0.899992 0
0.203403 0.899992 0
0.364828 0.899992 0
0.526116 0.899992 0.0308232
0.660731 0.899992 0.0286259
0.778653 0.899992 0.0171969
0.883986 0.899992 0.0142214
0.984939 0.899992 0.013901
0 1 0
0.0999924 1 0
0.211902 1 0
0.374945 1 0.00166323
0.530098 1 0.0339666
0.661662 1 0.0280308
0.778912 1 0.0162203
0.883955 1 0.013077
0.98471 1 0.0126497
0 0 0.104082
0.103716 0 0.103975
0.211048 0 0.103471
0.354559 0.00129702 0.108019
0.521309 3.0518e-05 0.11046
0.699992 0 0.108248
0.8 0 0.10808
0.899992 0 0.107958
1 0 0.107866
3.0518e-05 0.103365 0.103593
0.103334 0.103258 0.103487
0.210483 0.102724 0.103197
0.356649 0.103059 0.108782
0.530327 0.0999924 0.110765
0.699992 0.0999924 0.108217
0.8 0.0999924 0.108019
0.899992 0.0999924 0.108598
1 0.0999924 0.109941
0 0.210117 0.102113
0.102144 0.210864 0.102342
0.209949 0.209796 0.102571
0.359869 0.208362 0.110414
0.536599 0.203037 0.112917
0.699992 0.199985 0.110002
0.8 0.199985 0.110948
0.899992 0.199985 0.112917
1 0.202518 0.114778
0.00251774 0.344564 0.103563
0.105577 0.34995 0.106065
0.211353 0.353567 0.107439
0.357214 0.35407 0.114321
0.524788 0.351247 0.124315
0.699992 0.342275 0.108995
0.8 0.347707 0.107393
0.899992 0.35964 0.107149
1 0.373938 0.109789
0.017258 0.501183 0.118349
0.117845 0.510414 0.118837
0.224002 0.515373 0.120974
0.369726 0.514748 0.13756
0.518471 0.517891 0.145708
0.669856 0.520577 0.124804
0.778347 0.526986 0.122988
0.882918 0.536706 0.125658
0.981643 0.545281 0.132525
0 0.683101 0.0999924
0.0999924 0.691081 0.0999924
0.199985 0.694102 0.0999924
0.35877 0.682185 0.110002
0.529229 0.671214 0.157656
0.663966 0.675425 0.144533
0.777905 0.680659 0.13492
0.883543 0.685542 0.1337
0.985016 0.689158 0.135149
0 0.8 0.0999924
0.0999924 0.8 0.0999924
0.199985 0.8 0.0999924
0.355108 0.8 0.100099
0.526284 0.79498 0.142657
0.661494 0.795789 0.14197
0.779004 0.798001 0.130053
0.88397 0.798642 0.127749
0.985214 0.799023 0.12781
0 0.899992 0.0999924
0.0999924 0.899992 0.0999924
0.202304 0.899992 0.0999924
0.364813 0.899992 0.101503
0.526421 0.899962 0.139467
0.660349 0.899992 0.140093
0.778073 0.899992 0.128374
0.883818 0.899992 0.124804
0.984695 0.899992 0.124437
0 1 0.0999924
0.0999924 1 0.0999924
0.21033 1 0.0999924
0.37406 1 0.106538
0.530175 1 0.142702
0.661112 1 0.139452
0.778073 1 0.127459
0.883421 1 0.123827
0.984161 1 0.123354
0 0 0.225467
0.103059 0 0.225635
0.209033 0 0.22295
0.353521 0.00108339 0.21651
0.514061 0.000427253 0.216007
0.699992 0 0.212634
0.8 0 0.211933
0.899992 0 0.2121
1 0 0.21294
0 0.103014 0.221805
0.102968 0.102983 0.222171
0.208759 0.102586 0.220371
0.355947 0.102876 0.216846
0.522744 0.100221 0.218067
0.699992 0.0999924 0.214221
0.8 0.0999924 0.21529
0.899992 0.0999924 0.218967
1 0.0999924 0.225193
0 0.209628 0.213962
0.102892 0.210422 0.215625
0.209735 0.209552 0.215518
0.360265 0.208423 0.217502
0.531365 0.204685 0.220859
0.699992 0.199985 0.219562
0.8 0.199985 0.223651
0.899992 0.199985 0.23389
1 0.20383 0.244968
0.0021973 0.345724 0.208164
0.105776 0.351781 0.210864
0.211734 0.355856 0.212314
0.358434 0.35668 0.218952
0.52369 0.354543 0.230365
0.69987 0.346181 0.217624
0.8 0.351614 0.217365
0.899992 0.364279 0.223774
0.999756 0.379141 0.237079
0.0178225 0.503517 0.222782
0.119005 0.512657 0.223987
0.225727 0.517189 0.226734
0.370809 0.516777 0.242161
0.519142 0.519921 0.250996
0.666377 0.523278 0.23772
0.775219 0.529717 0.236408
0.880125 0.539025 0.239689
0.978897 0.546868 0.247852
0 0.6851 0.199985
0.0999924 0.692988 0.199985
0.199985 0.69572 0.199985
0.360845 0.682979 0.218341
0.529702 0.672023 0.266178
0.662684 0.675502 0.26009
0.777646 0.680751 0.250874
0.883055 0.685161 0.249943
0.984375 0.688502 0.251667
0 0.8 0.199985
0.0999924 0.8 0.199985
0.199985 0.8 0.199985
0.354986 0.8 0.203815
0.526787 0.793683 0.254459
0.660853 0.794186 0.258595
0.7785 0.796765 0.247044
0.883833 0.797559 0.244053
0.985 0.797894 0.244022
0 0.899992 0.199985
0.0999924 0.899992 0.199985
0.199985 0.899992 0.199985
0.363165 0.899992 0.207401
0.526421 0.899641 0.251286
0.659785 0.899275 0.256657
0.776989 0.899977 0.245762
0.883574 0.899992 0.241001
0.984497 0.899992 0.240528
0 1 0.199985
0.0999924 1 0.20032
0.207294 1 0.199985
0.371756 1 0.213977
0.529793 0.999924 0.254444
0.660288 1 0.256001
0.776776 1 0.244739
0.882719 1 0.240269
0.983536 1 0.239689
0.00030518 0.000488289 0.368338
0.102434 0.000656138 0.368688
0.206149 0.000915541 0.366659
0.344015 0.00265507 0.362432
0.494713 0.00433356 0.356512
0.688838 0 0.369726
0.8 0 0.368933
0.899992 0 0.372091
1 0 0.378088
0.000808728 0.102983 0.366018
0.103059 0.103212 0.366812
0.206851 0.103258 0.36585
0.347311 0.104143 0.363836
0.500893 0.104463 0.362371
0.694926 0.0999924 0.382757
0.8 0.0999924 0.387228
0.899992 0.0999924 0.395789
1 0.0999924 0.405325
0.00166323 0.208072 0.360876
0.104219 0.209369 0.36376
0.208682 0.209003 0.365011
0.353552 0.209735 0.365576
0.509438 0.211063 0.368826
0.692821 0.199985 0.392874
0.8 0.199985 0.401617
0.899992 0.199985 0.411948
1 0.207843 0.418952
0.0103456 0.341604 0.358724
0.115206 0.34789 0.367376
0.221866 0.351995 0.374121
0.36199 0.35581 0.369848
0.522362 0.355932 0.376654
0.666606 0.356771 0.386999
0.774868 0.36289 0.394095
0.877241 0.375448 0.404944
0.975799 0.387747 0.413993
0.0204776 0.504112 0.348837
0.124224 0.512215 0.359579
0.231342 0.516197 0.367864
0.367163 0.519112 0.364935
0.520241 0.52076 0.373999
0.664454 0.523598 0.382605
0.773404 0.52987 0.391363
0.878935 0.538476 0.402853
0.980423 0.545556 0.411734
0 0.683253 0.316533
0.0999924 0.691188 0.32665
0.200168 0.691936 0.336828
0.370474 0.677287 0.362493
0.529152 0.670588 0.39144
0.660441 0.672694 0.397223
0.776699 0.677302 0.401877
0.882353 0.681346 0.408835
0.984314 0.684413 0.414313
0 0.8 0.326436
0.0999924 0.8 0.33576
0.199985 0.8 0.340398
0.361837 0.799374 0.352178
0.529839 0.789868 0.389105
0.660868 0.79028 0.398642
0.776684 0.79237 0.398383
0.884337 0.793637 0.399451
0.985702 0.793881 0.401907
0 0.899992 0.360647
0.0999924 0.899992 0.367636
0.199985 0.899992 0.365072
0.371389 0.899992 0.365652
0.530571 0.895338 0.390448
0.660594 0.89485 0.397925
0.775692 0.896696 0.394156
0.883726 0.897948 0.391623
0.984894 0.898039 0.391897
0 1 0.388159
0.0999924 1 0.389563
0.208377 1 0.381857
0.382513 1 0.379126
0.533547 0.995636 0.395193
0.661067 0.996643 0.397864
0.775296 0.998947 0.390951
0.882719 0.99971 0.386725
0.98381 0.999756 0.386267
0 0 0.581415
0.0999924 0 0.580545
0.203601 0 0.570092
0.340093 0.000808728 0.527321
0.497276 0.00166323 0.514855
0.677897 0 0.535271
0.8 0 0.541314
0.899992 0 0.54519
1 0 0.550362
0 0.100053 0.5738
0.100023 0.100053 0.574121
0.204044 0.10013 0.56701
0.34461 0.101915 0.530175
0.510445 0.10016 0.528161
0.694835 0.0999924 0.552621
0.8 0.0999924 0.558389
0.899992 0.0999924 0.566598
1 0.0999924 0.576974
0 0.204654 0.552514
0.100099 0.206012 0.557992
0.205264 0.205905 0.556939
0.35024 0.209125 0.527108
0.520867 0.20621 0.53518
0.699535 0.199985 0.565942
0.8 0.199985 0.576349
0.899992 0.199985 0.587396
1 0.204776 0.595987
0.0126955 0.341314 0.508812
0.116991 0.348623 0.518349
0.224063 0.353414 0.523888
0.358709 0.357824 0.522835
0.518135 0.35874 0.526497
0.662379 0.360662 0.536248
0.770916 0.367315 0.544472
0.876448 0.379522 0.555566
0.976715 0.39144 0.563745
0.0359197 0.500694 0.523262
0.1402 0.508644 0.533715
0.248005 0.512291 0.539132
0.376333 0.516182 0.536446
0.524254 0.519417 0.536355
0.671855 0.521385 0.542977
0.783078 0.528267 0.552285
0.889158 0.536355 0.562432
0.991623 0.542733 0.570138
0.00852979 0.669596 0.537377
0.111238 0.676753 0.550378
0.226871 0.6766 0.557183
0.381735 0.6701 0.547631
0.520348 0.672877 0.536721
0.65832 0.672648 0.538705
0.780545 0.675624 0.544579
0.889937 0.679484 0.550988
0.991974 0.682506 0.555123
0 0.797147 0.556664
0.106371 0.795819 0.567864
0.222324 0.793805 0.573053
0.384161 0.788006 0.558801
0.524681 0.7906 0.545846
0.656962 0.79176 0.541405
0.775967 0.792462 0.545495
0.887465 0.79353 0.548577
0.99089 0.793988 0.550103
0.0053254 0.899992 0.588098
0.115969 0.899367 0.592004
0.228962 0.897459 0.591089
0.392844 0.892424 0.569146
0.526253 0.895262 0.5505
0.657221 0.895857 0.543175
0.775235 0.896208 0.545541
0.886198 0.897032 0.547509
0.988952 0.897215 0.548135
0.0134127 0.999146 0.599771
0.121675 0.99794 0.6
0.234913 0.996246 0.598642
0.398871 0.991836 0.573358
0.528084 0.996414 0.55256
0.657969 0.997879 0.543832
0.775143 0.99855 0.545388
0.885618 0.999344 0.54696
0.987747 0.999451 0.547356
0 0 0.699992
0.0999924 0 0.699992
0.201648 0 0.699992
0.340703 0 0.699992
0.518273 0 0.699992
0.683848 0 0.699992
0.8 0 0.699992
0.899992 0 0.699992
1 0 0.699992
0 0.0999924 0.699992
0.0999924 0.0999924 0.699992
0.201999 0.0999924 0.699992
0.34728 0.0999924 0.699992
0.529625 0.0999924 0.699992
0.694926 0.0999924 0.699992
0.8 0.0999924 0.699992
0.899992 0.0999924 0.699992
1 0.0999924 0.699992
0 0.202014 0.699992
0.0999924 0.203281 0.699992
0.202258 0.203647 0.699992
0.355901 0.200916 0.699992
0.541115 0.199985 0.699992
0.699992 0.199985 0.699992
0.8 0.199985 0.699992
0.899992 0.199985 0.699992
1 0.205219 0.699992
0 0.342382 0.699992
0.0999924 0.351095 0.699992
0.204273 0.355993 0.699992
0.355459 0.357961 0.683284
0.519844 0.359152 0.668803
0.677913 0.356603 0.687114
0.784726 0.364309 0.687526
0.884062 0.378408 0.683696
0.979644 0.391684 0.680735
0.0188907 0.506218 0.698054
0.122057 0.514244 0.699992
0.23328 0.517037 0.699992
0.377249 0.517937 0.677852
0.520653 0.522026 0.67689
0.663844 0.524086 0.681926
0.781216 0.530266 0.684245
0.887419 0.537301 0.687556
0.989517 0.543069 0.690791
0.0166629 0.666072 0.699992
0.118212 0.673259 0.699992
0.229831 0.674342 0.699992
0.391501 0.666377 0.699916
0.532067 0.667247 0.693919
0.657328 0.670192 0.695079
0.779126 0.672847 0.695888
0.894316 0.675868 0.696406
0.99707 0.678645 0.696956
0.0120241 0.789487 0.699992
0.117861 0.790646 0.699992
0.227329 0.790692 0.699992
0.390143 0.784375 0.699992
0.535073 0.785351 0.699992
0.657816 0.789441 0.699657
0.774563 0.791485 0.698726
0.887572 0.79263 0.696391
0.99498 0.79324 0.694957
0.0154879 0.897078 0.699992
0.120333 0.89691 0.699992
0.228565 0.896361 0.699992
0.395438 0.889677 0.699992
0.536416 0.889876 0.699992
0.658015 0.893614 0.699992
0.773068 0.895644 0.698695
0.884962 0.896712 0.695506
0.991958 0.897124 0.693889
0.0176089 0.996979 0.699992
0.121996 0.996826 0.699992
0.230259 0.996201 0.699992
0.400427 0.989609 0.699992
0.537926 0.991547 0.699992
0.658198 0.996338 0.699992
0.771908 0.998947 0.697459
0.883116 0.999924 0.693706
0.989288 1 0.692393
0 0 0.8
0.0999924 0 0.8
0.201297 0 0.8
0.337011 0 0.8
0.516106 0 0.8
0.680583 0 0.8
0.8 0 0.8
0.899992 0 0.8
1 0 0.8
0 0.0999924 0.8
0.0999924 0.0999924 0.8
0.20174 0.0999924 0.8
0.344533 0.0999924 0.8
0.527626 0.0999924 0.8
0.693858 0.0999924 0.8
0.8 0.0999924 0.8
0.899992 0.0999924 0.8
1 0.0999924 0.8
0 0.201694 0.8
0.0999924 0.20322 0.8
0.202197 0.204013 0.8
0.355489 0.200992 0.8
0.542947 0.199985 0.8
0.699992 0.199985 0.8
0.8 0.199985 0.8
0.899992 0.200656 0.8
1 0.207813 0.8
0 0.343893 0.8
0.0999924 0.353124 0.8
0.203891 0.358434 0.8
0.355169 0.360113 0.797284
0.521691 0.361028 0.778347
0.679622 0.358755 0.794842
0.786572 0.367117 0.794919
0.885206 0.381567 0.79086
0.980758 0.394659 0.787366
0.0123598 0.509255 0.8
0.118151 0.516518 0.8
0.229435 0.519478 0.8
0.376654 0.519814 0.788022
0.520043 0.52398 0.781811
0.661952 0.525963 0.786908
0.781353 0.532204 0.789639
0.887358 0.539147 0.792981
0.989166 0.544686 0.796124
0.0134585 0.668254 0.8
0.116716 0.674846 0.8
0.225422 0.67657 0.8
0.386191 0.668299 0.8
0.531823 0.667582 0.798917
0.656596 0.670146 0.799649
0.776379 0.673014 0.8
0.89247 0.675837 0.8
0.996033 0.678416 0.8
0.0127565 0.789456 0.8
0.118044 0.790692 0.8
0.225376 0.79115 0.8
0.381918 0.785794 0.8
0.533883 0.785061 0.8
0.657481 0.788724 0.8
0.77319 0.79086 0.8
0.885557 0.792111 0.8
0.993866 0.792844 0.8
0.0153964 0.896956 0.8
0.12018 0.896788 0.8
0.22707 0.896544 0.8
0.387121 0.890913 0.8
0.535088 0.889464 0.8
0.657694 0.892775 0.8
0.771923 0.89482 0.8
0.883192 0.895933 0.8
0.991577 0.896574 0.8
0.0173342 0.996872 0.8
0.12166 0.996719 0.8
0.228229 0.99649 0.8
0.392676 0.990845 0.8
0.536522 0.991241 0.8
0.658106 0.995575 0.8
0.771252 0.998016 0.8
0.881926 0.999207 0.8
0.989456 0.999786 0.8
0 0 0.899992
0.0999924 0 0.899992
0.201205 0 0.899992
0.336156 0 0.899992
0.515099 0 0.899992
0.679744 0 0.899992
0.8 0 0.899992
0.899992 0 0.899992
1 0 0.899992
0 0.0999924 0.899992
0.0999924 0.0999924 0.899992
0.201755 0.0999924 0.899992
0.344823 0.0999924 0.899992
0.528359 0.0999924 0.899992
0.694926 0.0999924 0.899992
0.8 0.0999924 0.899992
0.899992 0.0999924 0.899992
1 0.0999924 0.899992
0 0.201785 0.899992
0.0999924 0.204181 0.899992
0.20238 0.205051 0.899992
0.358144 0.201328 0.899992
0.545541 0.199985 0.899992
0.699992 0.199985 0.899992
0.8 0.199985 0.899992
0.899992 0.203067 0.899992
1 0.211704 0.899992
0 0.347173 0.899992
0.0999924 0.356954 0.899992
0.205173 0.362478 0.899992
0.35787 0.36437 0.899916
0.524086 0.365057 0.883268
0.680278 0.363302 0.898375
0.78584 0.372305 0.896727
0.884184 0.386358 0.893019
0.980545 0.398383 0.888792
0.0110018 0.512566 0.899992
0.117189 0.519692 0.899992
0.228199 0.522896 0.899992
0.379614 0.522942 0.89369
0.521767 0.527184 0.885756
0.662821 0.528954 0.890776
0.782055 0.535042 0.893675
0.887678 0.541558 0.896727
0.98941 0.546563 0.898878
0.0131991 0.671244 0.899992
0.117067 0.676936 0.899992
0.224735 0.679072 0.899992
0.38468 0.671214 0.899992
0.533196 0.669505 0.899977
0.65803 0.671565 0.899992
0.776333 0.674464 0.899992
0.891951 0.677043 0.899992
0.9953 0.679347 0.899992
0.0131228 0.789837 0.899992
0.118334 0.790997 0.899992
0.22562 0.791379 0.899992
0.379019 0.78674 0.899992
0.534035 0.785229 0.899992
0.65803 0.788663 0.899992
0.77322 0.790784 0.899992
0.885191 0.79202 0.899992
0.99324 0.792737 0.899992
0.0155642 0.896895 0.899992
0.120287 0.896742 0.899992
0.227131 0.896498 0.899992
0.383413 0.891737 0.899992
0.534844 0.889448 0.899992
0.65803 0.892546 0.899992
0.771801 0.894591 0.899992
0.882719 0.895735 0.899992
0.991226 0.896406 0.899992
0.0173342 0.996841 0.899992
0.121645 0.996689 0.899992
0.228168 0.99646 0.899992
0.388922 0.991547 0.899992
0.536156 0.991196 0.899992
0.658366 0.995331 0.899992
0.771191 0.997757 0.899992
0.881529 0.998978 0.899992
0.989517 0.999725 0.899992
0 0 1
0.0999924 0 1
0.201175 0 1
0.336019 0 1
0.515236 0 1
0.680095 0 1
0.8 0 1
0.899992 0 1
1 0 1
0 0.0999924 1
0.0999924 0.0999924 1
0.201846 0.0999924 1
0.345846 0.0999924 1
0.529854 0.0999924 1
0.696803 0.0999924 1
0.8 0.0999924 1
0.899992 0.0999924 1
1 0.0999924 1
0 0.202426 1
0.0999924 0.205524 1
0.202625 0.206668 1
0.361456 0.202075 1
0.548577 0.200031 1
0.699992 0.199985 1
0.8 0.199985 1
0.899992 0.205661 1
1 0.215259 1
0 0.351278 1
0.100038 0.361105 1
0.206699 0.366476 1
0.361608 0.368643 0.999649
0.526635 0.369131 0.985214
0.679316 0.368429 0.996735
0.783825 0.377584 0.996475
0.882063 0.390967 0.990616
0.97998 0.401953 0.988098
0.0104219 0.516121 1
0.116655 0.523095 1
0.228183 0.52607 1
0.383154 0.525994 0.996399
0.523735 0.530266 0.988235
0.664103 0.531777 0.993072
0.783062 0.537484 0.995331
0.888304 0.543374 0.997513
0.989914 0.548043 0.999435
0.0129244 0.674586 1
0.117464 0.679026 1
0.225193 0.680583 1
0.385473 0.673594 1
0.534585 0.671366 1
0.65948 0.67306 1
0.776638 0.675914 1
0.891936 0.678111 1
0.995026 0.68011 1
0.01355 0.790265 1
0.1187 0.791363 1
0.225956 0.791684 1
0.37966 0.787045 1
0.534401 0.785443 1
0.658579 0.788708 1
0.773419 0.790768 1
0.885054 0.79202 1
0.992782 0.792721 1
0.0158236 0.89688 1
0.1205 0.896727 1
0.227283 0.896483 1
0.384283 0.891737 1
0.534905 0.889509 1
0.658335 0.892454 1
0.771923 0.894453 1
0.882506 0.895613 1
0.990829 0.8963 1
0.0174258 0.996826 1
0.121706 0.996689 1
0.228199 0.99646 1
0.38909 0.991531 1
0.536095 0.991196 1
0.65861 0.995209 1
0.771313 0.997574 1
0.881422 0.99884 1
0.989349 0.999634 1
