datas/cubes/TC - CLARITY_40.cube
TITLE "Generate by Resolve"
LUT_3D_SIZE 33
0 0 0
0.0205997 0 0
0.0411688 1.5259e-05 1.5259e-05
0.0618296 3.0518e-05 4.57771e-05
0.0825971 1.5259e-05 3.0518e-05
0.103487 0 0
0.12462 0 0
0.146105 0 0
0.174121 0 6.10361e-05
0.212879 0 0.0021973
0.254139 0 0.0053254
0.294408 0.000549325 0.00924697
0.33463 0.00271611 0.0135348
0.376684 0.00436408 0.0172885
0.419699 0.00492866 0.0203403
0.469902 0.00325017 0.0221561
0.542275 4.57771e-05 0.0209659
0.62829 0 0.0176394
0.707439 0 0.0151369
0.75436 0 0.0156863
0.77499 0 0.016495
0.793744 0 0.0164187
0.812497 0 0.0163272
0.83125 0 0.0162509
0.850004 0 0.0161746
0.868742 0 0.0161135
0.887495 0 0.0160525
0.906249 0 0.0160067
0.925002 0 0.0159609
0.943755 0 0.0158999
0.962493 0 0.0158541
0.981247 0 0.0158083
1 0 0.0157626
1.5259e-05 0.0204623 1.5259e-05
0.0205234 0.0204166 0
0.0409705 0.0204013 1.5259e-05
0.0616159 0.0203708 1.5259e-05
0.0823682 0.0203098 0
0.103288 0.0202182 0
0.124437 0.0200656 0
0.145983 0.0198215 0
0.173571 0.0194553 4.57771e-05
0.212711 0.0189975 0.00213626
0.254337 0.0187381 0.00535592
0.294636 0.0193179 0.00929274
0.33492 0.0214847 0.0135958
0.377081 0.0231174 0.0173495
0.420249 0.023682 0.0204013
0.471015 0.0218509 0.0221561
0.544121 0.0187839 0.0208743
0.630549 0.0187381 0.0175479
0.709804 0.0187381 0.0150607
0.755001 0.0187381 0.0157931
0.77499 0.0187381 0.016495
0.793744 0.0187381 0.0164034
0.812497 0.0187381 0.0163119
0.83125 0.0187381 0.0162356
0.850004 0.0187381 0.0161593
0.868742 0.0187381 0.0160983
0.887495 0.0187381 0.0160372
0.906249 0.0187381 0.0159915
0.925002 0.0187381 0.0159304
0.943755 0.0187381 0.0158846
0.962493 0.0187381 0.0158389
0.981247 0.0187381 0.0157931
1 0.0187381 0.0157321
7.62951e-05 0.0408789 3.0518e-05
0.0204318 0.0407874 1.5259e-05
0.0407874 0.0407263 1.5259e-05
0.0614328 0.0406653 0
0.0821851 0.0405585 0
0.103105 0.0404364 0
0.1243 0.0402533 0
0.145968 0.0399786 0
0.172778 0.0394903 1.5259e-05
0.212421 0.0387274 0.00199893
0.254444 0.0383764 0.0053254
0.295232 0.0387121 0.00941482
0.335668 0.0403296 0.0137484
0.378073 0.0419165 0.0174868
0.421424 0.0424353 0.0205386
0.473503 0.0403143 0.0221561
0.547829 0.0375219 0.0207218
0.635065 0.0374914 0.0173342
0.714229 0.0374914 0.0149233
0.756039 0.0374914 0.0159915
0.77499 0.0374914 0.0164797
0.793744 0.0374914 0.0163882
0.812497 0.0374914 0.0162966
0.83125 0.0374914 0.0162203
0.850004 0.0374914 0.016144
0.868742 0.0374914 0.016083
0.887495 0.0374914 0.016022
0.906249 0.0374914 0.0159609
0.925002 0.0374914 0.0159152
0.943755 0.0374914 0.0158541
0.962493 0.0374914 0.0158083
0.981247 0.0374914 0.0157626
1 0.0374914 0.0157015
9.15541e-05 0.0613718 3.0518e-05
0.020325 0.0612802 0
0.0405737 0.0612192 0
0.0612345 0.0611582 0
0.0819867 0.0610666 0
0.102922 0.0609293 0
0.124147 0.0607156 0
0.145998 0.0604257 0
0.172381 0.0597848 0
0.212421 0.0586862 0.00183108
0.254826 0.0582284 0.0053254
0.29604 0.0589761 0.00959792
0.336721 0.0605936 0.0140841
0.379461 0.0615091 0.0178225
0.423163 0.0613718 0.0207675
0.477256 0.0586252 0.0221408
0.553384 0.05626 0.0204929
0.641306 0.0562448 0.0170596
0.720546 0.0562448 0.0147097
0.756252 0.0562448 0.0160983
0.77499 0.0562448 0.0164797
0.793744 0.0562448 0.0163729
0.812497 0.0562448 0.0162814
0.83125 0.0562448 0.0161898
0.850004 0.0562448 0.0161135
0.868742 0.0562448 0.0160525
0.887495 0.0562448 0.0159915
0.906249 0.0562448 0.0159304
0.925002 0.0562448 0.0158694
0.943755 0.0562448 0.0158236
0.962493 0.0562448 0.0157778
0.981247 0.0562448 0.0157168
1 0.0562448 0.0156558
4.57771e-05 0.0818952 0
0.0201724 0.0818189 0
0.0403143 0.0817578 0
0.0609903 0.0817121 0
0.0817731 0.0816358 0
0.102739 0.081529 0
0.12398 0.0813458 0
0.145998 0.0810559 0
0.172229 0.0804608 0
0.212482 0.0793164 0.00167849
0.255299 0.0787976 0.0053254
0.296986 0.0794842 0.00979629
0.338064 0.0810864 0.0144808
0.380972 0.0820478 0.0183413
0.42504 0.082002 0.0213321
0.480232 0.0786145 0.0224918
0.558862 0.0749981 0.0204013
0.648997 0.0749981 0.0167239
0.728634 0.0749981 0.014435
0.756252 0.0749981 0.0162051
0.77499 0.0749981 0.0164492
0.793744 0.0749981 0.0163424
0.812497 0.0749981 0.0162509
0.83125 0.0749981 0.0161593
0.850004 0.0749981 0.016083
0.868742 0.0749981 0.016022
0.887495 0.0749981 0.0159609
0.906249 0.0749981 0.0158999
0.925002 0.0749981 0.0158083
0.943755 0.0749981 0.0157168
0.962493 0.0749981 0.01561
0.981247 0.0749981 0.0155032
1 0.0749981 0.0153964
0 0.102495 0
0.0199741 0.102434 0
0.0399634 0.102419 0
0.0606699 0.102403 0
0.0814832 0.102358 0
0.102495 0.102266 0
0.123766 0.102113 0
0.145922 0.101854 0
0.17232 0.101289 3.0518e-05
0.212421 0.100175 0.00151064
0.255772 0.0996109 0.00531014
0.29807 0.100252 0.0100252
0.339452 0.101884 0.0149081
0.382559 0.102892 0.0189212
0.427268 0.10277 0.0219272
0.482795 0.0995193 0.0230564
0.562707 0.0937362 0.0205386
0.65275 0.0937362 0.0166018
0.727138 0.0937362 0.0147402
0.756252 0.0937362 0.016083
0.77499 0.0937362 0.0162814
0.793744 0.0937362 0.0161746
0.812497 0.0937362 0.016083
0.83125 0.0937362 0.0159762
0.850004 0.0937362 0.0158694
0.868742 0.0937362 0.0157778
0.887495 0.0937362 0.015671
0.906249 0.0937362 0.0155642
0.925002 0.0937362 0.0154726
0.943755 0.0937362 0.0153658
0.962493 0.0937362 0.015259
0.981247 0.0937362 0.0151675
1 0.0937362 0.0150607
0 0.123247 0
0.0196994 0.123247 0
0.0395514 0.123262 0
0.0602274 0.123278 0
0.0810712 0.123278 0
0.102129 0.123217 0
0.123461 0.123125 0
0.145724 0.122896 0
0.172381 0.122362 4.57771e-05
0.211933 0.121294 0.00125124
0.256001 0.120653 0.00521859
0.299001 0.121279 0.010193
0.340871 0.122957 0.0153658
0.384237 0.124056 0.0195773
0.429297 0.123873 0.0225834
0.484718 0.120836 0.0237278
0.566339 0.113695 0.0207218
0.656672 0.11249 0.0164645
0.727581 0.11249 0.0148165
0.756252 0.11249 0.0160067
0.77499 0.11249 0.0159609
0.793744 0.11249 0.0158541
0.812497 0.11249 0.0157473
0.83125 0.11249 0.0156558
0.850004 0.11249 0.0155489
0.868742 0.11249 0.0154421
0.887495 0.11249 0.0153353
0.906249 0.11249 0.0152285
0.925002 0.11249 0.0151217
0.943755 0.11249 0.0150149
0.962493 0.11249 0.0149081
0.981247 0.11249 0.0148013
1 0.11249 0.0151827
0 0.144244 0
0.0193637 0.144289 0
0.0391089 0.14435 0
0.059617 0.144411 0
0.0805066 0.144472 0
0.101595 0.144488 0
0.123003 0.144427 0
0.14519 0.144274 0
0.171481 0.143832 1.5259e-05
0.210986 0.142779 0.000900282
0.255802 0.142092 0.00505074
0.299702 0.142611 0.0102998
0.342077 0.144366 0.0158389
0.385702 0.145571 0.020264
0.430869 0.145495 0.0233463
0.486717 0.142565 0.0244144
0.569131 0.133272 0.0210422
0.659297 0.131243 0.0164797
0.731899 0.131243 0.0145266
0.756252 0.131243 0.0157015
0.77499 0.131243 0.0156252
0.793744 0.131243 0.0155184
0.812497 0.131243 0.0153964
0.83125 0.131243 0.0152895
0.850004 0.131243 0.0151827
0.868742 0.131243 0.0150759
0.887495 0.131243 0.0149691
0.906249 0.131243 0.0148623
0.925002 0.131243 0.0147555
0.943755 0.131243 0.0146487
0.962493 0.131243 0.0155795
0.981247 0.131243 0.016556
1 0.131243 0.0175631
0 0.16968 0
0.0189364 0.170123 0
0.0383459 0.170474 0
0.0583658 0.170855 0
0.0792706 0.171038 0
0.100404 0.171054 0
0.121874 0.170825 0
0.143938 0.170199 0
0.169085 0.1691 0
0.208789 0.167102 0.000564584
0.255055 0.165209 0.00460822
0.300008 0.164752 0.0103456
0.342824 0.166171 0.0162509
0.386709 0.167468 0.0209201
0.431846 0.167636 0.0242008
0.488579 0.164752 0.0251469
0.570214 0.155261 0.0216068
0.661021 0.149996 0.016556
0.737484 0.149996 0.0139162
0.756252 0.149996 0.0152438
0.77499 0.149996 0.0152438
0.793744 0.149996 0.0151369
0.812497 0.149996 0.0150301
0.83125 0.149996 0.0149233
0.850004 0.149996 0.0148165
0.868742 0.149996 0.0147097
0.887495 0.149996 0.0146181
0.906249 0.149996 0.0145876
0.925002 0.149996 0.0156252
0.943755 0.149996 0.0167849
0.962493 0.149996 0.0179141
0.981247 0.149996 0.0190738
1 0.151873 0.0198825
0 0.20029 0
0.0187381 0.201282 0
0.0377508 0.202121 0
0.0569467 0.202914 0
0.0778363 0.203494 0
0.09897 0.203815 0
0.120409 0.203754 0
0.142306 0.203204 0
0.165331 0.202014 0
0.203662 0.19971 0.000137331
0.252064 0.196399 0.00282292
0.300389 0.193301 0.00973526
0.344366 0.192554 0.016907
0.38851 0.192645 0.0221714
0.43357 0.192157 0.0256352
0.490059 0.188876 0.0264591
0.570626 0.179446 0.0225834
0.662089 0.16994 0.0168307
0.734096 0.16875 0.0140536
0.756252 0.16875 0.0149844
0.77499 0.16875 0.0149996
0.793744 0.16875 0.0149538
0.812497 0.16875 0.0149233
0.83125 0.16875 0.0149081
0.850004 0.16875 0.0149081
0.868742 0.16875 0.0149233
0.887495 0.17052 0.0153048
0.906249 0.172793 0.0159152
0.925002 0.175189 0.016556
0.943755 0.178088 0.0171817
0.962493 0.182971 0.0177615
0.981247 0.188098 0.0183261
1 0.193072 0.0189059
0 0.235309 0
0.0187381 0.236713 0
0.0376135 0.238102 0
0.0568704 0.239246 0
0.0772412 0.240269 0
0.0983139 0.240986 0
0.119677 0.241428 0
0.141436 0.241413 0
0.163745 0.240879 0
0.198444 0.239307 0.000244144
0.243992 0.237171 0.00303655
0.296925 0.233265 0.00715648
0.346609 0.230655 0.0172274
0.392264 0.229435 0.0246586
0.437064 0.228305 0.0290379
0.490257 0.225223 0.030457
0.565103 0.216815 0.0262913
0.655558 0.204044 0.0186618
0.728893 0.196338 0.0141146
0.756252 0.194553 0.0140993
0.77499 0.194934 0.0139162
0.793744 0.195636 0.0136873
0.812497 0.196689 0.0134127
0.83125 0.199329 0.0130465
0.850004 0.203357 0.0126192
0.868742 0.207813 0.0129854
0.887495 0.212497 0.0135042
0.906249 0.217563 0.0140536
0.925002 0.223148 0.0145266
0.943755 0.229053 0.0149996
0.962493 0.234394 0.0155032
0.981247 0.239399 0.0159915
1 0.244526 0.0163272
0.000457771 0.272129 0.000869764
0.0193484 0.273884 0.00112917
0.0382544 0.275898 0.00143435
0.0581826 0.277607 0.00157168
0.0788434 0.279194 0.00155642
0.0999008 0.280552 0.00138857
0.121355 0.281666 0.00144961
0.14313 0.282399 0.00143435
0.16524 0.28246 0.00125124
0.194598 0.28191 0.00105287
0.240223 0.280446 0.00688182
0.287312 0.279332 0.00968948
0.342214 0.276417 0.0168612
0.3935 0.274296 0.0267033
0.440177 0.27332 0.033051
0.490227 0.271809 0.0361639
0.555474 0.267002 0.0330053
0.639017 0.257481 0.0231327
0.722499 0.247745 0.0143893
0.756252 0.243442 0.0107424
0.77499 0.244068 0.0102998
0.793744 0.245777 0.0100099
0.812497 0.248646 0.00970474
0.83125 0.252216 0.00935378
0.850004 0.256291 0.00933852
0.868742 0.260945 0.00970474
0.887495 0.265843 0.0100404
0.906249 0.271061 0.0104067
0.925002 0.276493 0.0107118
0.943755 0.282612 0.0108034
0.962493 0.288365 0.0108644
0.981247 0.294102 0.0108949
1 0.299809 0.010956
0.00419623 0.310918 0.00541695
0.0236362 0.313222 0.00611887
0.0431525 0.315801 0.00691234
0.0631113 0.318349 0.00769055
0.0844587 0.32076 0.00834669
0.105913 0.322881 0.00888075
0.127489 0.324758 0.009308
0.149218 0.326162 0.00950637
0.171115 0.326909 0.00941482
0.196597 0.327138 0.00883497
0.239796 0.32723 0.0116121
0.285664 0.326863 0.018616
0.335103 0.326604 0.0225986
0.388617 0.325078 0.0300298
0.439612 0.32369 0.0375219
0.489265 0.322484 0.0422065
0.546899 0.320165 0.0416114
0.619913 0.314397 0.0319066
0.703029 0.30605 0.0185092
0.756252 0.301244 0.0112459
0.77499 0.300587 0.00866712
0.793744 0.301991 0.00686656
0.812497 0.304494 0.00552377
0.83125 0.308278 0.00479133
0.850004 0.312428 0.00407416
0.868742 0.317098 0.00396735
0.887495 0.322255 0.00410468
0.906249 0.328481 0.00430304
0.925002 0.335073 0.00375372
0.943755 0.342046 0.00306706
0.962493 0.348638 0.0030518
0.981247 0.355612 0.00428778
1 0.3626 0.00556954
0.0122988 0.352956 0.0136873
0.0321508 0.3561 0.0148318
0.0521706 0.359655 0.0161135
0.0722057 0.363272 0.0174258
0.0936751 0.366445 0.0184482
0.115328 0.369253 0.0193637
0.137057 0.371756 0.0201419
0.158862 0.37377 0.020676
0.180865 0.375097 0.0209964
0.205447 0.375952 0.0210574
0.244846 0.377203 0.0227359
0.289906 0.377829 0.0299229
0.33669 0.37908 0.0357214
0.386175 0.379995 0.0407416
0.436332 0.379995 0.0459907
0.485985 0.379095 0.0499428
0.539605 0.377768 0.0511635
0.601846 0.374762 0.0438544
0.677333 0.36875 0.0271611
0.740459 0.363867 0.0144808
0.771969 0.36318 0.010132
0.793606 0.364218 0.00756847
0.812497 0.3664 0.00526436
0.83125 0.369802 0.00325017
0.850004 0.374289 0.00187686
0.868742 0.379583 0.00169375
0.887495 0.38555 0.00204471
0.906249 0.392142 0.00177005
0.925002 0.399008 0.00131228
0.943755 0.406241 0.00195315
0.962493 0.413108 0.00381476
0.981247 0.41976 0.00582895
1 0.426154 0.00842298
0.021561 0.398871 0.0231632
0.0415198 0.402838 0.0244144
0.0615549 0.407019 0.0257267
0.08159 0.411337 0.0270542
0.102861 0.415045 0.0281071
0.124575 0.418357 0.0291447
0.146441 0.421256 0.0301061
0.168475 0.423545 0.0309606
0.190677 0.425116 0.0316472
0.214862 0.42594 0.0321508
0.253178 0.427543 0.0347143
0.298634 0.429053 0.0422065
0.344533 0.430625 0.050782
0.391104 0.432502 0.0555428
0.437522 0.434089 0.0588998
0.484031 0.434699 0.0608988
0.533684 0.434272 0.0613718
0.588556 0.432975 0.0558938
0.653681 0.429786 0.0390326
0.718227 0.425711 0.0205081
0.753216 0.424781 0.014023
0.779538 0.42591 0.0108186
0.803998 0.428428 0.00819409
0.82565 0.432181 0.00598154
0.847852 0.436896 0.00451667
0.867247 0.442191 0.00444038
0.88513 0.447837 0.00503548
0.90454 0.454032 0.00569161
0.924636 0.460502 0.00634775
0.942718 0.466926 0.00769055
0.959014 0.472496 0.0110781
0.975097 0.477989 0.0144656
0.990906 0.483482 0.0178836
0.0298466 0.447181 0.031693
0.0495155 0.451499 0.0326543
0.0691539 0.45594 0.0335851
0.0888228 0.460533 0.0345312
0.110094 0.464408 0.0356146
0.13164 0.467796 0.0364233
0.153231 0.470665 0.0370947
0.175189 0.47277 0.0378424
0.197498 0.474205 0.0386358
0.220417 0.4748 0.0393988
0.260395 0.476402 0.0432288
0.306508 0.477745 0.0510414
0.353338 0.478904 0.0622721
0.399084 0.480674 0.0689708
0.442985 0.482567 0.0720226
0.486046 0.483833 0.0731823
0.531212 0.484642 0.0728618
0.580682 0.484947 0.0683604
0.636851 0.484367 0.0535897
0.695933 0.482795 0.0324102
0.733135 0.482719 0.0225376
0.759335 0.48426 0.0185092
0.78349 0.486717 0.0157931
0.806348 0.490196 0.0137331
0.827878 0.494514 0.0130312
0.848325 0.499413 0.0135042
0.868269 0.504585 0.0143282
0.888167 0.509728 0.0158541
0.907774 0.514946 0.0175631
0.926558 0.520287 0.0197147
0.94226 0.525261 0.0236667
0.958755 0.530221 0.027512
0.975265 0.535149 0.0314336
0.0342565 0.496193 0.0363928
0.0531777 0.500725 0.0366217
0.0717479 0.505547 0.0364843
0.0894636 0.510719 0.035523
0.109682 0.514809 0.035462
0.131029 0.518151 0.0359503
0.152804 0.520867 0.0366674
0.174243 0.523415 0.0367437
0.196719 0.524773 0.0375219
0.220127 0.524666 0.0389258
0.262272 0.524269 0.0458076
0.310964 0.524117 0.0557259
0.359426 0.524346 0.0684367
0.405844 0.525338 0.0784772
0.449241 0.527062 0.0832227
0.490745 0.528954 0.0849012
0.532982 0.530571 0.0846571
0.578164 0.532036 0.0807355
0.627054 0.533349 0.0686198
0.679255 0.53402 0.0480812
0.717861 0.534844 0.0349584
0.743404 0.536614 0.0308385
0.766873 0.53933 0.0281987
0.789517 0.542901 0.0262303
0.811566 0.547097 0.0257572
0.832822 0.551751 0.0264744
0.853605 0.556786 0.0276493
0.874022 0.561929 0.0290837
0.894804 0.567056 0.0305638
0.915084 0.572168 0.0323949
0.932403 0.576806 0.0361334
0.949813 0.581262 0.0397345
0.967559 0.585473 0.043183
0.0273747 0.549508 0.0299992
0.0429999 0.555962 0.0270085
0.0585946 0.562524 0.0239567
0.0741131 0.569024 0.0208438
0.0923781 0.574273 0.0185245
0.112322 0.578393 0.0173342
0.13341 0.581643 0.0169375
0.156054 0.583398 0.0178225
0.180255 0.583703 0.019913
0.206394 0.582361 0.0231937
0.253376 0.578683 0.0356146
0.310628 0.574792 0.0534676
0.364096 0.572656 0.0712749
0.413169 0.572244 0.0856489
0.457237 0.573404 0.0934462
0.498131 0.575128 0.0963302
0.538613 0.57702 0.0962234
0.580652 0.579217 0.0924544
0.624125 0.581552 0.0822766
0.669871 0.583795 0.0639506
0.708324 0.585809 0.0487068
0.735012 0.587945 0.0431525
0.758526 0.590997 0.0404517
0.78146 0.594629 0.0382849
0.803616 0.598733 0.0375982
0.825437 0.603113 0.0380102
0.847135 0.607569 0.0386969
0.868589 0.612024 0.0396124
0.88986 0.616571 0.0406958
0.910887 0.621027 0.0419471
0.929259 0.624811 0.044892
0.947692 0.628443 0.0477302
0.96614 0.631952 0.0505074
0.00135805 0.613214 0.00447089
0.0187381 0.62031 0.00257877
0.0374914 0.627543 0.00178531
0.0562448 0.634546 0.0010071
0.0753796 0.639368 0.000488289
0.0937362 0.642847 0
0.112856 0.645289 0
0.133532 0.646799 0
0.154772 0.647013 0.00062562
0.17818 0.645472 0.00192264
0.23035 0.639612 0.00961318
0.298695 0.631525 0.0342718
0.363027 0.624857 0.0630808
0.418967 0.62121 0.0867018
0.465476 0.620661 0.100008
0.506432 0.621775 0.105287
0.545892 0.623652 0.105608
0.585855 0.626032 0.101701
0.625879 0.628733 0.0924544
0.66656 0.631708 0.0766461
0.705837 0.634867 0.0588388
0.733059 0.637186 0.052079
0.756573 0.639902 0.0490272
0.779614 0.643214 0.0465095
0.802136 0.646815 0.0453346
0.824216 0.65066 0.0453346
0.846021 0.654627 0.0456855
0.867765 0.658534 0.0459602
0.889418 0.662318 0.0462959
0.910994 0.666072 0.0466773
0.929824 0.669306 0.0489662
0.948516 0.672389 0.0512551
0.967315 0.675258 0.0532235
0 0.677562 0
0.0187381 0.684123 0
0.0374914 0.690471 0
0.0562448 0.696284 0
0.0749981 0.700343 0
0.0937362 0.703792 0
0.11249 0.706508 0
0.131243 0.707561 0
0.149996 0.707515 0
0.169162 0.70605 0
0.20856 0.700069 0
0.278859 0.690669 0.00802625
0.352132 0.680171 0.0387427
0.417853 0.671962 0.0737926
0.46978 0.668345 0.0964523
0.512673 0.667857 0.107317
0.551995 0.668971 0.109575
0.590967 0.671031 0.106126
0.629099 0.673671 0.0975814
0.666835 0.676799 0.0835584
0.703914 0.680186 0.0670939
0.734112 0.683009 0.0567178
0.758114 0.685588 0.0528725
0.780957 0.688609 0.0502327
0.803388 0.691798 0.0487831
0.825513 0.695064 0.0481575
0.84741 0.698451 0.0478523
0.869123 0.701808 0.0476997
0.8907 0.705089 0.0476692
0.9122 0.708247 0.0476387
0.931579 0.711009 0.0488594
0.950423 0.713512 0.0503243
0.969268 0.715908 0.0517739
0 0.734859 0
0.0187381 0.739574 0
0.0374914 0.744289 0
0.0562448 0.748806 0
0.0749981 0.75201 0
0.0937362 0.75462 0
0.11249 0.756893 0
0.131243 0.758373 0
0.149996 0.758801 0
0.16875 0.757961 0
0.193759 0.755703 0
0.261646 0.746761 0
0.336538 0.735714 0.0075227
0.409201 0.724544 0.04654
0.467948 0.717189 0.0790723
0.515007 0.713848 0.0985428
0.555901 0.713497 0.105638
0.594934 0.714885 0.103975
0.632197 0.717067 0.0964675
0.668208 0.71986 0.0844129
0.703105 0.722988 0.0703746
0.734981 0.726177 0.0581521
0.760204 0.728588 0.0526741
0.783291 0.731243 0.0493324
0.805539 0.733928 0.0480964
0.827512 0.736767 0.0472725
0.849256 0.739742 0.0466926
0.870832 0.74258 0.0462654
0.89221 0.744976 0.045716
0.913542 0.74725 0.0451972
0.933181 0.749233 0.0458076
0.951995 0.750988 0.046891
0.970825 0.752743 0.0478981
0 0.781643 0
0.0187381 0.785885 0
0.0374914 0.788602 0
0.0562448 0.789792 0
0.0749981 0.791104 0
0.0937362 0.792721 0
0.11249 0.793744 0
0.131243 0.793744 0
0.149996 0.793744 0
0.16875 0.793744 0
0.196033 0.79266 0
0.254887 0.790249 0
0.325139 0.784161 0.000183108
0.397147 0.773983 0.0160372
0.459495 0.765179 0.0499428
0.510796 0.759747 0.0757458
0.55523 0.757366 0.0895399
0.595758 0.75729 0.0925002
0.63331 0.758556 0.0878004
0.668986 0.760708 0.0786145
0.702892 0.763302 0.067155
0.734585 0.765866 0.0563058
0.761761 0.768154 0.0493019
0.785061 0.770123 0.0466163
0.807309 0.772122 0.0451972
0.829084 0.774136 0.0442054
0.850568 0.775753 0.0434272
0.871855 0.77705 0.0427558
0.893019 0.778286 0.0421912
0.914137 0.779446 0.0415961
0.933883 0.780468 0.0418708
0.952636 0.781384 0.0426642
0.971374 0.782238 0.0434882
0 0.812497 0
0.0187381 0.812497 0
0.0374914 0.812497 0
0.0562448 0.812497 0
0.0749981 0.812497 0
0.0937362 0.812497 0
0.11249 0.812497 0
0.131243 0.812497 0
0.149996 0.812497 0
0.168826 0.812497 0
0.202274 0.812497 0
0.258885 0.812497 0
0.323766 0.81239 0
0.392844 0.808911 0.00608835
0.45417 0.801404 0.0327153
0.506554 0.795987 0.0588693
0.55256 0.793301 0.0744945
0.594476 0.792615 0.0803388
0.632609 0.793393 0.0780652
0.668254 0.794888 0.0712749
0.701762 0.796719 0.0623636
0.733364 0.798611 0.0534218
0.761318 0.800137 0.0470741
0.785672 0.801297 0.0437171
0.808072 0.802319 0.0419776
0.829648 0.802792 0.0409857
0.85095 0.80322 0.0401923
0.872084 0.803647 0.0395209
0.893095 0.804074 0.0389563
0.914092 0.804501 0.0383612
0.933837 0.804852 0.038468
0.952544 0.805127 0.0391699
0.971252 0.805402 0.039826
0 0.83125 0
0.0187381 0.83125 0
0.0374914 0.83125 0
0.0562448 0.83125 0
0.0749981 0.83125 0
0.0937362 0.83125 0
0.11249 0.83125 0
0.131243 0.83125 0
0.149996 0.83125 0
0.16875 0.83125 0
0.209415 0.83125 0
0.265278 0.83125 0
0.327977 0.83125 0
0.395102 0.83125 0.00280766
0.45417 0.825864 0.0300603
0.505562 0.820844 0.0545968
0.551598 0.818112 0.0704509
0.593225 0.817487 0.0763256
0.631373 0.818112 0.075288
0.666773 0.819486 0.0690929
0.700008 0.821027 0.0611887
0.731258 0.822522 0.0530251
0.760678 0.823819 0.045655
0.785458 0.824506 0.0419165
0.808011 0.824948 0.0399634
0.82974 0.825345 0.0386511
0.85095 0.825696 0.0378119
0.872007 0.826047 0.0370794
0.892973 0.826413 0.0364233
0.913878 0.826764 0.0357366
0.933608 0.827039 0.0357519
0.952316 0.827268 0.036286
0.971038 0.827482 0.0368048
0 0.850004 0
0.0187381 0.850004 0
0.0374914 0.850004 0
0.0562448 0.850004 0
0.0749981 0.850004 0
0.0937362 0.850004 0
0.11249 0.850004 0
0.131243 0.850004 0
0.149996 0.850004 0
0.170352 0.850004 0
0.2168 0.850004 0
0.271778 0.850004 0
0.333028 0.850004 0
0.397436 0.850004 0.00503548
0.455467 0.848295 0.0290227
0.505333 0.844327 0.0521859
0.55108 0.841398 0.0677501
0.592584 0.840467 0.0740673
0.630472 0.840879 0.0732128
0.665736 0.841993 0.0677958
0.698665 0.843351 0.060502
0.729625 0.844678 0.0527962
0.75903 0.845914 0.0455024
0.784726 0.846662 0.0409247
0.807919 0.847135 0.0383307
0.829862 0.84744 0.0367895
0.851026 0.847639 0.0358434
0.872023 0.847868 0.0350195
0.892912 0.848066 0.0343023
0.913756 0.848264 0.0335546
0.933349 0.848417 0.0335088
0.952071 0.848554 0.0339055
0.970794 0.848661 0.0343175
0 0.868742 0
0.0187381 0.868742 0
0.0374914 0.868742 0
0.0562448 0.868742 0
0.0749981 0.868742 0
0.0937362 0.868742 0
0.11249 0.868742 0
0.131243 0.868742 0
0.149996 0.868742 0
0.176532 0.868742 0
0.223621 0.868742 0
0.277943 0.868742 0
0.337163 0.868742 0
0.400153 0.868742 0.0043946
0.456046 0.868559 0.0279698
0.505638 0.86656 0.0507515
0.550912 0.86421 0.065568
0.592355 0.86302 0.072282
0.630076 0.863249 0.0715801
0.665187 0.864149 0.0667735
0.697826 0.865354 0.0596933
0.728557 0.866545 0.0522774
0.757595 0.867552 0.0453956
0.784604 0.868116 0.0398108
0.807889 0.868254 0.0370336
0.829831 0.868391 0.0353857
0.851133 0.868528 0.0342107
0.872068 0.868696 0.0333562
0.892912 0.868742 0.0325322
0.913695 0.868742 0.0317388
0.933104 0.868742 0.0317082
0.951827 0.868742 0.0319982
0.970565 0.868742 0.0322881
0 0.887495 0
0.0187381 0.887495 0
0.0374914 0.887495 0
0.0562448 0.887495 0
0.0749981 0.887495 0
0.0937362 0.887495 0
0.11249 0.887495 0
0.131243 0.887495 0
0.149996 0.887495 0
0.180407 0.887495 0
0.229877 0.887495 0
0.283391 0.887495 0
0.341344 0.887495 0
0.402304 0.887495 0.00468452
0.456809 0.887495 0.0271458
0.505669 0.887373 0.0489052
0.550988 0.886122 0.0639963
0.592172 0.885237 0.0703899
0.629862 0.885252 0.0702525
0.664775 0.885954 0.0655833
0.697261 0.886549 0.0588693
0.72781 0.886931 0.0517281
0.756802 0.887297 0.0449531
0.783734 0.887495 0.0394598
0.80766 0.887495 0.0361334
0.82977 0.887495 0.034226
0.85127 0.887495 0.0328374
0.872145 0.887495 0.0319371
0.892927 0.887495 0.0310369
0.91368 0.887495 0.0301823
0.932876 0.887495 0.0301823
0.951614 0.887495 0.0303655
0.970352 0.887495 0.0305791
0 0.906249 0
0.0187381 0.906249 0
0.0374914 0.906249 0
0.0562448 0.906249 0
0.0749981 0.906249 0
0.0937362 0.906249 0
0.11249 0.906249 0
0.131243 0.906249 0
0.153017 0.906249 0
