datas/cubes/TC - SELECT_20.cube
TITLE "Generate by Resolve"
LUT_3D_SIZE 5
0.00177005 0.00227359 0.00494392
0.253986 0.00239567 0.0030518
0.6 0 0
0.8 0 0
1 0 0
0.000198367 0.246921 0.0117647
0.246937 0.242023 0.00518807
0.583368 0.222232 0.000198367
0.8 0.202792 0
1 0.202441 0
0 0.533974 0.0282902
0.20708 0.534142 0.0301213
0.538643 0.520974 0.027039
0.8 0.505257 0
1 0.504005 0
0 0.8 0.0199588
0.199985 0.8 0.0199588
0.452827 0.8 0
0.8 0.798306 0
1 0.795651 0
0 1 0.0199588
0.199985 1 0.0199588
0.428412 1 0
0.8 0.998428 0
1 0.998306 0
0.00224308 0.000183108 0.255726
0.251972 0.00244144 0.249897
0.599145 0 0.229908
0.8 0 0.203265
1 0 0.200183
0.0043946 0.243931 0.24686
0.242832 0.242191 0.236194
0.567117 0.225986 0.222141
0.8 0.202625 0.199985
1 0.202396 0.201007
0 0.533578 0.231159
0.208804 0.533639 0.233265
0.538964 0.521157 0.226917
0.8 0.505531 0.199985
1 0.504158 0.199985
0 0.8 0.219959
0.199985 0.8 0.219959
0.452537 0.8 0.199985
0.8 0.798108 0.199985
1 0.794507 0.199985
0 1 0.219959
0.199985 1 0.219959
0.426291 1 0.199985
0.8 0.998474 0.199985
1 0.998306 0.199985
0.000900282 0 0.6
0.257786 0 0.596658
0.593622 0 0.578912
0.8 0 0.555062
1 0 0.551736
0.000762951 0.236744 0.582361
0.240345 0.236988 0.544152
0.549371 0.225772 0.539528
0.8 0.200137 0.550286
1 0.199985 0.550958
0.0149233 0.525475 0.540505
0.225772 0.525216 0.538399
0.527276 0.521843 0.521645
0.779385 0.51368 0.515038
0.978958 0.512032 0.513329
0 0.8 0.53019
0.199985 0.8 0.530877
0.496895 0.797864 0.523552
0.8 0.793973 0.491905
1 0.789227 0.478386
0 1 0.517662
0.199985 1 0.513573
0.457496 1 0.492912
0.8 0.998627 0.423987
1 0.998657 0.402838
0.00114443 0 0.8
0.251347 0 0.8
0.585397 0 0.8
0.8 0 0.8
1 0 0.8
0 0.22948 0.8
0.234028 0.226719 0.8
0.575967 0.208026 0.8
0.8 0.199985 0.8
1 0.199985 0.8
0 0.52726 0.8
0.199985 0.527993 0.8
0.524758 0.520012 0.78526
0.780453 0.512612 0.786816
0.980056 0.510597 0.78613
0 0.8 0.8
0.199985 0.8 0.8
0.510018 0.79469 0.7991
0.799176 0.793652 0.77879
0.999527 0.786679 0.772931
0 1 0.8
0.199985 1 0.8
0.479225 0.996796 0.789487
0.788937 0.999527 0.758221
1 0.99823 0.755428
0.00114443 0 1
0.248722 0 1
0.582391 0 1
0.8 0 1
1 0 1
0 0.227893 1
0.233036 0.225559 1
0.575051 0.207065 1
0.8 0.199985 1
1 0.199985 1
0 0.525872 1
0.199985 0.526665 1
0.523613 0.51873 0.984848
0.78027 0.511269 0.987228
0.979904 0.50901 0.986847
0 0.8 1
0.199985 0.8 1
0.504204 0.795743 1
0.796551 0.791608 1
0.996994 0.784024 1
0 1 1
0.199985 1 1
0.456718 1 1
0.782162 1 1
0.995651 1 1
