datas/cubes/TC - RESOLUTE_60.cube
TITLE "Generate by Resolve"
LUT_3D_SIZE 9
0 1.5259e-05 0.00115969
0.0502327 0 0.00386053
0.148302 6.10361e-05 0.00143435
0.316777 0 0
0.550942 0 0
0.723796 0 0
0.834043 0 0
0.902754 0 0
0.952773 0 0
0.000534066 0.0633707 0.0016022
0.0508431 0.062974 0.00172427
0.155398 0.0563668 0.00169375
0.343984 0.0499886 0
0.584329 0.0499886 0
0.745418 0.0499886 0
0.850065 0.0499886 0
0.903304 0.0499886 0
0.955245 0.0499886 0
0 0.167452 0
0.0499886 0.170443 0
0.148028 0.161486 0.000518807
0.378408 0.134615 0
0.632212 0.108309 0
0.785443 0.112917 0
0.88603 0.131487 0
0.943893 0.151019 0.00134279
0.997711 0.171862 0.0074464
0 0.333898 0
0.0499886 0.348058 0
0.1066 0.345037 0
0.350027 0.327977 0
0.662409 0.315175 0.00140383
0.846189 0.330648 0.0265354
0.899992 0.345769 0.0345464
0.949996 0.369787 0.0363775
1 0.395727 0.0379644
0 0.586816 0
0.0499886 0.605524 0
0.100465 0.600443 0
0.300572 0.600412 4.57771e-05
0.631098 0.563272 0.000534066
0.826902 0.581903 0.026627
0.899992 0.603632 0.0416266
0.949996 0.622278 0.0406653
1 0.641825 0.0390784
0.0233158 0.819272 0.0224613
0.0799725 0.830747 0.0290837
0.12958 0.82652 0.0268711
0.31043 0.826795 0.0348516
0.64564 0.777447 0.0122683
0.814862 0.767147 0.0211795
0.899992 0.777173 0.0296941
0.949996 0.788052 0.032166
1 0.795575 0.0319982
0.0621042 0.899992 0.0610361
0.112154 0.899992 0.0610971
0.168872 0.899992 0.061799
0.352499 0.899992 0.0594339
0.651789 0.898985 0.0257267
0.819272 0.884978 0.0237888
0.899855 0.884199 0.0280308
0.949996 0.887694 0.0300755
1 0.89041 0.0306096
0.0621653 0.949996 0.0610971
0.112154 0.949996 0.0610971
0.189456 0.949996 0.0638895
0.380774 0.949996 0.0567636
0.649561 0.949996 0.0268254
0.814191 0.949996 0.0227054
0.899748 0.949996 0.0263523
0.949996 0.949996 0.0282444
1 0.949996 0.0287327
0.0621653 1 0.0610971
0.112154 1 0.0610971
0.204532 1 0.0652018
0.405493 1 0.0533761
0.661067 1 0.0255436
0.813519 1 0.0226596
0.898894 1 0.0261082
0.949996 1 0.0280156
1 1 0.0284733
0 0.00015259 0.0587015
0.0500496 7.62951e-05 0.0708324
0.14844 7.62951e-05 0.0734874
0.31812 0 0.0530861
0.553735 0 0.0499886
0.725658 0 0.0499886
0.836042 0 0.0499886
0.903059 0 0.0499886
0.953384 0 0.0499886
0 0.0673228 0.0710307
0.0500343 0.0690776 0.0628977
0.153628 0.057435 0.0754406
0.344457 0.0499886 0.0544747
0.587076 0.0499886 0.0499886
0.7476 0.0499886 0.0499886
0.851926 0.0499886 0.0499886
0.904677 0.0499886 0.0499886
0.956909 0.0499886 0.0499886
0.0009308 0.168719 0.0560922
0.0507973 0.171847 0.0567483
0.148333 0.164401 0.0653086
0.3729 0.139422 0.0510719
0.619593 0.114733 0.0499886
0.782391 0.120653 0.0502937
0.890867 0.141955 0.0573434
0.947951 0.163531 0.0725414
0.999268 0.185275 0.0895552
0 0.338415 0.0499886
0.0499886 0.353002 0.0499886
0.107378 0.350958 0.0500038
0.357931 0.336736 0.0556497
0.671061 0.321263 0.0523842
0.846006 0.338338 0.0772259
0.899992 0.356573 0.0862745
0.949996 0.382223 0.0885939
1 0.408408 0.0936294
0 0.593469 0.0499886
0.0499886 0.61149 0.0499886
0.10071 0.607202 0.0499886
0.308034 0.60763 0.0500649
0.638376 0.572305 0.0571298
0.832349 0.589578 0.078233
0.899992 0.609064 0.0913252
0.949996 0.62768 0.0903029
1 0.645914 0.088716
0.025803 0.824323 0.0749218
0.0819104 0.83331 0.0810101
0.132815 0.830488 0.0789654
0.318105 0.829755 0.0858625
0.649683 0.781598 0.0633402
0.815946 0.770993 0.0760204
0.899992 0.780255 0.0811475
0.949996 0.790387 0.0823377
1 0.797162 0.0822003
0.06215 0.899992 0.111086
0.112154 0.899992 0.111116
0.170382 0.899992 0.111879
0.35433 0.899992 0.10927
0.648814 0.899489 0.076173
0.817945 0.886656 0.0738842
0.899687 0.885237 0.0794232
0.949996 0.888289 0.0816663
1 0.890623 0.0820478
0.0621653 0.949996 0.111192
0.112184 0.949996 0.111696
0.189273 0.949996 0.113893
0.377401 0.949996 0.107195
0.642603 0.949996 0.0776074
0.809979 0.949996 0.0724346
0.898955 0.949996 0.076112
0.949996 0.949996 0.0781567
1 0.949996 0.0787366
0.0624247 1 0.116197
0.112306 1 0.114504
0.202609 1 0.115084
0.398489 1 0.104356
0.652186 1 0.0764782
0.808392 1 0.0723278
0.897627 1 0.0758068
0.949996 1 0.07776
1 1 0.0782483
0 0.00520333 0.132601
0.0499886 0.0024567 0.151263
0.136431 0 0.19292
0.315007 0 0.154391
0.551537 0 0.111574
0.72546 0 0.100664
0.837034 0 0.100984
0.904784 0 0.103685
0.955032 0 0.108797
0 0.0797131 0.136736
0.0499886 0.0836042 0.128069
0.137728 0.059266 0.193973
0.343557 0.0499886 0.161776
0.586954 0.0499886 0.121752
0.748943 0.0499886 0.110842
0.853834 0.0499886 0.117891
0.906767 0.0499886 0.128359
0.959091 0.0500191 0.142626
0 0.179507 0.116289
0.0499886 0.183597 0.113802
0.132479 0.172747 0.14786
0.352132 0.147189 0.165576
0.611383 0.121614 0.139727
0.784604 0.128099 0.14638
0.89662 0.151217 0.170214
0.949447 0.173037 0.193729
0.999649 0.194995 0.217533
0 0.343816 0.0999924
0.0499886 0.359823 0.0999924
0.110872 0.357565 0.117388
0.355337 0.348959 0.161074
0.665644 0.330526 0.145708
0.837324 0.348943 0.170794
0.899992 0.377218 0.193164
0.949996 0.405142 0.207401
1 0.431952 0.219654
0 0.597589 0.100023
0.0499886 0.616403 0.103044
0.101122 0.611841 0.10515
0.304143 0.614572 0.121508
0.638529 0.584298 0.162173
0.836439 0.594476 0.150912
0.899992 0.611475 0.154849
0.949996 0.630503 0.158099
1 0.648844 0.163409
0.0282597 0.826368 0.143816
0.0848554 0.834775 0.155352
0.135653 0.832639 0.151217
0.316228 0.831083 0.151431
0.642695 0.786435 0.132525
0.811414 0.774884 0.175021
0.899474 0.782788 0.173098
0.949996 0.791913 0.169055
1 0.798245 0.172976
0.0640421 0.899992 0.186572
0.114534 0.899992 0.1906
0.171618 0.899992 0.188083
0.346929 0.899992 0.174685
0.635477 0.899565 0.132097
0.810468 0.888136 0.14786
0.897902 0.885664 0.171908
0.949996 0.88809 0.178714
1 0.89012 0.181857
0.0668345 0.949996 0.205417
0.116838 0.949996 0.205585
0.187106 0.949996 0.203021
0.362463 0.949996 0.179461
0.625055 0.949996 0.134859
0.799939 0.949996 0.125475
0.894484 0.949996 0.147127
0.949996 0.949996 0.162615
1 0.949996 0.166567
0.0692607 1 0.216724
0.118639 1 0.214466
0.198642 1 0.214298
0.378576 1 0.184192
0.631891 1 0.134981
0.79649 1 0.123781
0.891142 1 0.134951
0.949996 1 0.152239
1 1 0.157046
0 0.0168307 0.226139
0.0499886 0.00991836 0.259541
0.102495 0 0.383444
0.299382 0 0.358297
0.542565 0 0.288731
0.720974 0 0.252476
0.834989 0 0.250858
0.904418 0 0.263447
0.953994 0 0.2822
0 0.0998856 0.200809
0.0499886 0.100618 0.217411
0.102846 0.0715648 0.355245
0.328832 0.0499886 0.379522
0.580087 0.0499886 0.320195
0.744778 0.0499886 0.302541
0.851453 0.0499886 0.31313
0.904158 0.0499886 0.332967
0.9561 0.0500038 0.357488
0 0.198627 0.208515
0.0499886 0.209888 0.179644
0.100313 0.20589 0.186603
0.3364 0.144274 0.382147
0.608759 0.118959 0.344747
0.784329 0.127718 0.350896
0.896834 0.15198 0.382422
0.949538 0.173083 0.415015
0.999695 0.195224 0.447883
0 0.36939 0.151156
0.0499886 0.386984 0.150774
0.103319 0.382239 0.166247
0.327718 0.361364 0.337972
0.631434 0.341466 0.359884
0.819944 0.35671 0.376669
0.899992 0.388174 0.407736
0.949996 0.415641 0.432975
1 0.441886 0.457084
6.10361e-05 0.608011 0.150439
0.0508736 0.627512 0.151354
0.1084 0.622568 0.158877
0.29688 0.620691 0.30515
0.629206 0.590661 0.341985
0.83238 0.599207 0.319478
0.899992 0.619242 0.338659
0.949996 0.638453 0.359686
1 0.654032 0.375021
0.0475471 0.831754 0.234058
0.104967 0.838727 0.239231
0.15436 0.835889 0.240131
0.308995 0.832563 0.319142
0.614176 0.793576 0.28275
0.797848 0.773159 0.35256
0.894835 0.780026 0.339605
0.949996 0.788586 0.329
1 0.794171 0.336873
0.0796063 0.899992 0.280385
0.131136 0.899992 0.279591
0.184207 0.899992 0.286412
0.331136 0.899992 0.342107
0.595087 0.899657 0.284337
0.79144 0.888747 0.277363
0.884276 0.881331 0.339117
0.949538 0.88217 0.360433
1 0.883665 0.367651
0.0863661 0.949996 0.274434
0.136431 0.949996 0.274159
0.194995 0.949996 0.297246
0.339467 0.949996 0.355047
0.579004 0.949996 0.289128
0.775937 0.949996 0.249516
0.878111 0.949996 0.27422
0.948333 0.949966 0.315572
1 0.949935 0.331762
0.0915084 1 0.266835
0.140246 1 0.268742
0.205249 1 0.310399
0.351095 1 0.367727
0.582132 1 0.293873
0.769741 1 0.246509
0.87216 1 0.248859
0.946456 1 0.279835
1 1 0.29868
0 0.0277104 0.353292
0.0499886 0.0192264 0.406531
0.0999924 0.000289921 0.542321
0.224292 0 0.630442
0.528038 0 0.538781
0.71136 0 0.49897
0.827878 0 0.497093
0.899519 0 0.510765
0.949111 0 0.531167
0 0.119142 0.297246
0.0499886 0.116884 0.343572
0.0999924 0.0857099 0.509712
0.245472 0.0504616 0.642298
0.571008 0.0499886 0.568307
0.738262 0.0499886 0.551492
0.846662 0.0499886 0.561852
0.899809 0.0499886 0.577996
0.952316 0.0499886 0.598108
0 0.236652 0.24387
0.0499886 0.250751 0.223651
0.0999924 0.242588 0.273671
0.232578 0.167285 0.618296
0.605417 0.114992 0.595315
0.78233 0.124117 0.601205
0.896422 0.149599 0.630793
0.949432 0.171023 0.658076
0.99968 0.194003 0.683909
0 0.402487 0.260563
0.0499886 0.425895 0.239185
0.0999924 0.427741 0.210193
0.188022 0.421332 0.381506
0.628382 0.33872 0.615564
0.819028 0.354269 0.62887
0.899992 0.386114 0.657938
0.949996 0.414557 0.680278
1 0.441093 0.698482
0 0.638071 0.201495
0.0501869 0.657328 0.203845
0.100694 0.652293 0.212696
0.273716 0.642817 0.377798
0.604486 0.594614 0.584955
0.801816 0.599145 0.597925
0.898817 0.620691 0.621988
0.949996 0.641505 0.643351
1 0.655406 0.656687
0.0663615 0.839292 0.251087
0.121447 0.845045 0.256291
0.171038 0.842451 0.256474
0.338827 0.831754 0.390097
0.577676 0.790204 0.556466
0.778363 0.767514 0.579049
0.881636 0.772168 0.568063
0.949752 0.779217 0.568841
1 0.784283 0.579248
0.105501 0.899992 0.288533
0.156283 0.899992 0.287266
0.208988 0.899992 0.292302
0.34696 0.899992 0.448432
0.555062 0.899031 0.560632
0.756466 0.88333 0.518059
0.86215 0.873167 0.560311
0.934173 0.87219 0.59382
0.994965 0.873365 0.60206
0.105074 0.949996 0.284627
0.155474 0.949996 0.284321
0.215305 0.949996 0.295735
0.353292 0.949996 0.451484
0.538949 0.949996 0.56611
0.733776 0.949996 0.511055
0.849775 0.949706 0.497566
0.92781 0.94844 0.530205
0.989761 0.947784 0.558083
0.102327 1 0.283528
0.153368 1 0.283513
0.222843 1 0.302419
0.364034 1 0.458228
0.538781 1 0.568612
0.723476 1 0.507195
0.839933 1 0.479515
0.920989 1 0.485893
0.985199 1 0.50428
0 0.0364233 0.496864
0.0499886 0.0280308 0.552804
0.0999924 0.00422675 0.675471
0.160479 0 0.772549
0.491127 0 0.732937
0.706996 0 0.694728
0.825681 0 0.697505
0.898772 0 0.707332
0.949172 0 0.718379
0 0.136675 0.422461
0.0499886 0.132921 0.486717
0.0999924 0.100542 0.649256
0.170138 0.057145 0.775799
0.546746 0.0499886 0.741238
0.738979 0.0499886 0.722789
0.848295 0.0499886 0.732647
0.901671 0.0499886 0.741161
0.954925 0.0500038 0.752316
0 0.278325 0.293538
0.0499886 0.292927 0.290837
0.0999924 0.27689 0.398733
0.160967 0.20412 0.719448
0.581918 0.121401 0.770382
0.787793 0.126986 0.768719
0.897902 0.152972 0.792554
0.949615 0.176013 0.811292
0.999832 0.199374 0.829145
0 0.44831 0.348928
0.0499886 0.476722 0.307271
0.0999924 0.483589 0.259754
0.150164 0.471839 0.38854
0.566949 0.361639 0.794797
0.825452 0.357778 0.804044
0.899992 0.38996 0.826307
0.949996 0.420096 0.837659
1 0.446784 0.84509
0 0.666453 0.335332
0.0499886 0.686183 0.333928
0.0999924 0.682826 0.321096
0.19266 0.682567 0.448508
0.472953 0.644663 0.684947
0.799664 0.599695 0.781338
0.897368 0.620127 0.796536
0.949996 0.641016 0.806775
1 0.654627 0.811292
0.0239414 0.847608 0.329763
0.0773938 0.849958 0.334936
0.128283 0.848676 0.334112
0.286702 0.84625 0.457816
0.556817 0.800366 0.643488
0.758495 0.766888 0.753689
0.861128 0.76846 0.764446
0.934936 0.775647 0.773236
0.993225 0.781064 0.779477
0.0796826 0.899992 0.340703
0.128496 0.899992 0.341451
0.183185 0.899992 0.342641
0.344991 0.899992 0.430396
0.575952 0.898466 0.61001
0.731823 0.876204 0.742046
0.840146 0.868345 0.74728
0.918486 0.867109 0.761013
0.982254 0.867979 0.766598
0.0712596 0.949996 0.346044
0.12192 0.949996 0.345617
0.182925 0.949996 0.348013
0.347692 0.949996 0.429999
0.56463 0.949996 0.601205
0.710674 0.949859 0.737392
0.82092 0.947265 0.735759
0.90396 0.944823 0.733654
0.972457 0.943313 0.740261
0.0640421 1 0.350744
0.116503 1 0.349096
0.185824 1 0.35581
0.352056 1 0.437079
0.560754 1 0.596246
0.698528 1 0.731655
0.807858 1 0.728206
0.892256 1 0.721736
0.962325 0.999802 0.721492
0 0.0438392 0.612711
0.0499886 0.0359045 0.669795
0.0999924 0.011902 0.771771
0.149996 0 0.85449
0.430381 0 0.850401
0.706142 0 0.808759
0.829923 0 0.812024
0.90222 0 0.820218
0.95285 0 0.828031
0 0.152316 0.533013
0.0499886 0.14844 0.60032
0.0999924 0.11516 0.750027
0.152941 0.0694743 0.856535
0.499733 0.0499886 0.847944
0.74226 0.0499886 0.828565
0.852827 0.0499886 0.837324
0.905867 0.0499886 0.844175
0.959457 0.0502632 0.853193
0 0.311971 0.359319
0.0499886 0.326146 0.370977
0.0999924 0.305196 0.51194
0.151324 0.234638 0.788281
0.530358 0.144442 0.880369
0.796735 0.136278 0.876295
0.899351 0.161501 0.894759
0.949859 0.185016 0.899504
1 0.208453 0.899947
0 0.491875 0.396551
0.0499886 0.51902 0.356863
0.0999924 0.524544 0.322255
0.149996 0.508385 0.434516
0.474083 0.403098 0.887633
0.832212 0.368582 0.899428
0.899992 0.400076 0.899992
0.949996 0.430228 0.899992
1 0.456138 0.899992
0 0.688685 0.479042
0.0499886 0.709514 0.460822
0.0999924 0.711177 0.407736
0.166705 0.714549 0.45008
0.36759 0.691325 0.736034
0.789319 0.609552 0.887892
0.897749 0.625101 0.895659
0.949996 0.6448 0.899092
1 0.657404 0.899062
0.00108339 0.849607 0.431357
0.0529488 0.850004 0.431922
0.103136 0.850004 0.429191
0.239887 0.84921 0.58883
0.467704 0.829374 0.743175
0.692912 0.791485 0.811963
0.849531 0.771145 0.87013
0.930541 0.775647 0.876143
0.989578 0.780575 0.879744
0.0436866 0.899992 0.415824
0.0928664 0.899992 0.416403
0.147463 0.899992 0.417304
0.28513 0.899992 0.52752
0.50724 0.899977 0.687709
0.713497 0.884703 0.790845
0.82858 0.870451 0.836149
0.907805 0.867658 0.858518
0.97467 0.867475 0.865629
0.0397192 0.949996 0.419806
0.0906539 0.949996 0.418921
0.147997 0.949996 0.42153
0.28835 0.949996 0.516976
0.516167 0.949996 0.646387
0.71603 0.949981 0.758679
0.821256 0.946273 0.822278
0.895476 0.943313 0.849317
0.962463 0.942565 0.855528
0.0391699 1 0.42031
0.0896162 1 0.419898
0.151522 1 0.428458
0.289982 1 0.525719
0.509911 1 0.640681
0.705928 1 0.744076
0.809491 1 0.812726
0.884123 1 0.84184
0.951812 0.999771 0.84863
0 0.0501869 0.704356
0.0499886 0.0429999 0.759243
0.0999924 0.019791 0.847288
0.149996 0.000244144 0.920195
0.382269 0 0.914305
0.702937 0 0.889799
0.835157 0 0.897292
0.904738 0 0.902556
0.954971 0 0.905257
0 0.166232 0.618479
0.0499886 0.16228 0.687877
0.0999924 0.128283 0.825711
0.149996 0.0807507 0.920287
0.460853 0.0500038 0.905241
0.742382 0.0499886 0.894713
0.855406 0.0499886 0.90663
0.907668 0.0499886 0.908705
0.961852 0.0509041 0.912886
0 0.337743 0.426184
0.0499886 0.351278 0.447257
0.0999924 0.328695 0.60116
0.150042 0.25919 0.852735
0.492012 0.164553 0.940749
0.802106 0.145876 0.944869
0.899702 0.170199 0.949752
0.94995 0.193301 0.949981
1 0.216648 0.949996
0 0.523842 0.446021
0.0499886 0.548669 0.410391
0.0999924 0.553399 0.385245
0.149996 0.534768 0.503853
0.417334 0.43624 0.945052
0.831113 0.381826 0.949996
0.899992 0.411521 0.949996
0.949996 0.440421 0.949996
1 0.464363 0.949996
0 0.709651 0.576623
0.0499886 0.73019 0.546532
0.0999924 0.735134 0.475578
0.160006 0.737484 0.48333
0.321813 0.71986 0.791074
0.758465 0.627756 0.949554
0.895705 0.63238 0.949996
0.949981 0.649378 0.949996
1 0.660838 0.949996
0.000701915 0.850004 0.500389
0.0505837 0.850004 0.49572
0.100481 0.850004 0.49984
0.223224 0.849989 0.671305
0.420615 0.846555 0.783108
0.630106 0.816403 0.857771
0.81384 0.784329 0.939681
0.919036 0.779629 0.949386
0.981796 0.782605 0.949889
0.0386053 0.899992 0.470756
0.0876631 0.899992 0.471168
0.139391 0.899992 0.475059
0.265858 0.899992 0.60766
0.452262 0.899992 0.785412
0.66276 0.896727 0.86685
0.795499 0.882704 0.887922
0.879683 0.878294 0.90811
0.952224 0.874495 0.932128
0.0388037 0.949996 0.470665
0.0888075 0.949996 0.470665
0.144137 0.949996 0.475685
0.271946 0.949996 0.586984
0.46569 0.949996 0.734249
0.672618 0.949996 0.830854
0.800885 0.949615 0.874861
0.886275 0.947417 0.898299
0.956817 0.945586 0.913329
0.0388037 1 0.470665
0.0888075 1 0.470665
0.148836 1 0.480293
0.274693 1 0.591867
0.458885 1 0.72755
0.662531 1 0.813672
0.795071 1 0.857237
0.882246 1 0.884184
0.952926 1 0.902678
0 0.0565652 0.785824
0.0499886 0.050309 0.837156
0.0999924 0.0272221 0.915084
0.149996 0.00106813 0.977325
0.347189 0 0.968872
0.698497 0 0.94081
0.838193 0 0.952789
0.905028 0 0.956085
0.955032 0 0.956085
0 0.18024 0.695323
0.0499886 0.176104 0.76585
0.0999924 0.141863 0.891951
0.149996 0.0918288 0.976883
0.428885 0.0501259 0.960296
0.740826 0.0499886 0.944778
0.856245 0.0499886 0.957351
0.908629 0.0499886 0.95967
0.964202 0.0516213 0.965209
0 0.361593 0.492409
0.0499886 0.372457 0.518563
0.0999924 0.348501 0.677211
0.149996 0.279301 0.911864
0.469551 0.181613 0.996124
0.805539 0.154528 0.997864
0.899794 0.177874 0.999847
0.949981 0.201251 1
1 0.223957 1
0 0.551049 0.498772
0.0499886 0.571588 0.465827
0.0999924 0.574777 0.44712
0.149996 0.554574 0.57641
0.385626 0.460197 0.995727
0.827161 0.394156 1
0.899992 0.421118 1
0.949996 0.449088 1
1 0.471489 1
0 0.729931 0.647456
0.0499886 0.748028 0.609827
0.0999924 0.753475 0.535683
0.157671 0.754345 0.530724
0.299794 0.738842 0.845869
0.727398 0.644648 0.999847
0.891035 0.639536 1
0.949783 0.65388 1
1 0.664195 1
0.00166323 0.850004 0.54612
0.0512856 0.850004 0.54255
0.101091 0.850004 0.54818
0.219654 0.850004 0.715419
0.391531 0.849943 0.816251
0.581628 0.836042 0.906889
0.770214 0.800717 0.988617
0.899336 0.78674 0.999924
0.966094 0.787503 1
0.0387732 0.899992 0.520668
0.0878767 0.899992 0.521065
0.139818 0.899992 0.524788
0.266651 0.899992 0.65565
0.443046 0.899992 0.828763
0.63003 0.899992 0.910887
0.761608 0.895842 0.927657
0.848432 0.890272 0.951308
0.922194 0.885863 0.972045
0.0388037 0.949996 0.520653
0.0888075 0.949996 0.520653
0.144884 0.949996 0.526406
0.272038 0.949996 0.637705
0.460563 0.949996 0.785931
0.657984 0.949996 0.884779
0.784634 0.949996 0.926238
0.870207 0.949996 0.945998
0.939941 0.94995 0.958373
0.0388037 1 0.520653
0.0888075 1 0.520653
0.148974 1 0.530434
0.274266 1 0.641581
0.453422 1 0.780209
0.64654 1 0.87303
0.779217 1 0.915908
0.869978 1 0.940108
0.943297 1 0.956146
