datas/cubes/TC - FORWARD_40.cube
TITLE "Generate by Resolve"
LUT_3D_SIZE 33
0 0.00337224 0.0112306
0.0200504 0.00343328 0.0106661
0.0408789 0.0033875 0.0102235
0.062501 0.00325017 0.00988785
0.0859541 0.0028687 0.00943008
0.110063 0.00248722 0.00839246
0.134997 0.00209049 0.00680552
0.161532 0.00164797 0.00466926
0.190692 0.00140383 0.00184634
0.222705 0.00209049 0.000106813
0.25687 0.00357061 0
0.294606 0.00505074 0
0.339162 0.0055848 0
0.396262 0.00410468 0
0.479652 0 0
0.590814 0 0
0.670146 0 0
0.718746 0 0
0.737499 0 0
0.756252 0 0
0.77499 0 0
0.793744 0 0
0.812497 0 0
0.83125 0 0
0.850004 0 0
0.868742 0 0
0.887495 0 0
0.906249 0 0
0.925002 0 0
0.943755 0 0
0.962493 0 0
0.981247 0 0
1 0 0
0 0.0254673 0.00779736
0.0193484 0.0251621 0.00810254
0.0396277 0.0247196 0.00851453
0.0615702 0.0241855 0.00910964
0.0844434 0.0236667 0.00875868
0.108324 0.0230259 0.00796521
0.133364 0.0221714 0.00666819
0.159884 0.0210422 0.00489815
0.189059 0.0201114 0.00224308
0.220935 0.0206912 0.00015259
0.255192 0.0221408 0
0.29247 0.0236667 0
0.336065 0.0243992 0
0.392248 0.0230564 0
0.471748 0.0187381 0
0.582528 0.0187381 0
0.666972 0.0187381 0
0.718746 0.0187381 0
0.737499 0.0187381 0
0.756252 0.0187381 0
0.77499 0.0187381 0
0.793744 0.0187381 0
0.812497 0.0187381 0
0.83125 0.0187381 0
0.850004 0.0187381 0
0.868742 0.0187381 0
0.887495 0.0187381 0
0.906249 0.0187381 0
0.925002 0.0187381 0
0.943755 0.0187381 0
0.962493 0.0187381 0
0.981247 0.0187381 0
1 0.0187381 0
0 0.0475776 0.0043946
0.0189822 0.0471809 0.00497444
0.0383001 0.0466773 0.00590524
0.0604562 0.0458534 0.00761425
0.082887 0.0453651 0.00781262
0.106111 0.0449226 0.0069276
0.130999 0.0440375 0.00587472
0.157534 0.0428016 0.0043183
0.186679 0.0411841 0.00189212
0.219028 0.0402838 0.000122072
0.253483 0.0408331 0
0.290593 0.0423133 0
0.33373 0.0431067 0
0.388968 0.0419928 0
0.464714 0.0374914 0
0.575631 0.0374914 0
0.664378 0.0374914 0
0.718593 0.0374914 0
0.737499 0.0374914 0
0.756252 0.0374914 0
0.77499 0.0374914 0
0.793744 0.0374914 0
0.812497 0.0374914 0
0.83125 0.0374914 0
0.850004 0.0374914 0
0.868742 0.0374914 0
0.887495 0.0374914 0
0.906249 0.0374914 0
0.925002 0.0374914 0
0.943755 0.0374914 0
0.962493 0.0374914 0
0.981247 0.0374914 0
1 0.0374914 0
3.0518e-05 0.0693217 0.00143435
0.0191501 0.0690013 0.00169375
0.0389868 0.0683604 0.00222782
0.0607767 0.0675517 0.00411994
0.0828565 0.0668956 0.00584421
0.104952 0.0666514 0.00645457
0.129259 0.065919 0.00541695
0.15552 0.064744 0.00375372
0.184482 0.0628061 0.00140383
0.21709 0.0607156 0
0.251942 0.0601053 0
0.288884 0.0609598 0
0.331868 0.0618448 0
0.386297 0.0608835 0
0.459678 0.0562448 0
0.571267 0.0562448 0
0.662638 0.0562448 0
0.717418 0.0562448 0
0.737499 0.0562448 0
0.756252 0.0562448 0
0.77499 0.0562448 0
0.793744 0.0562448 0
0.812497 0.0562448 0
0.83125 0.0562448 0
0.850004 0.0562448 0
0.868742 0.0562448 0
0.887495 0.0562448 0
0.906249 0.0562448 0
0.925002 0.0562448 0
0.943755 0.0562448 0
0.962493 0.0562448 0
0.981247 0.0562448 0
1 0.0562448 0
0.00177005 0.0908522 0
0.0203403 0.0906539 0
0.0402991 0.0900893 0
0.0613718 0.0893263 0.00105287
0.0834058 0.0885176 0.00315862
0.104723 0.088304 0.00546273
0.127825 0.0879072 0.00511177
0.153429 0.0869764 0.00341802
0.182223 0.0852216 0.00102235
0.214862 0.0826276 0
0.250294 0.0805219 0
0.287144 0.079881 0
0.329885 0.0805524 0
0.383627 0.0797742 0
0.456016 0.0751812 0
0.566705 0.0749981 0
0.661295 0.0749981 0
0.716716 0.0749981 0
0.737499 0.0749981 0
0.756252 0.0749981 0
0.77499 0.0749981 0
0.793744 0.0749981 0
0.812497 0.0749981 0
0.83125 0.0749981 0
0.850004 0.0749981 0
0.868742 0.0749981 0
0.887495 0.0749981 0
0.906249 0.0749981 0
0.925002 0.0749981 0
0.943755 0.0749981 0
0.962493 0.0749981 0
0.981247 0.0749981 0
1 0.0749981 0
0.00509651 0.112184 0
0.0236667 0.112047 0
0.0428626 0.111666 0
0.0629435 0.111131 0.000106813
0.0846723 0.110246 0.00062562
0.106493 0.109758 0.00340276
0.12842 0.109667 0.00450141
0.152361 0.109209 0.00349432
0.180194 0.107866 0.00106813
0.212482 0.105257 1.5259e-05
0.248569 0.102129 0
0.285878 0.10016 0
0.328054 0.0995804 0
0.381048 0.0986648 0
0.453361 0.0942245 0
0.563775 0.0937362 0
0.660655 0.0937362 0
0.716365 0.0937362 0
0.737499 0.0937362 0
0.756252 0.0937362 0
0.77499 0.0937362 0
0.793744 0.0937362 0
0.812497 0.0937362 0
0.83125 0.0937362 0
0.850004 0.0937362 0
0.868742 0.0937362 0
0.887495 0.0937362 0
0.906249 0.0937362 0
0.925002 0.0937362 0
0.943755 0.0937362 0
0.962493 0.0937362 0
0.981247 0.0937362 0
1 0.0937362 0
0.00880446 0.133761 0
0.0274205 0.133654 0
0.0461738 0.133455 0
0.0653239 0.13315 0
0.0863813 0.132479 0
0.108354 0.131823 0.00114443
0.130159 0.131548 0.00299077
0.152056 0.131701 0.00335698
0.178424 0.130846 0.00158694
0.209827 0.128679 1.5259e-05
0.246403 0.1252 0
0.284535 0.121767 0
0.326055 0.119097 0
0.378225 0.117571 0
0.450645 0.113344 0
0.560937 0.11249 0
0.661036 0.11249 0
0.715663 0.11249 0
0.737499 0.11249 0
0.756252 0.11249 0
0.77499 0.11249 0
0.793744 0.11249 0
0.812497 0.11249 0
0.83125 0.11249 0
0.850004 0.11249 0
0.868742 0.11249 0
0.887495 0.11249 0
0.906249 0.11249 0
0.925002 0.11249 0
0.943755 0.11249 0
0.962493 0.11249 0
0.981247 0.11249 0
1 0.11249 0
0.0130312 0.155734 0
0.0316777 0.155657 0
0.050309 0.155581 0
0.0692149 0.155444 0
0.0889601 0.155093 0
0.11017 0.154513 9.15541e-05
0.133059 0.153841 0.000671397
0.153307 0.154376 0.00241093
0.177432 0.154192 0.00230411
0.207553 0.152728 0.000411994
0.243763 0.149599 0
0.283192 0.145525 0
0.324239 0.141009 0
0.375113 0.137041 0
0.447898 0.13254 0
0.559091 0.131243 0
0.661936 0.131243 0
0.714992 0.131243 0
0.737499 0.131243 0
0.756252 0.131243 0
0.77499 0.131243 0
0.793744 0.131243 0
0.812497 0.131243 0
0.83125 0.131243 0
0.850004 0.131243 0
0.868742 0.131243 0
0.887495 0.131243 0
0.906249 0.131243 0
0.925002 0.131243 0
0.943755 0.131243 0
0.962493 0.131243 0
0.981247 0.131243 0
1 0.131243 0
0.017792 0.178424 0
0.0365454 0.178424 0
0.0552682 0.178393 0
0.0740215 0.178393 0
0.0928206 0.178378 0
0.112932 0.178119 0
0.135271 0.177554 0
0.157519 0.177417 0.000579843
0.178271 0.178271 0.00166323
0.205722 0.17763 0.00175479
0.240681 0.175387 0.000198367
0.281163 0.171542 0
0.32314 0.167163 0.000183108
0.373495 0.161501 0
0.443931 0.15349 0
0.556634 0.149996 0
0.660639 0.149996 0
0.714748 0.149996 0
0.737499 0.149996 0
0.756252 0.149996 0
0.77499 0.149996 0
0.793744 0.149996 0
0.812497 0.149996 0
0.83125 0.149996 0
0.850004 0.149996 0
0.868742 0.149996 0
0.887495 0.149996 0
0.906249 0.149996 0
0.925002 0.149996 0
0.943755 0.149996 0
0.962493 0.149996 0
0.981247 0.149996 0
1 0.149996 0
0.0228122 0.202609 0
0.0416419 0.202716 0
0.0604715 0.202823 0
0.0793622 0.202991 0
0.0982071 0.203113 0
0.117327 0.20325 0
0.137758 0.203281 0
0.160891 0.202838 0
0.183795 0.202899 0.000640879
0.205829 0.203952 0.0021973
0.238117 0.202899 0.00254826
0.278325 0.200153 0.00117494
0.322301 0.196048 0.00155642
0.372686 0.190875 0.000671397
0.438315 0.182849 0
0.548592 0.169711 0
0.658549 0.16875 0
0.716091 0.16875 0
0.737499 0.16875 0
0.756252 0.16875 0
0.77499 0.16875 0
0.793744 0.16875 0
0.812497 0.16875 0
0.83125 0.16875 0
0.850004 0.16875 0
0.868742 0.16875 0
0.887495 0.16875 0
0.906249 0.16875 0
0.925002 0.16875 0
0.943755 0.16875 0
0.962493 0.16875 0
0.981247 0.16875 0
1 0.16875 0
0.0289006 0.228931 0
0.0478065 0.229145 0
0.0667887 0.229435 0
0.0858015 0.229755 0
0.104799 0.23006 0
0.12398 0.230594 0
0.143206 0.231174 0
0.164218 0.231388 0
0.187839 0.231205 0
0.213794 0.231678 0.00131228
0.238178 0.233356 0.00448615
0.276127 0.231769 0.0052491
0.320867 0.228946 0.00500496
0.370916 0.224903 0.00486763
0.432776 0.219165 0.00158694
0.528481 0.204929 0
0.647959 0.190433 0
0.718502 0.187961 0
0.737499 0.187503 0
0.756252 0.187488 0
0.77499 0.187488 0
0.793744 0.187488 0
0.812497 0.187488 0
0.83125 0.187488 0
0.850004 0.187488 0
0.868742 0.187488 0
0.887495 0.187488 0
0.906249 0.187488 0
0.925002 0.187488 0
0.943755 0.187488 0
0.962493 0.187488 0
0.981247 0.187488 0
1 0.190021 0
0.0370642 0.257801 0
0.0562142 0.258305 0
0.0754101 0.258839 0
0.094667 0.259464 0
0.113909 0.26009 0
0.133227 0.260792 0
0.152834 0.26183 0
0.172747 0.263066 0
0.193408 0.26392 0
0.22089 0.264073 0
0.249958 0.265141 0.00483711
0.277913 0.267781 0.0089723
0.321309 0.266499 0.0110475
0.370184 0.263874 0.0113222
0.428794 0.260044 0.00921645
0.505653 0.252491 0.0019379
0.625834 0.234348 0
0.713939 0.223499 0
0.737499 0.218372 0
0.756252 0.214588 0
0.77499 0.21239 0
0.793744 0.211353 0
0.812497 0.211276 0
0.83125 0.212253 0
0.850004 0.21413 0
0.868742 0.216709 0
0.887495 0.219989 0
0.906249 0.224186 0
0.925002 0.227726 0
0.943755 0.231342 0
0.962493 0.234882 0
0.981247 0.238605 0
1 0.242329 0
0.0483253 0.29041 0
0.0677501 0.291249 0
0.0872969 0.292226 0
0.106889 0.293263 0
0.126467 0.294286 0
0.145998 0.295247 0
0.166201 0.297047 0
0.186572 0.299031 0
0.206836 0.300908 0
0.229221 0.301991 0
0.262318 0.302113 0.00236515
0.293767 0.304601 0.0123293
0.325841 0.308293 0.0165103
0.373709 0.307515 0.0195926
0.427832 0.306569 0.0194095
0.494118 0.303807 0.0146792
0.594537 0.292424 0.00129702
0.70074 0.278935 0
0.737499 0.273274 0
0.756252 0.267414 0
0.77499 0.262806 0
0.793744 0.260273 0
0.812497 0.259968 0
0.83125 0.261921 0
0.850004 0.265354 0
0.868742 0.269718 0
0.887495 0.274754 0
0.906249 0.280552 0
0.925002 0.28661 0
0.943755 0.290532 0
0.962493 0.294667 0
0.981247 0.298817 0
1 0.30312 0
0.0634775 0.327855 0
0.0835126 0.329458 0
0.103593 0.331121 0
0.123842 0.332982 0
0.14403 0.334768 0
0.164111 0.336431 0
0.184222 0.338125 0
0.205127 0.34081 0
0.226169 0.343679 0
0.246769 0.345998 0
0.273915 0.346975 0.00129702
0.313878 0.347417 0.0128786
0.345266 0.351949 0.0225071
0.381949 0.356405 0.0269322
0.434256 0.357168 0.0301213
0.493767 0.357641 0.0279545
0.570794 0.353399 0.0146181
0.680278 0.341604 0
0.737499 0.334432 0
0.756252 0.328832 0
0.77499 0.323903 0
0.793744 0.321035 0
0.812497 0.320058 0
0.83125 0.32166 0
0.850004 0.325063 0
0.868742 0.329946 0
0.887495 0.335683 0
0.906249 0.342 0
0.925002 0.349081 0
0.943755 0.354788 0
0.962493 0.359533 0
0.981247 0.364279 0
1 0.368551 0
0.0835584 0.371664 0
0.104143 0.373983 0
0.124743 0.376303 0
0.145403 0.378683 0
0.166064 0.381079 0
0.186526 0.383246 0
0.206897 0.385245 0
0.228229 0.388418 0
0.250004 0.392142 0
0.271595 0.395636 0
0.292897 0.397467 0.000167849
0.330419 0.397177 0.00903334
0.374273 0.398733 0.0259251
0.404349 0.406119 0.0341955
0.44596 0.411063 0.0387427
0.502174 0.412436 0.0404212
0.565744 0.41207 0.0320134
0.65507 0.405921 0.00578317
0.736873 0.398016 0
0.756252 0.39266 0
0.77499 0.387594 0
0.793744 0.384649 0
0.812497 0.383658 0
0.83125 0.384833 0
0.850004 0.388754 0
0.868742 0.394018 0
0.887495 0.40029 0
0.906249 0.406851 0
0.925002 0.41442 0
0.943755 0.421927 0
0.962493 0.426825 0
0.981247 0.431312 0
1 0.435874 0
0.108598 0.421393 0
0.129641 0.424216 0
0.150851 0.427146 0
0.17229 0.43035 0
0.193652 0.433478 0
0.214725 0.43624 0
0.235325 0.438437 0
0.256458 0.441276 0
0.278645 0.445365 0
0.300923 0.449607 0
0.321721 0.45211 0
0.349752 0.452171 0.0021973
0.398337 0.451225 0.0209812
0.439628 0.454429 0.0392309
0.468071 0.462806 0.0457465
0.514412 0.466651 0.0491646
0.571923 0.467765 0.046067
0.642237 0.466636 0.0233921
0.729458 0.462089 0.00030518
0.756252 0.458427 0
0.77499 0.4542 0
0.793744 0.451423 0
0.812497 0.450217 0
0.83125 0.45156 0
0.850004 0.455116 0
0.868742 0.460319 0
0.887495 0.466346 0
0.906249 0.473091 0
0.925002 0.479942 0
0.943755 0.487724 0
0.962493 0.493004 0
0.981247 0.497337 0
1 0.501671 0
0.138491 0.476219 0
0.159915 0.479545 0
0.181415 0.482979 0
0.203006 0.486503 0
0.224521 0.489921 0
0.245502 0.492866 0
0.266209 0.495689 0
0.286503 0.497902 0
0.308476 0.502449 0
0.330434 0.506981 0
0.351553 0.510384 0
0.371481 0.511086 0
0.417777 0.506966 0.00265507
0.470741 0.505821 0.0310674
0.506157 0.511406 0.0489509
0.535836 0.519921 0.0544442
0.583215 0.523964 0.054551
0.644556 0.525109 0.0382849
0.718105 0.524193 0.00683604
0.756252 0.522591 0
0.77499 0.520409 0
0.793744 0.517708 0
0.812497 0.516808 0
0.83125 0.517815 0
0.850004 0.520668 0
0.868742 0.525109 0
0.887495 0.530709 0
0.906249 0.536873 0
0.925002 0.543191 0
0.943755 0.549737 0
0.962493 0.556146 0
0.981247 0.559945 0
1 0.563378 0
0.16846 0.53579 0
0.18996 0.539818 0
0.211551 0.544076 0
0.233158 0.548333 0
0.25452 0.552239 0
0.275654 0.555795 0
0.2963 0.558633 0
0.31632 0.560525 0
0.337804 0.564355 0
0.359884 0.568811 0
0.381918 0.573083 0
0.402121 0.574838 0
0.435447 0.571023 0
0.499046 0.563821 0.00282292
0.545419 0.563485 0.0315404
0.573281 0.57116 0.0505837
0.604288 0.57937 0.052781
0.654871 0.583062 0.0404822
0.717556 0.583932 0.0132296
0.756252 0.583444 0
0.77499 0.583078 0
0.793744 0.580911 0
0.812497 0.580072 0
0.83125 0.580789 0
0.850004 0.582757 0
0.868742 0.586511 0
0.887495 0.591257 0
0.906249 0.596399 0
0.925002 0.601572 0
0.943755 0.606622 0
0.962493 0.61207 0
0.981247 0.616083 0
1 0.618784 0
0.201328 0.600488 0
0.223468 0.604608 0
0.245594 0.608728 0
0.267536 0.612604 0
0.289494 0.616495 0
0.311192 0.619348 0
0.33257 0.621668 0
0.353033 0.623194 0
0.374212 0.625559 0
0.396994 0.629618 0
0.420523 0.633844 0
0.441962 0.636133 0
0.461204 0.635248 0
0.523186 0.627024 0
0.580652 0.621515 0.00172427
0.616632 0.623285 0.0156863
0.640955 0.631144 0.0299229
0.674266 0.638056 0.0251926
0.725841 0.640101 0.00799573
0.756252 0.639551 0
0.77499 0.63975 0
0.793744 0.63859 0
0.812497 0.637644 0
0.83125 0.637812 0
0.850004 0.638956 0
0.868742 0.641505 0
0.887495 0.644938 0
0.906249 0.648905 0
0.925002 0.65301 0
0.943755 0.656992 0
0.962493 0.661067 0
0.981247 0.665125 0
1 0.667216 0
0.242069 0.659968 0
0.264607 0.663264 0
0.286854 0.666194 0
0.309102 0.669108 0
0.33135 0.672038 0
0.353262 0.674678 0
0.37464 0.676875 0
0.395026 0.678248 0
0.41561 0.679774 0
0.438727 0.683375 0
0.462074 0.68716 0
0.483467 0.689342 0
0.502113 0.689265 0
0.543618 0.68423 0
0.605539 0.677989 0
0.652979 0.675578 0
0.682139 0.679225 0.000213626
0.705318 0.686366 0.00207523
0.735195 0.690166 0.000823987
0.756252 0.689998 0
0.77499 0.689113 0
0.793744 0.688472 0
0.812497 0.687434 0
0.83125 0.687205 0
0.850004 0.6878 0
0.868742 0.689525 0
0.887495 0.691981 0
0.906249 0.694835 0
0.925002 0.697917 0
0.943755 0.700954 0
0.962493 0.703899 0
0.981247 0.706752 0
1 0.708904 0
0.281056 0.71136 0
0.303227 0.714199 0
0.325185 0.716854 0
0.347463 0.719768 0
0.369635 0.722606 0
0.391318 0.725017 0
0.411246 0.726009 0
0.430625 0.726528 0
0.449943 0.726986 0
0.471443 0.729274 0
0.492012 0.730785 0
0.511818 0.731655 0
0.529793 0.731029 0
0.558343 0.728557 0
0.619715 0.722927 0
0.672206 0.720165 0
0.699931 0.72134 0
0.718746 0.727199 0
0.737499 0.732647 0
0.756252 0.734371 0
0.77499 0.733349 0
0.793744 0.73225 0
0.812497 0.731136 0
0.83125 0.730632 0
0.850004 0.730724 0
0.868742 0.731624 0
0.887495 0.73315 0
0.906249 0.735164 0
0.925002 0.737362 0
0.943755 0.739651 0
0.962493 0.741909 0
0.981247 0.74406 0
1 0.746151 0
0.304799 0.749783 0
0.324742 0.750774 0
0.344778 0.751827 0
0.363638 0.751919 0
0.382376 0.751919 0
0.401129 0.751919 0
0.419883 0.751919 0
0.438636 0.751919 0
0.457389 0.751919 0
0.476127 0.751919 0
0.494881 0.751919 0
0.513634 0.751919 0
0.532387 0.751919 0
0.558679 0.751019 0
0.618433 0.747005 0
0.673823 0.745586 0
0.699992 0.747829 0
0.718746 0.755001 0
0.737499 0.763668 0
0.756252 0.768627 0
0.77499 0.770291 0
0.793744 0.770123 0
0.812497 0.769314 0
0.83125 0.768582 0
0.850004 0.768154 0
0.868742 0.768246 0
0.887495 0.768856 0
0.906249 0.769848 0
0.925002 0.770916 0
0.943755 0.771908 0
0.962493 0.772808 0
0.981247 0.773617 0
1 0.774304 0
0.307393 0.770672 0
0.326131 0.770672 0
0.344884 0.770672 0
0.363638 0.770672 0
0.382376 0.770672 0
0.401129 0.770672 0
0.419883 0.770672 0
0.438636 0.770672 0
0.457389 0.770672 0
0.476127 0.770672 0
0.494881 0.770672 0
0.513634 0.770672 0
0.532387 0.770672 0
0.557336 0.769924 0
0.615518 0.765957 0
0.671336 0.764401 0
0.699992 0.766339 0
0.718746 0.773144 0
0.737499 0.782208 0
0.756252 0.788785 0
0.77499 0.792508 0
0.793744 0.794125 0
0.812497 0.794614 0
0.83125 0.794644 0
0.850004 0.794644 0
0.868742 0.794644 0
0.887495 0.794644 0
0.906249 0.794644 0
0.925002 0.794598 0
0.943755 0.794553 0
0.962493 0.794553 0
0.981247 0.794598 0
1 0.794644 0
0.307393 0.789425 0
0.326131 0.789425 0
0.344884 0.789425 0
0.363638 0.789425 0
0.382376 0.789425 0
0.401129 0.789425 0
0.419883 0.789425 0
0.438636 0.789425 0
0.457389 0.789425 0
0.476127 0.789425 0
0.494881 0.789425 0
0.513634 0.789425 0
0.532387 0.789425 0
0.556878 0.788724 0
0.614633 0.784787 0
0.670451 0.783139 0
0.699992 0.784909 0
0.718746 0.791333 0
0.737499 0.80029 0
0.756252 0.807004 0
0.77499 0.810956 0
0.793744 0.812711 0
0.812497 0.813321 0
0.83125 0.813397 0
0.850004 0.813397 0
0.868742 0.813397 0
0.887495 0.813397 0
0.906249 0.813397 0
0.925002 0.813397 0
0.943755 0.813397 0
0.962493 0.813397 0
0.981247 0.813397 0
1 0.813397 0
0.307393 0.808179 0
0.326131 0.808179 0
0.344884 0.808179 0
0.363638 0.808179 0
0.382376 0.808179 0
0.401129 0.808179 0
0.419883 0.808179 0
0.438636 0.808179 0
0.457389 0.808179 0
0.476127 0.808179 0
0.494881 0.808179 0
0.513634 0.808179 0
0.532387 0.808179 0
0.55903 0.807218 0
0.616876 0.803403 0
0.671717 0.801862 0
0.699992 0.803677 0
0.718746 0.809979 0
0.737499 0.818723 0
0.756252 0.825467 0
0.77499 0.829496 0
0.793744 0.831342 0
0.812497 0.832029 0
0.83125 0.832135 0
0.850004 0.832151 0
0.868742 0.832151 0
0.887495 0.832151 0
0.906249 0.832151 0
0.925002 0.832151 0
0.943755 0.832151 0
0.962493 0.832151 0
0.981247 0.832151 0
1 0.832151 0
0.307393 0.826932 0
0.326131 0.826932 0
0.344884 0.826932 0
0.363638 0.826932 0
0.382376 0.826932 0
0.401129 0.826932 0
0.419883 0.826932 0
0.438636 0.826932 0
0.457389 0.826932 0
0.476127 0.826932 0
0.494881 0.826932 0
0.513634 0.826932 0
0.532387 0.826932 0
0.564675 0.825315 0
0.622141 0.82182 0
0.674861 0.8206 0
0.699992 0.822705 0
0.718746 0.829114 0
0.737499 0.837674 0
0.756252 0.844221 0
0.77499 0.848173 0
0.793744 0.850034 0
0.812497 0.850736 0
0.83125 0.850889 0
0.850004 0.850889 0
0.868742 0.850889 0
0.887495 0.850889 0
0.906249 0.850889 0
0.925002 0.850889 0
0.943755 0.850889 0
0.962493 0.850889 0
0.981247 0.850889 0
1 0.850889 0
0.307393 0.84567 0
0.326131 0.84567 0
0.344884 0.84567 0
0.363638 0.84567 0
0.382376 0.84567 0
0.401129 0.84567 0
0.419883 0.84567 0
0.438636 0.84567 0
0.457389 0.84567 0
0.476127 0.84567 0
0.494881 0.84567 0
0.513634 0.84567 0
0.532387 0.84567 0
0.573129 0.843168 0
0.629755 0.840146 0
0.678935 0.839384 0
0.699992 0.841993 0
0.718746 0.848661 0
0.737499 0.856916 0
0.756252 0.863172 0
0.77499 0.866972 0
0.793744 0.868788 0
0.812497 0.86949 0
0.83125 0.869627 0
0.850004 0.869642 0
0.868742 0.869642 0
0.887495 0.869642 0
0.906249 0.869642 0
0.925002 0.869642 0
0.943755 0.869642 0
0.962493 0.869642 0
0.981247 0.869642 0
1 0.869642 0
0.307393 0.864424 0
0.326131 0.864424 0
0.344884 0.864424 0
0.363638 0.864424 0
0.382376 0.864424 0
0.401129 0.864424 0
0.419883 0.864424 0
0.438636 0.864424 0
0.457389 0.864424 0
