datas/cubes/TC - INTREPID_40.cube
TITLE "Generate by Resolve"
LUT_3D_SIZE 9
0.00732433 0.0174563 0.0281071
0.10367 0.0147097 0.024979
0.213245 0.00991836 0.0174716
0.362188 0 0.00230411
0.65069 0 0
0.77499 0 0
0.850004 0 0
0.925002 0 0
1 0 0
0.00030518 0.106554 0.0208286
0.0936294 0.104707 0.018204
0.205829 0.0982071 0.0140383
0.361975 0.0804761 0.00256352
0.652537 0.0749981 0
0.77499 0.0749981 0
0.850004 0.0749981 0
0.925002 0.0749981 0
1 0.0749981 0
0 0.201022 0.0122683
0.0795148 0.202258 0.00981155
0.187579 0.200412 0.00703441
0.36347 0.181659 0.00302129
0.639429 0.150713 0
0.77499 0.149996 0
0.850004 0.149996 0
0.925002 0.149996 0
1 0.149996 0
0 0.323796 0
0.0749981 0.332158 0
0.155276 0.34493 0
0.331258 0.346532 0.00117494
0.602472 0.328817 0
0.77499 0.31339 0
0.850004 0.304509 0
0.925002 0.308736 0
1 0.32842 0
0 0.527611 0
0.0749981 0.551583 0
0.149996 0.568841 0
0.293278 0.573556 0.00369268
0.554757 0.562921 0
0.77499 0.558526 0
0.850004 0.555413 0
0.925002 0.561349 0
1 0.579782 0
0 0.773709 0
0.0749981 0.77499 0
0.149996 0.77499 0
0.232166 0.77499 0
0.490181 0.773114 0
0.750866 0.753811 0
0.850004 0.749523 0
0.925002 0.750454 0
1 0.754894 0
0 0.850004 0
0.0749981 0.850004 0
0.149996 0.850004 0
0.23093 0.850004 0
0.439933 0.850004 0
0.727794 0.850004 0
0.850004 0.850004 0
0.925002 0.850004 0
1 0.850004 0
0 0.925002 0
0.0749981 0.925002 0
0.149996 0.925002 0
0.233829 0.925002 0
0.436454 0.925002 0
0.72105 0.925002 0
0.850004 0.925002 0
0.925002 0.925002 0
1 0.925002 0
0 1 0
0.0749981 1 0
0.149996 1 0
0.240421 1 0
0.447044 1 0
0.720211 1 0
0.850004 1 0
0.925002 1 0
1 1 0
0.00717174 0.0157473 0.127367
0.101701 0.0135195 0.125597
0.212497 0.00885023 0.112505
0.36257 0 0.084123
0.650233 0 0.0749981
0.77499 0 0.0749981
0.850004 0 0.0749981
0.925002 0 0.0749981
1 0 0.0749981
6.10361e-05 0.107088 0.108415
0.0929732 0.103395 0.116091
0.206363 0.0970321 0.107744
0.363699 0.079942 0.084062
0.653452 0.0749981 0.0749981
0.77499 0.0749981 0.0749981
0.850004 0.0749981 0.0749981
0.925002 0.0749981 0.0749981
1 0.0749981 0.0749981
0 0.200717 0.10016
0.0793927 0.202365 0.0991379
0.187945 0.201129 0.0956893
0.369711 0.182055 0.0847334
0.640848 0.150683 0.0749981
0.77499 0.149996 0.0749981
0.850004 0.149996 0.0749981
0.925002 0.149996 0.0749981
1 0.149996 0.0749981
0 0.32636 0.0749981
0.0749981 0.336065 0.0754101
0.156374 0.350668 0.076051
0.337331 0.35259 0.0791485
0.610025 0.335241 0.0749981
0.77499 0.319585 0.0749981
0.850004 0.310262 0.0749981
0.925002 0.315633 0.0749981
1 0.33579 0.0749981
0 0.535546 0.0749981
0.0749981 0.560037 0.0749981
0.149996 0.577157 0.0749981
0.298238 0.580743 0.0787823
0.562066 0.569848 0.0749981
0.77499 0.56611 0.0749981
0.850004 0.562036 0.0749981
0.925002 0.567895 0.0749981
1 0.586572 0.0749981
0 0.77499 0.0749981
0.0749981 0.77499 0.0749981
0.149996 0.77499 0.0749981
0.235294 0.77499 0.0749981
0.495415 0.77438 0.0749981
0.753933 0.75671 0.0749981
0.850004 0.752163 0.0749981
0.925002 0.752499 0.0749981
1 0.756939 0.0749981
0 0.850004 0.0749981
0.0749981 0.850004 0.0749981
0.149996 0.850004 0.0749981
0.232654 0.850004 0.0749981
0.445212 0.850004 0.0749981
0.730083 0.850004 0.0749981
0.850004 0.850004 0.0749981
0.925002 0.850004 0.0749981
1 0.850004 0.0749981
0 0.925002 0.0749981
0.0749981 0.925002 0.0749981
0.149996 0.925002 0.0749981
0.234867 0.925002 0.0749981
0.439185 0.925002 0.0749981
0.722026 0.925002 0.0749981
0.850004 0.925002 0.0749981
0.925002 0.925002 0.0749981
1 0.925002 0.0749981
0 1 0.0749981
0.0749981 1 0.0749981
0.149996 1 0.0749981
0.240391 1 0.0749981
0.44744 1 0.0749981
0.720607 1 0.0749981
0.850004 1 0.0749981
0.925002 1 0.0749981
1 1 0.0749981
0.00712596 0.0132753 0.237995
0.0974594 0.0116121 0.241917
0.204273 0.00790417 0.231891
0.362325 0 0.186053
0.628122 0 0.149996
0.77499 0 0.149996
0.850004 0 0.149996
0.925002 0 0.149996
1 0 0.149996
0.00317388 0.101091 0.232151
0.0920577 0.0996872 0.237736
0.201129 0.0945602 0.232288
0.365896 0.0779431 0.186389
0.633433 0.0749981 0.150011
0.77499 0.0749981 0.149996
0.850004 0.0749981 0.149996
0.925002 0.0749981 0.149996
1 0.0749981 0.149996
0 0.200671 0.197101
0.0782788 0.201801 0.204379
0.186892 0.199481 0.216785
0.382406 0.179477 0.188006
0.619043 0.15523 0.156573
0.77499 0.149996 0.149996
0.850004 0.149996 0.149996
0.925002 0.149996 0.149996
1 0.149996 0.149996
0 0.329366 0.16878
0.0749981 0.340475 0.172824
0.154986 0.357748 0.175814
0.343694 0.360113 0.173098
0.60354 0.345235 0.175128
0.77499 0.324483 0.154864
0.850004 0.3149 0.150469
0.925002 0.321431 0.153231
1 0.342336 0.160296
0 0.540856 0.149996
0.0749981 0.564309 0.150484
0.149996 0.580346 0.151965
0.306676 0.585412 0.169635
0.566796 0.574899 0.15407
0.77499 0.571237 0.149996
0.850004 0.567102 0.149996
0.925002 0.573068 0.149996
1 0.590509 0.149996
0 0.77499 0.149996
0.0749981 0.77499 0.149996
0.149996 0.77499 0.149996
0.237232 0.77499 0.149996
0.497414 0.77499 0.149996
0.755367 0.758709 0.149996
0.850004 0.75375 0.149996
0.925002 0.75375 0.149996
1 0.7579 0.149996
0 0.850004 0.149996
0.0749981 0.850004 0.149996
0.149996 0.850004 0.149996
0.232792 0.850004 0.149996
0.446479 0.850004 0.149996
0.730236 0.850004 0.149996
0.850004 0.850004 0.149996
0.925002 0.850004 0.149996
1 0.850004 0.149996
0 0.925002 0.149996
0.0749981 0.925002 0.149996
0.149996 0.925002 0.149996
0.234592 0.925002 0.149996
0.437705 0.925002 0.149996
0.720836 0.925002 0.149996
0.850004 0.925002 0.149996
0.925002 0.925002 0.149996
1 0.925002 0.149996
0 1 0.149996
0.0749981 1 0.149996
0.149996 1 0.149996
0.239094 1 0.149996
0.443809 1 0.149996
0.718471 1 0.149996
0.850004 1 0.149996
0.925002 1 0.149996
1 1 0.149996
0.00262455 0.00588998 0.420111
0.0893721 0.00582895 0.414832
0.187762 0.00460822 0.405951
0.345296 0 0.366354
0.592004 0 0.317037
0.77499 0 0.291249
0.850004 0 0.258305
0.925002 0 0.247028
1 0 0.241749
0.00213626 0.0914931 0.411414
0.0876783 0.09131 0.410269
0.186816 0.0890669 0.406943
0.347768 0.0754559 0.369284
0.602167 0.0749981 0.324819
0.77499 0.0749981 0.306691
0.850004 0.0749981 0.281178
0.925002 0.0749981 0.279301
1 0.0749981 0.29279
0.00149538 0.187259 0.395468
0.0831311 0.189044 0.400793
0.184237 0.190127 0.412329
0.367391 0.174151 0.392233
0.596811 0.156069 0.339635
0.77499 0.149996 0.33756
0.850004 0.149996 0.322621
0.925002 0.149996 0.330282
1 0.149996 0.359319
0 0.329778 0.308461
0.0749981 0.342367 0.317571
0.152789 0.358755 0.334615
0.34081 0.357107 0.384619
0.611093 0.342931 0.354711
0.77499 0.333303 0.341039
0.850004 0.322683 0.330587
0.925002 0.330632 0.340032
1 0.35433 0.364431
0 0.539208 0.304311
0.0749981 0.560693 0.321035
0.149996 0.575662 0.334615
0.304967 0.587518 0.341054
0.570459 0.575708 0.317342
0.770809 0.576776 0.304585
0.850004 0.572778 0.282734
0.925002 0.57818 0.287388
1 0.594141 0.306127
0 0.773709 0.245563
0.0749981 0.77499 0.257969
0.149996 0.77499 0.267384
0.261326 0.77499 0.29102
0.549462 0.764385 0.308782
0.751064 0.753582 0.239399
0.850004 0.751064 0.224994
0.925002 0.75079 0.224994
1 0.754116 0.224994
0 0.850004 0.252827
0.0749981 0.850004 0.260563
0.149996 0.850004 0.265843
0.2318 0.850004 0.260868
0.454551 0.850004 0.241825
0.726024 0.850004 0.224994
0.850004 0.850004 0.224994
0.925002 0.850004 0.224994
1 0.850004 0.224994
0 0.925002 0.259541
0.0749981 0.925002 0.266926
0.149996 0.925002 0.269749
0.23212 0.925002 0.259846
0.434028 0.925002 0.235096
0.71458 0.925002 0.224994
0.850004 0.925002 0.224994
0.925002 0.925002 0.224994
1 0.925002 0.224994
0 1 0.273594
0.0749981 1 0.277302
0.149996 1 0.276448
0.234943 1 0.263264
0.438605 1 0.235386
0.70985 1 0.224994
0.849195 1 0.224994
0.925002 1 0.224994
1 1 0.224994
0 0 0.699992
0.0770275 0 0.699992
0.18233 0 0.699992
0.360952 0 0.652491
0.61239 0 0.611063
0.77499 0 0.607095
0.850004 0 0.582361
0.925002 0 0.570489
1 0 0.565057
0 0.0758526 0.699992
0.0755169 0.0756542 0.699992
0.177523 0.0751354 0.699214
0.361135 0.0749981 0.65066
0.624353 0.0749981 0.621561
0.77499 0.0749981 0.619715
0.850004 0.0749981 0.605707
0.925002 0.0749981 0.605692
1 0.0749981 0.616144
0 0.171679 0.699992
0.0749981 0.17348 0.699275
0.172717 0.175723 0.679316
0.348562 0.166995 0.624781
0.61294 0.149996 0.610513
0.77499 0.149996 0.646006
0.850004 0.149996 0.637705
0.925002 0.149996 0.642451
1 0.149996 0.659831
0 0.314229 0.609262
0.0749981 0.328695 0.626886
0.157671 0.343374 0.625727
0.342733 0.34963 0.622324
0.606607 0.335744 0.609003
0.77499 0.332403 0.623835
0.850004 0.321675 0.622309
0.925002 0.329976 0.62771
1 0.353536 0.638315
0 0.543755 0.502602
0.0749981 0.566949 0.524605
0.149996 0.582879 0.540749
0.294972 0.585946 0.565591
0.566064 0.567376 0.58349
0.766079 0.568597 0.575494
0.850004 0.568826 0.575341
0.925002 0.573022 0.579995
1 0.586038 0.592386
0 0.766751 0.526726
0.0749981 0.77499 0.551278
0.149996 0.77499 0.571878
0.27779 0.774929 0.591424
0.543633 0.753079 0.565148
0.739055 0.737743 0.535744
0.845563 0.736049 0.537804
0.920623 0.735637 0.536797
0.995605 0.737667 0.542351
0 0.850004 0.501762
0.0749981 0.850004 0.525444
0.149996 0.850004 0.541894
0.231235 0.850004 0.529015
0.537896 0.850004 0.562387
0.732448 0.849683 0.534707
0.848783 0.849134 0.497459
0.925002 0.848173 0.484428
1 0.847623 0.481132
0 0.925002 0.5205
0.0749981 0.925002 0.541955
0.149996 0.925002 0.549722
0.23006 0.925002 0.520745
0.522255 0.925002 0.547112
0.726452 0.925002 0.516228
0.847074 0.925002 0.44625
0.925002 0.925002 0.410666
1 0.925002 0.397299
0 1 0.558618
0.0749981 1 0.569207
0.149996 1 0.56669
0.23267 1 0.531304
0.522057 1 0.546746
0.722423 1 0.504158
0.844465 1 0.417929
0.925002 1 0.367987
1 1 0.353704
0 0 0.77499
0.0749981 0 0.77499
0.173617 0 0.77499
0.37882 0 0.77499
0.632074 0 0.77499
0.77499 0 0.77499
0.850004 0 0.771298
0.925002 0 0.769009
1 0 0.768032
0 0.0749981 0.77499
0.0749981 0.0749981 0.77499
0.170871 0.0749981 0.77499
0.384268 0.0749981 0.77499
0.638849 0.0749981 0.77499
0.77499 0.0749981 0.77499
0.850004 0.0749981 0.77499
0.925002 0.0749981 0.77499
1 0.0749981 0.77499
0 0.16405 0.77499
0.0749981 0.166247 0.77499
0.163561 0.166278 0.77499
0.378363 0.15021 0.77499
0.657435 0.149996 0.77499
0.77499 0.149996 0.77499
0.850004 0.149996 0.77499
0.925002 0.149996 0.77499
1 0.149996 0.77499
0 0.31165 0.77499
0.0749981 0.327947 0.77499
0.149996 0.342031 0.77499
0.337743 0.345113 0.77499
0.616724 0.330327 0.774746
0.77499 0.315724 0.77499
0.850004 0.305959 0.77499
0.925002 0.313497 0.77499
1 0.33753 0.77499
0 0.551019 0.770535
0.0749981 0.574685 0.771618
0.149996 0.590478 0.77377
0.279026 0.585763 0.774395
0.568063 0.566125 0.760418
0.767559 0.56492 0.762539
0.850004 0.56582 0.763272
0.925002 0.569451 0.764675
1 0.582391 0.767819
0 0.771847 0.74667
0.0749981 0.77499 0.762493
0.149996 0.77499 0.773129
0.229938 0.77499 0.771405
0.530663 0.751003 0.742535
0.735592 0.729686 0.733547
0.850004 0.726268 0.728573
0.925002 0.725567 0.728222
1 0.727321 0.729992
0 0.850004 0.77496
0.0749981 0.850004 0.77499
0.149996 0.850004 0.77499
0.224994 0.850004 0.77499
0.536446 0.850004 0.752377
0.718547 0.847379 0.720027
0.844831 0.841672 0.710933
0.92343 0.839063 0.709133
0.998367 0.837919 0.70782
0 0.925002 0.77499
0.0749981 0.925002 0.77499
0.149996 0.925002 0.77499
0.224994 0.925002 0.77499
0.52134 0.925002 0.749294
0.713787 0.925002 0.715587
0.838926 0.925002 0.705791
0.922942 0.925002 0.704646
0.997894 0.925002 0.702419
0 1 0.77499
0.0749981 1 0.77499
0.149996 1 0.77499
0.224994 1 0.77499
0.517388 1 0.74844
0.709377 1 0.711482
0.83331 1 0.698604
0.922789 1 0.697032
0.997818 1 0.694041
0 0 0.850004
0.0749981 0 0.850004
0.167819 0 0.850004
0.364187 0 0.850004
0.624048 0 0.850004
0.77499 0 0.850004
0.850004 0 0.850004
0.925002 0 0.850004
1 0 0.850004
0 0.0749981 0.850004
0.0749981 0.0749981 0.850004
0.166415 0.0749981 0.850004
0.372595 0.0749981 0.850004
0.633097 0.0749981 0.850004
0.77499 0.0749981 0.850004
0.850004 0.0749981 0.850004
0.925002 0.0749981 0.850004
1 0.0749981 0.850004
0 0.160403 0.850004
0.0749981 0.162982 0.850004
0.159899 0.163348 0.850004
0.371344 0.149996 0.850004
0.653742 0.149996 0.850004
0.77499 0.149996 0.850004
0.850004 0.149996 0.850004
0.925002 0.149996 0.850004
1 0.149996 0.850004
0 0.308232 0.850004
0.0749981 0.324727 0.850004
0.149996 0.338552 0.850004
0.332738 0.34226 0.850004
0.614343 0.327199 0.850004
0.77499 0.312245 0.850004
0.850004 0.302968 0.850004
0.925002 0.311666 0.850004
1 0.335943 0.850004
0 0.547829 0.850004
0.0749981 0.570581 0.850004
0.149996 0.587366 0.850004
0.265766 0.587518 0.850004
0.567437 0.566491 0.846296
0.766705 0.565621 0.850004
0.850004 0.566247 0.850004
0.925002 0.569421 0.850004
1 0.58143 0.850004
0 0.774975 0.847807
0.0749981 0.77499 0.849073
0.149996 0.77499 0.850004
0.224994 0.77499 0.850004
0.52813 0.751141 0.849424
0.734173 0.728191 0.850004
0.850004 0.724346 0.849989
0.925002 0.72343 0.849577
1 0.724788 0.850004
0 0.850004 0.850004
0.0749981 0.850004 0.850004
0.149996 0.850004 0.850004
0.224994 0.850004 0.850004
0.503304 0.850004 0.850004
0.713405 0.846632 0.84094
0.845548 0.837964 0.839658
0.925002 0.834638 0.836423
1 0.833097 0.835081
0 0.925002 0.850004
0.0749981 0.925002 0.850004
0.149996 0.925002 0.850004
0.224994 0.925002 0.850004
0.479759 0.925002 0.850004
0.709911 0.925002 0.840818
0.833722 0.925002 0.827787
0.924681 0.925002 0.822965
0.999634 0.924804 0.820478
0 1 0.850004
0.0749981 1 0.850004
0.149996 1 0.850004
0.224994 1 0.850004
0.470802 1 0.850004
0.70425 1 0.837095
0.825879 1 0.820539
0.924117 1 0.815167
0.999344 1 0.812619
0 0 0.925002
0.0749981 0 0.925002
0.164828 0 0.925002
0.356207 0 0.925002
0.619699 0 0.925002
0.77499 0 0.925002
0.850004 0 0.925002
0.925002 0 0.925002
1 0 0.925002
0 0.0749981 0.925002
0.0749981 0.0749981 0.925002
0.164187 0.0749981 0.925002
0.367086 0.0749981 0.925002
0.6309 0.0749981 0.925002
0.77499 0.0749981 0.925002
0.850004 0.0749981 0.925002
0.925002 0.0749981 0.925002
1 0.0749981 0.925002
0 0.158984 0.925002
0.0749981 0.161852 0.925002
0.158953 0.162875 0.925002
0.37084 0.150317 0.925002
0.6542 0.149996 0.925002
0.77499 0.149996 0.925002
0.850004 0.149996 0.925002
0.925002 0.149996 0.925002
1 0.149996 0.925002
0 0.308873 0.925002
0.0749981 0.326101 0.925002
0.149996 0.340291 0.925002
0.3337 0.344411 0.925002
0.614466 0.329335 0.925002
0.77499 0.314366 0.925002
0.850004 0.306111 0.925002
0.925002 0.316304 0.925002
1 0.341588 0.925002
0 0.550546 0.925002
0.0749981 0.573114 0.925002
0.149996 0.590158 0.925002
0.266514 0.590204 0.925002
0.568765 0.568765 0.921202
0.767208 0.56762 0.925002
0.850004 0.567956 0.925002
0.925002 0.571389 0.925002
1 0.582849 0.925002
0 0.774578 0.922896
0.0749981 0.77499 0.924453
0.149996 0.77499 0.925002
0.224994 0.77499 0.925002
0.527779 0.751797 0.924147
0.733822 0.728435 0.925002
0.850004 0.72433 0.924987
0.925002 0.723156 0.925002
1 0.724361 0.925002
0 0.850004 0.925002
0.0749981 0.850004 0.925002
0.149996 0.850004 0.925002
0.224994 0.850004 0.925002
0.496788 0.850004 0.925002
0.710597 0.847028 0.916259
0.844617 0.836805 0.925002
0.925002 0.833188 0.925002
1 0.831418 0.925002
0 0.925002 0.925002
0.0749981 0.925002 0.925002
0.149996 0.925002 0.925002
0.224994 0.925002 0.925002
0.462135 0.925002 0.925002
0.707439 0.925002 0.920287
0.831128 0.925002 0.9243
0.924987 0.924819 0.92459
1 0.924269 0.92401
0 1 0.925002
0.0749981 1 0.925002
0.149996 1 0.925002
0.224994 1 0.925002
0.446616 1 0.925002
0.70164 1 0.920134
0.823163 1 0.923583
0.924453 1 0.922042
1 1 0.920562
0 0 1
0.0749981 0 1
0.163989 0 1
0.352361 0 1
0.616678 0 1
0.77499 0 1
0.850004 0 1
0.925002 0 1
1 0 1
0 0.0749981 1
0.0749981 0.0749981 1
0.16408 0.0749981 1
0.367025 0.0749981 1
0.63093 0.0749981 1
0.77499 0.0749981 1
0.850004 0.0749981 1
0.925002 0.0749981 1
1 0.0749981 1
0 0.159396 1
0.0749981 0.16289 1
0.160845 0.164874 1
0.376242 0.151751 1
0.658457 0.149996 1
0.77499 0.149996 1
0.850004 0.149996 1
0.925002 0.149996 1
1 0.149996 1
0 0.312505 1
0.0749981 0.331594 1
0.149996 0.347433 1
0.340429 0.350851 1
0.618402 0.33579 1
0.77499 0.321401 1
0.850004 0.312917 1
0.925002 0.324819 1
1 0.349981 1
0 0.555261 1
0.0749981 0.579263 1
0.149996 0.59704 1
0.272755 0.596307 1
0.574273 0.57406 0.996033
0.768826 0.572778 1
0.850004 0.571771 1
0.925002 0.575463 1
1 0.58584 1
0 0.77499 0.998077
0.0749981 0.77499 1
0.149996 0.77499 1
0.224994 0.77499 1
0.530419 0.753368 0.998184
0.734768 0.729549 1
0.850004 0.724987 1
0.925002 0.723659 1
1 0.724727 1
0 0.850004 1
0.0749981 0.850004 1
0.149996 0.850004 1
0.224994 0.850004 1
0.497795 0.850004 1
0.710323 0.846952 0.991379
0.84416 0.836515 1
0.925002 0.832792 1
1 0.830884 1
0 0.925002 1
0.0749981 0.925002 1
0.149996 0.925002 1
0.224994 0.925002 1
0.460243 0.925002 1
0.706676 0.925002 0.99527
0.829831 0.925002 0.999176
0.924956 0.924681 1
1 0.924056 1
0 1 1
0.0749981 1 1
0.149996 1 1
0.224994 1 1
0.443076 1 1
0.70042 1 0.995117
0.821378 1 0.998566
0.924178 1 1
1 1 1
