datas/cubes/TC - SELECT_20.cube
TITLE "Generate by Resolve"
LUT_3D_SIZE 9
0.00177005 0.00227359 0.00494392
0.128161 0 0.00222782
0.253986 0.00239567 0.0030518
0.403433 0.002533 0.00373846
0.6 0 0
0.699992 0 0
0.8 0 0
0.899992 0 0
1 0 0
0 0.121294 0.00355535
0.120424 0.117769 9.15541e-05
0.252277 0.113619 0.00415045
0.393622 0.108659 0.00627146
0.6 0.0999924 0
0.699992 0.0999924 0
0.8 0.0999924 0
0.899992 0.0999924 0
1 0.0999924 0
0.000198367 0.246921 0.0117647
0.103487 0.246769 0.00961318
0.246937 0.242023 0.00518807
0.389685 0.23772 0.0154269
0.583368 0.222232 0.000198367
0.699992 0.20972 0
0.8 0.202792 0
0.899992 0.201724 0
1 0.202441 0
0.00880446 0.380774 0.0266423
0.108904 0.381292 0.0268406
0.227588 0.383383 0.0228275
0.387137 0.377935 0.0231632
0.548043 0.373175 0.0195773
0.699992 0.359319 0
0.8 0.35169 0
0.899992 0.349844 0
1 0.351186 0
0 0.533974 0.0282902
0.0999924 0.535943 0.0275425
0.20708 0.534142 0.0301213
0.364202 0.529458 0.0312047
0.538643 0.520974 0.027039
0.699992 0.51223 0
0.8 0.505257 0
0.899992 0.502647 0
1 0.504005 0
0 0.697383 0.016495
0.0999924 0.69781 0.0167239
0.199985 0.697734 0.0166171
0.303456 0.695598 0.00546273
0.503914 0.679881 0.000396735
0.698222 0.664408 0
0.8 0.657328 0
0.899992 0.653712 0
1 0.654231 0
0 0.8 0.0199588
0.0999924 0.8 0.0199588
0.199985 0.8 0.0199588
0.299992 0.8 0.0105745
0.452827 0.8 0
0.675883 0.8 0
0.8 0.798306 0
0.899992 0.79649 0
1 0.795651 0
0 0.899992 0.0199588
0.0999924 0.899992 0.0199588
0.199985 0.899992 0.0199588
0.299992 0.899992 0.0138094
0.436332 0.899992 0
0.655726 0.899992 0
0.8 0.898329 0
0.899992 0.898314 0
1 0.898314 0
0 1 0.0199588
0.0999924 1 0.0199588
0.199985 1 0.0199588
0.299992 1 0.0149996
0.428412 1 0
0.639536 1 0
0.8 0.998428 0
0.899992 0.998306 0
1 0.998306 0
0.00181582 0.00120546 0.126467
0.126986 0 0.121904
0.254749 0.00210575 0.114275
0.400641 0.00309758 0.107881
0.6 0 0.0999924
0.699992 0 0.0999924
0.8 0 0.0999924
0.899992 0 0.0999924
1 0 0.0999924
0 0.119646 0.118303
0.118379 0.117372 0.112566
0.252552 0.112978 0.109743
0.392645 0.108476 0.107332
0.6 0.0999924 0.0999924
0.699992 0.0999924 0.0999924
0.8 0.0999924 0.0999924
0.899992 0.0999924 0.0999924
1 0.0999924 0.0999924
0.000183108 0.246494 0.113222
0.103349 0.246448 0.110903
0.246738 0.241871 0.105592
0.389654 0.237659 0.11545
0.583673 0.222232 0.100175
0.699992 0.209857 0.0999924
0.8 0.202853 0.0999924
0.899992 0.201785 0.0999924
1 0.202716 0.0999924
0.00880446 0.380774 0.126635
0.108934 0.381384 0.126864
0.227756 0.383581 0.122881
0.387457 0.378149 0.123262
0.548547 0.373419 0.119463
0.699992 0.359594 0.0999924
0.8 0.351888 0.0999924
0.899992 0.350103 0.0999924
1 0.351507 0.0999924
0 0.534417 0.128115
0.0999924 0.5364 0.127367
0.207172 0.534508 0.130022
0.364401 0.529747 0.131197
0.539055 0.521233 0.126864
0.699992 0.512505 0.0999924
0.8 0.505547 0.0999924
0.899992 0.502937 0.0999924
1 0.50425 0.0999924
0 0.697475 0.116533
0.0999924 0.697917 0.116762
0.199985 0.697841 0.11664
0.303655 0.69572 0.105379
0.50425 0.680125 0.100313
0.698405 0.664576 0.0999924
0.8 0.657465 0.0999924
0.899992 0.653788 0.0999924
1 0.654154 0.0999924
0 0.8 0.119951
0.0999924 0.8 0.119951
0.199985 0.8 0.119951
0.299992 0.8 0.110536
0.452888 0.8 0.0999924
0.675837 0.8 0.0999924
0.8 0.798306 0.0999924
0.899992 0.796185 0.0999924
1 0.795254 0.0999924
0 0.899992 0.119951
0.0999924 0.899992 0.119951
0.199985 0.899992 0.119951
0.299992 0.899992 0.113848
0.43592 0.899992 0.0999924
0.654856 0.899992 0.0999924
0.8 0.898329 0.0999924
0.899992 0.898314 0.0999924
1 0.898314 0.0999924
0 1 0.119951
0.0999924 1 0.119951
0.199985 1 0.119951
0.299992 1 0.115175
0.427573 1 0.0999924
0.637888 1 0.0999924
0.8 0.998444 0.0999924
0.899992 0.998306 0.0999924
1 0.998306 0.0999924
0.00224308 0.000183108 0.255726
0.120745 0.00108339 0.255756
0.251972 0.00244144 0.249897
0.3935 0.00520333 0.239261
0.599145 0 0.229908
0.699992 0 0.214725
0.8 0 0.203265
0.899992 0 0.200671
1 0 0.200183
0.0037995 0.116518 0.254185
0.117006 0.115145 0.254215
0.251286 0.111284 0.247852
0.388922 0.108843 0.235203
0.59855 0.0999924 0.225269
0.699992 0.0999924 0.211978
0.8 0.0999924 0.202121
0.899992 0.0999924 0.200839
1 0.0999924 0.201846
0.0043946 0.243931 0.24686
0.107652 0.243854 0.245731
0.242832 0.242191 0.236194
0.389624 0.237751 0.234333
0.567117 0.225986 0.222141
0.699992 0.209583 0.205158
0.8 0.202625 0.199985
0.899992 0.201526 0.200092
1 0.202396 0.201007
0.0115511 0.379995 0.241505
0.111849 0.380697 0.242359
0.228397 0.383566 0.236759
0.386908 0.378729 0.230701
0.543984 0.374334 0.228519
0.699992 0.359457 0.199985
0.8 0.351675 0.199985
0.899992 0.349935 0.199985
1 0.351324 0.199985
0 0.533578 0.231159
0.100175 0.535363 0.231312
0.208804 0.533639 0.233265
0.364416 0.529519 0.231968
0.538964 0.521157 0.226917
0.699992 0.512474 0.199985
0.8 0.505531 0.199985
0.899992 0.502892 0.199985
1 0.504158 0.199985
0 0.697459 0.216526
0.0999924 0.697887 0.216754
0.199985 0.697841 0.216648
0.3037 0.69572 0.205356
0.504234 0.68011 0.20032
0.698344 0.664515 0.199985
0.8 0.657298 0.199985
0.899992 0.653529 0.199985
1 0.653788 0.199985
0 0.8 0.219959
0.0999924 0.8 0.219959
0.199985 0.8 0.219959
0.299992 0.8 0.210575
0.452537 0.8 0.199985
0.675166 0.8 0.199985
0.8 0.798108 0.199985
0.899992 0.795605 0.199985
1 0.794507 0.199985
0 0.899992 0.219959
0.0999924 0.899992 0.219959
0.199985 0.899992 0.219959
0.299992 0.899992 0.213977
0.435111 0.899992 0.199985
0.653391 0.899992 0.199985
0.8 0.898329 0.199985
0.899992 0.898314 0.199985
1 0.898314 0.199985
0 1 0.219959
0.0999924 1 0.219959
0.199985 1 0.219959
0.299992 1 0.215457
0.426291 1 0.199985
0.635279 1 0.199985
0.8 0.998474 0.199985
0.899992 0.998306 0.199985
1 0.998306 0.199985
0.00205997 0 0.425925
0.118791 0.000671397 0.407645
0.246113 0.0037232 0.395773
0.392309 0.00462348 0.390768
0.585458 0 0.403784
0.699992 0 0.391272
0.8 0 0.376303
0.899992 0 0.372244
1 0 0.371756
0.00546273 0.113252 0.402731
0.115862 0.112749 0.396399
0.242451 0.111315 0.390936
0.386297 0.10721 0.38471
0.577951 0.0999924 0.396933
0.699992 0.0999924 0.388098
0.8 0.0999924 0.375311
0.899992 0.0999924 0.373449
1 0.0999924 0.375082
0.0123903 0.239811 0.39237
0.114961 0.239582 0.391669
0.241001 0.239811 0.391745
0.387778 0.236072 0.38616
0.541039 0.23122 0.380255
0.699992 0.209461 0.378515
0.8 0.201556 0.369162
0.899992 0.200198 0.368322
1 0.200214 0.370169
0.0186313 0.377295 0.387182
0.118914 0.378149 0.388235
0.234562 0.380407 0.387411
0.381262 0.379583 0.377981
0.534478 0.376394 0.375509
0.689647 0.367529 0.366354
0.79765 0.357458 0.355337
0.899916 0.355077 0.352819
0.999359 0.356909 0.355047
0.0206302 0.524605 0.388067
0.120256 0.52607 0.389471
0.229267 0.525399 0.388891
0.366003 0.52781 0.378653
0.532769 0.521645 0.369451
0.693156 0.516991 0.358297
0.799924 0.509148 0.343923
0.899992 0.505989 0.338811
1 0.507317 0.340841
0 0.693126 0.365362
0.0999924 0.694011 0.367147
0.199985 0.693935 0.367056
0.332662 0.683116 0.365103
0.509346 0.673579 0.352193
0.695247 0.663294 0.317082
0.8 0.656367 0.301885
0.899992 0.652247 0.299992
1 0.652445 0.299992
0 0.8 0.347692
0.0999924 0.8 0.348989
0.199985 0.8 0.348806
0.299992 0.8 0.333089
0.45095 0.8 0.30396
0.672221 0.8 0.299992
0.8 0.797086 0.299992
0.899992 0.794125 0.299992
1 0.792859 0.299992
0 0.899992 0.334447
0.0999924 0.899992 0.33463
0.199985 0.899992 0.333257
0.299992 0.899992 0.321767
0.433021 0.899992 0.300038
0.650019 0.899992 0.299992
0.8 0.898344 0.299992
0.899992 0.898314 0.299992
1 0.898314 0.299992
0 1 0.332815
0.0999924 1 0.331365
0.199985 1 0.328328
0.299992 1 0.318959
0.423804 1 0.299992
0.630777 1 0.299992
0.8 0.998566 0.299992
0.899992 0.998306 0.299992
1 0.998306 0.299992
0.000900282 0 0.6
0.119036 0 0.6
0.257786 0 0.596658
0.413748 0 0.575113
0.593622 0 0.578912
0.699992 0 0.566064
0.8 0 0.555062
0.899992 0 0.551888
1 0 0.551736
1.5259e-05 0.105547 0.6
0.111376 0.104051 0.6
0.249348 0.102449 0.584665
0.404822 0.0999924 0.564858
0.588281 0.0999924 0.574304
0.699992 0.0999924 0.564446
0.8 0.0999924 0.554849
0.899992 0.0999924 0.553262
1 0.0999924 0.554467
0.000762951 0.236744 0.582361
0.103441 0.236393 0.579309
0.240345 0.236988 0.544152
0.38407 0.235447 0.529458
0.549371 0.225772 0.539528
0.699992 0.205997 0.556222
0.8 0.200137 0.550286
0.899992 0.199985 0.549661
1 0.199985 0.550958
0.0135042 0.37705 0.54374
0.113191 0.378134 0.545296
0.238651 0.378088 0.532586
0.380041 0.378164 0.53106
0.533303 0.375158 0.527245
0.674281 0.370779 0.524666
0.776867 0.362341 0.519432
0.877714 0.360098 0.518044
0.976837 0.361791 0.518898
0.0149233 0.525475 0.540505
0.114015 0.526986 0.542153
0.225772 0.525216 0.538399
0.372915 0.5243 0.530221
0.527276 0.521843 0.521645
0.678416 0.519341 0.52047
0.779385 0.51368 0.515038
0.878706 0.511009 0.512383
0.978958 0.512032 0.513329
0 0.684932 0.541283
0.0999924 0.686442 0.54255
0.199985 0.686412 0.54255
0.362036 0.670695 0.536202
0.509499 0.669642 0.523964
0.677913 0.661982 0.5149
0.792676 0.657603 0.513085
0.891859 0.65388 0.508782
0.991867 0.65391 0.508827
0 0.8 0.53019
0.0999924 0.8 0.531075
0.199985 0.8 0.530877
0.305959 0.8 0.523919
0.496895 0.797864 0.523552
0.665919 0.796613 0.504234
0.8 0.793973 0.491905
0.899992 0.790616 0.481422
1 0.789227 0.478386
0 0.899992 0.519783
0.0999924 0.899992 0.519844
0.199985 0.899992 0.518822
0.299992 0.899992 0.510018
0.475776 0.899855 0.507378
0.64773 0.899016 0.485267
0.8 0.89749 0.453681
0.899992 0.897978 0.436774
1 0.898177 0.429541
0 1 0.517662
0.0999924 1 0.516426
0.199985 1 0.513573
0.299992 1 0.503334
0.457496 1 0.492912
0.629633 1 0.467018
0.8 0.998627 0.423987
0.899992 0.998581 0.409415
1 0.998657 0.402838
0.00114443 0 0.699992
0.115389 0 0.699992
0.255222 0 0.699992
0.419333 0 0.699992
0.589319 0 0.699992
0.699992 0 0.699992
0.8 0 0.699992
0.899992 0 0.699992
1 0 0.699992
0.000228885 0.102419 0.699992
0.108782 0.101534 0.699992
0.249073 0.100023 0.699992
0.414115 0.0999924 0.699992
0.586267 0.0999924 0.699992
0.699992 0.0999924 0.699992
0.8 0.0999924 0.699992
0.899992 0.0999924 0.699992
1 0.0999924 0.699992
0 0.232334 0.699992
0.0999924 0.232044 0.699992
0.236332 0.229252 0.699992
0.398169 0.223514 0.699992
0.576822 0.211154 0.699992
0.699992 0.20267 0.699992
0.8 0.199985 0.699992
0.899992 0.199985 0.699992
1 0.199985 0.699992
0 0.37705 0.699992
0.0999924 0.37821 0.699992
0.218311 0.377386 0.699992
0.380285 0.376532 0.67335
0.53135 0.374777 0.664576
0.686183 0.365881 0.674693
0.790326 0.356725 0.672587
0.891264 0.354223 0.671794
0.990387 0.355978 0.672007
0 0.52958 0.699992
0.0999924 0.530922 0.699992
0.200214 0.529885 0.699977
0.375647 0.522576 0.667643
0.525017 0.520745 0.667475
0.678737 0.518151 0.661204
0.780606 0.51284 0.655497
0.879774 0.510094 0.652811
0.980056 0.511009 0.653559
0 0.68246 0.697032
0.0999924 0.683665 0.697932
0.199985 0.683665 0.697887
0.35552 0.671061 0.677684
0.515297 0.6663 0.664851
0.675395 0.661372 0.652003
0.794202 0.65655 0.649378
0.89279 0.65272 0.645884
0.992752 0.652659 0.645823
0 0.8 0.686946
0.0999924 0.8 0.687663
0.199985 0.8 0.68751
0.3066 0.8 0.67892
0.508751 0.794385 0.667369
0.653712 0.799039 0.650629
0.8 0.793484 0.646845
0.899855 0.789151 0.64329
0.99971 0.787549 0.64213
0 0.899992 0.676921
0.0999924 0.899992 0.67689
0.199985 0.899992 0.67602
0.299992 0.899992 0.669429
0.494621 0.894743 0.659663
0.641962 0.898985 0.646799
0.8 0.896849 0.640665
0.899992 0.896666 0.637507
1 0.896559 0.635691
0 1 0.674372
0.0999924 1 0.673274
0.199985 1 0.671046
0.299992 1 0.663813
0.482429 0.995727 0.653773
0.632563 0.998154 0.64242
0.795529 0.996384 0.632273
0.899992 0.996292 0.629587
1 0.996185 0.626688
0.00114443 0 0.8
0.11191 0 0.8
0.251347 0 0.8
0.414862 0 0.8
0.585397 0 0.8
0.699992 0 0.8
0.8 0 0.8
0.899992 0 0.8
1 0 0.8
0.000503548 0.100877 0.8
0.106493 0.100435 0.8
0.246021 0.0999924 0.8
0.41033 0.0999924 0.8
0.582971 0.0999924 0.8
0.699992 0.0999924 0.8
0.8 0.0999924 0.8
0.899992 0.0999924 0.8
1 0.0999924 0.8
0 0.22948 0.8
0.0999924 0.229343 0.8
0.234028 0.226719 0.8
0.396231 0.2206 0.8
0.575967 0.208026 0.8
0.699992 0.20145 0.8
0.8 0.199985 0.8
0.899992 0.199985 0.8
1 0.199985 0.8
0 0.374365 0.8
0.0999924 0.375616 0.8
0.214435 0.374884 0.8
0.378119 0.373434 0.792432
0.532647 0.371557 0.781979
0.698833 0.358297 0.8
0.8 0.347845 0.8
0.899992 0.344961 0.8
1 0.346822 0.8
0 0.52726 0.8
0.0999924 0.528481 0.8
0.199985 0.527993 0.8
0.367269 0.522103 0.797726
0.524758 0.520012 0.78526
0.676265 0.518013 0.788022
0.780453 0.512612 0.786816
0.879973 0.509712 0.785977
0.980056 0.510597 0.78613
0 0.67924 0.8
0.0999924 0.680476 0.8
0.199985 0.680461 0.8
0.330587 0.674922 0.8
0.519951 0.663951 0.796017
0.67097 0.660227 0.798108
0.794553 0.654917 0.79234
0.893751 0.650935 0.787671
0.993698 0.650736 0.787427
0 0.8 0.8
0.0999924 0.8 0.8
0.199985 0.8 0.8
0.3037 0.8 0.8
0.510018 0.79469 0.7991
0.655467 0.797482 0.791806
0.799176 0.793652 0.77879
0.899489 0.788617 0.774426
0.999527 0.786679 0.772931
0 0.899992 0.8
0.0999924 0.899992 0.8
0.199985 0.899992 0.8
0.299992 0.899992 0.8
0.493416 0.895567 0.794049
0.645197 0.898009 0.784146
0.798306 0.899336 0.767391
0.899992 0.898985 0.76405
1 0.898863 0.762158
0 1 0.8
0.0999924 1 0.8
0.199985 1 0.8
0.299992 1 0.8
0.479225 0.996796 0.789487
0.636637 0.996887 0.778012
0.788937 0.999527 0.758221
0.899992 0.998428 0.757366
1 0.99823 0.755428
0.00114443 0 0.899992
0.11043 0 0.899992
0.249439 0 0.899992
0.412421 0 0.899992
0.583017 0 0.899992
0.699992 0 0.899992
0.8 0 0.899992
0.899992 0 0.899992
1 0 0.899992
0.000640879 0.100389 0.899992
0.105516 0.10013 0.899992
0.244556 0.0999924 0.899992
0.408347 0.0999924 0.899992
0.581155 0.0999924 0.899992
0.699992 0.0999924 0.899992
0.8 0.0999924 0.899992
0.899992 0.0999924 0.899992
1 0.0999924 0.899992
0 0.228031 0.899992
0.0999924 0.228031 0.899992
0.232914 0.225467 0.899992
0.39527 0.219135 0.899992
0.574685 0.206882 0.899992
0.699992 0.200717 0.899992
0.8 0.199985 0.899992
0.899992 0.199985 0.899992
1 0.199985 0.899992
0 0.372839 0.899992
0.0999924 0.374166 0.899992
0.21323 0.373465 0.899992
0.376761 0.371862 0.894087
0.531716 0.369833 0.882628
0.699779 0.356207 0.899992
0.8 0.345892 0.899992
0.899992 0.342992 0.899992
1 0.344854 0.899992
0 0.525734 0.899992
0.0999924 0.526925 0.899992
0.199985 0.526497 0.899992
0.365499 0.52079 0.898054
0.523583 0.518746 0.88484
0.675303 0.516777 0.887724
0.780301 0.511437 0.887266
0.879896 0.508431 0.886839
0.979934 0.509255 0.88687
0 0.677989 0.899992
0.0999924 0.679225 0.899992
0.199985 0.67924 0.899992
0.328603 0.673854 0.899992
0.518944 0.662791 0.897673
0.669551 0.659266 0.899992
0.792645 0.65449 0.899748
0.891325 0.65069 0.899306
0.991211 0.650339 0.899214
0 0.8 0.899992
0.0999924 0.8 0.899992
0.199985 0.8 0.899992
0.303014 0.8 0.899992
0.505486 0.795697 0.899992
0.65861 0.795743 0.899992
0.79646 0.792721 0.899992
0.896895 0.787488 0.899992
0.996994 0.785397 0.899992
0 0.899992 0.899992
0.0999924 0.899992 0.899992
0.199985 0.899992 0.899992
0.299992 0.899992 0.899992
0.481086 0.898604 0.899992
0.649973 0.896834 0.899992
0.792599 0.899992 0.899916
0.896361 0.899992 0.898589
0.996658 0.899992 0.897078
0 1 0.899992
0.0999924 1 0.899992
0.199985 1 0.899992
0.299992 1 0.899992
0.4607 1 0.899992
0.641108 0.995926 0.899992
0.782086 1 0.897032
0.897734 1 0.889769
0.998199 0.999939 0.885863
0.00114443 0 1
0.109834 0 1
0.248722 0 1
0.411582 0 1
0.582391 0 1
0.699992 0 1
0.8 0 1
0.899992 0 1
1 0 1
0.000671397 0.100328 1
0.105257 0.100099 1
0.244266 0.0999924 1
0.408164 0.0999924 1
0.581155 0.0999924 1
0.699992 0.0999924 1
0.8 0.0999924 1
0.899992 0.0999924 1
1 0.0999924 1
0 0.227893 1
0.0999924 0.228 1
0.233036 0.225559 1
0.395483 0.219318 1
0.575051 0.207065 1
0.699992 0.200732 1
0.8 0.199985 1
0.899992 0.199985 1
1 0.199985 1
0 0.373068 1
0.0999924 0.374472 1
0.213428 0.37377 1
0.377066 0.372137 0.993759
0.531914 0.370062 0.982559
0.699809 0.356451 1
0.8 0.346136 1
0.899992 0.343313 1
1 0.345174 1
0 0.525872 1
0.0999924 0.527092 1
0.199985 0.526665 1
0.365667 0.520867 0.998047
0.523613 0.51873 0.984848
0.675242 0.516655 0.987686
0.78027 0.511269 0.987228
0.879866 0.508278 0.986816
0.979904 0.50901 0.986847
0 0.677928 1
0.0999924 0.679149 1
0.199985 0.679118 1
0.328313 0.673655 1
0.518624 0.662455 0.997574
0.669078 0.658778 1
0.792447 0.653925 0.999695
0.891096 0.650034 0.999191
0.990936 0.649577 0.999039
0 0.8 1
0.0999924 0.8 1
0.199985 0.8 1
0.302495 0.8 1
0.504204 0.795743 1
0.657877 0.795163 1
0.796551 0.791608 1
0.896941 0.786282 1
0.996994 0.784024 1
0 0.899992 1
0.0999924 0.899992 1
0.199985 0.899992 1
0.299992 0.899992 1
0.47863 0.898924 1
0.649073 0.896696 1
0.792035 0.899992 1
0.895659 0.899992 1
0.995651 0.899992 1
0 1 1
0.0999924 1 1
0.199985 1 1
0.299992 1 1
0.456718 1 1
0.640497 0.995743 1
0.782162 1 1
0.895659 1 1
0.995651 1 1
