datas/cubes/TC - SELECT_40.cube
TITLE "Generate by Resolve"
LUT_3D_SIZE 9
0.00352483 0.00453193 0.00987259
0.131334 0 0.00444038
0.257984 0.00479133 0.00610361
0.431861 0.00505074 0.00747692
0.699992 0 0
0.77499 0 0
0.850004 0 0
0.925002 0 0
1 0 0
0 0.117601 0.00712596
0.115862 0.110536 0.000183108
0.254582 0.102251 0.00831617
0.412253 0.0923323 0.0125582
0.699992 0.0749981 0
0.77499 0.0749981 0
0.850004 0.0749981 0
0.925002 0.0749981 0
1 0.0749981 0
0.000396735 0.243854 0.0235447
0.082002 0.243549 0.0192264
0.243885 0.234058 0.0103914
0.404395 0.225467 0.030869
0.666728 0.194461 0.000381476
0.77499 0.169451 0
0.850004 0.155596 0
0.925002 0.153445 0
1 0.154894 0
0.0176089 0.386572 0.0532845
0.0928359 0.387594 0.0536812
0.205188 0.391775 0.0456397
0.399283 0.38088 0.0463264
0.596094 0.371374 0.0391546
0.77499 0.343648 0
0.850004 0.328389 0
0.925002 0.324697 0
1 0.327398 0
0 0.567941 0.0565957
0.0749981 0.571893 0.0551003
0.164172 0.568292 0.0602579
0.353414 0.558938 0.0624247
0.577295 0.541955 0.054078
0.77499 0.524468 0
0.850004 0.510521 0
0.925002 0.505318 0
1 0.508003 0
0 0.769772 0.03299
0.0749981 0.770611 0.0334478
0.149996 0.770489 0.0332189
0.231922 0.766201 0.0109255
0.507836 0.734768 0.000793469
0.77145 0.703807 0
0.850004 0.689677 0
0.925002 0.682429 0
1 0.683467 0
0 0.850004 0.0399176
0.0749981 0.850004 0.0399176
0.149996 0.850004 0.0399176
0.224994 0.850004 0.0211643
0.405661 0.850004 0
0.726757 0.850004 0
0.850004 0.846616 0
0.925002 0.842985 0
1 0.841306 0
0 0.925002 0.0399176
0.0749981 0.925002 0.0399176
0.149996 0.925002 0.0399176
0.224994 0.925002 0.0276188
0.372671 0.925002 0
0.686442 0.925002 0
0.850004 0.921645 0
0.925002 0.92163 0
1 0.92163 0
0 1 0.0399176
0.0749981 1 0.0399176
0.149996 1 0.0399176
0.224994 1 0.0299992
0.356832 1 0
0.654078 1 0
0.850004 0.996872 0
0.925002 0.996628 0
1 0.996628 0
0.00364691 0.00242618 0.127947
0.128969 0 0.118837
0.25951 0.00419623 0.103578
0.426307 0.00619516 0.0907759
0.699992 0 0.0749981
0.77499 0 0.0749981
0.850004 0 0.0749981
0.925002 0 0.0749981
1 0 0.0749981
0 0.114321 0.111604
0.111788 0.109743 0.10013
0.255116 0.100969 0.0944991
0.4103 0.0919661 0.089662
0.699992 0.0749981 0.0749981
0.77499 0.0749981 0.0749981
0.850004 0.0749981 0.0749981
0.925002 0.0749981 0.0749981
1 0.0749981 0.0749981
0.000381476 0.243015 0.101457
0.0817121 0.242908 0.0968185
0.243488 0.233768 0.0862135
0.404334 0.22533 0.105913
0.667353 0.194491 0.0753643
0.77499 0.169741 0.0749981
0.850004 0.155718 0.0749981
0.925002 0.153567 0.0749981
1 0.155444 0.0749981
0.0176089 0.386572 0.128267
0.0928664 0.387762 0.12874
0.205524 0.392172 0.12076
0.399908 0.381323 0.121553
0.597086 0.371847 0.113924
0.77499 0.344182 0.0749981
0.850004 0.328786 0.0749981
0.925002 0.325231 0.0749981
1 0.328008 0.0749981
0 0.568841 0.131243
0.0749981 0.572808 0.129747
0.164355 0.569024 0.135042
0.353826 0.559487 0.137407
0.578103 0.542473 0.128725
0.77499 0.525032 0.0749981
0.850004 0.511101 0.0749981
0.925002 0.505882 0.0749981
1 0.508492 0.0749981
0 0.769955 0.108095
0.0749981 0.770825 0.108553
0.149996 0.770687 0.108309
0.232319 0.766445 0.085771
0.508507 0.735271 0.075639
0.771801 0.704158 0.0749981
0.850004 0.689937 0.0749981
0.925002 0.682582 0.0749981
1 0.683314 0.0749981
0 0.850004 0.114916
0.0749981 0.850004 0.114916
0.149996 0.850004 0.114916
0.224994 0.850004 0.0960708
0.405798 0.850004 0.0749981
0.726665 0.850004 0.0749981
0.850004 0.846616 0.0749981
0.925002 0.84239 0.0749981
1 0.840513 0.0749981
0 0.925002 0.114916
0.0749981 0.925002 0.114916
0.149996 0.925002 0.114916
0.224994 0.925002 0.102724
0.371832 0.925002 0.0749981
0.684703 0.925002 0.0749981
0.850004 0.92166 0.0749981
0.925002 0.92163 0.0749981
1 0.92163 0.0749981
0 1 0.114916
0.0749981 1 0.114916
0.149996 1 0.114916
0.224994 1 0.105348
0.355154 1 0.0749981
0.650797 1 0.0749981
0.850004 0.996887 0.0749981
0.925002 0.996628 0.0749981
1 0.996628 0.0749981
0.00448615 0.000381476 0.261463
0.116503 0.00216678 0.261524
0.253956 0.00488289 0.249805
0.412024 0.0104067 0.228534
0.698299 0 0.209827
0.77499 0 0.179477
0.850004 0 0.156542
0.925002 0 0.151354
1 0 0.150393
0.00759899 0.108049 0.258381
0.109026 0.105303 0.258457
0.252583 0.0975814 0.245716
0.402838 0.0926833 0.220417
0.697108 0.0749981 0.200565
0.77499 0.0749981 0.173968
0.850004 0.0749981 0.154238
0.925002 0.0749981 0.15169
1 0.0749981 0.153704
0.0087892 0.237888 0.243732
0.0903029 0.23772 0.241489
0.235676 0.234409 0.2224
0.404257 0.225513 0.218677
0.634241 0.201984 0.194293
0.77499 0.169177 0.160327
0.850004 0.155261 0.149996
0.925002 0.153079 0.150195
1 0.154788 0.152041
0.0231174 0.384985 0.233005
0.0987106 0.386404 0.23473
0.206806 0.392157 0.223514
0.39881 0.382467 0.211429
0.587961 0.373693 0.207034
0.77499 0.343908 0.149996
0.850004 0.328374 0.149996
0.925002 0.32488 0.149996
1 0.327657 0.149996
0 0.567163 0.212314
0.0753796 0.570748 0.21265
0.167636 0.567285 0.216541
0.353841 0.559045 0.213947
0.577935 0.542321 0.203845
0.77499 0.524956 0.149996
0.850004 0.511086 0.149996
0.925002 0.505806 0.149996
1 0.508324 0.149996
0 0.769909 0.183062
0.0749981 0.770779 0.18352
0.149996 0.770687 0.183291
0.23241 0.766445 0.160739
0.508476 0.735241 0.150652
0.771695 0.704036 0.149996
0.850004 0.689601 0.149996
0.925002 0.682063 0.149996
1 0.682582 0.149996
0 0.850004 0.189914
0.0749981 0.850004 0.189914
0.149996 0.850004 0.189914
0.224994 0.850004 0.17116
0.405081 0.850004 0.149996
0.725338 0.850004 0.149996
0.850004 0.846204 0.149996
0.925002 0.841199 0.149996
1 0.839002 0.149996
0 0.925002 0.189914
0.0749981 0.925002 0.189914
0.149996 0.925002 0.189914
0.224994 0.925002 0.177966
0.37023 0.925002 0.149996
0.681804 0.925002 0.149996
0.850004 0.92166 0.149996
0.925002 0.92163 0.149996
1 0.92163 0.149996
0 1 0.189914
0.0749981 1 0.189914
0.149996 1 0.189914
0.224994 1 0.180911
0.35259 1 0.149996
0.645548 1 0.149996
0.850004 0.996933 0.149996
0.925002 0.996628 0.149996
1 0.996628 0.149996
0.00411994 0 0.47686
0.112612 0.00134279 0.440284
0.242237 0.0074464 0.416541
0.409628 0.00926223 0.406546
0.670924 0 0.432578
0.77499 0 0.407553
0.850004 0 0.377615
0.925002 0 0.369497
1 0 0.368536
0.0109102 0.101518 0.430472
0.106752 0.100511 0.417807
0.234913 0.0976272 0.406882
0.39762 0.0894179 0.39443
0.655909 0.0749981 0.418875
0.77499 0.0749981 0.40119
0.850004 0.0749981 0.375631
0.925002 0.0749981 0.371923
1 0.0749981 0.375174
0.0247654 0.229618 0.409751
0.104952 0.22916 0.408331
0.232013 0.229618 0.408499
0.400565 0.222156 0.397345
0.582071 0.212451 0.385534
0.77499 0.168948 0.38204
0.850004 0.153124 0.363317
0.925002 0.150393 0.361639
1 0.150454 0.365332
0.0372625 0.379599 0.399374
0.112856 0.381308 0.401495
0.21912 0.385824 0.399832
0.387533 0.384192 0.380987
0.568963 0.377798 0.376028
0.754299 0.360052 0.357717
0.845319 0.339925 0.335683
0.924834 0.335164 0.330663
0.998718 0.338827 0.335103
0.0412604 0.549218 0.40116
0.115526 0.552163 0.403952
0.208545 0.550805 0.402792
0.357031 0.555627 0.382315
0.56556 0.543282 0.363928
0.761303 0.534005 0.341588
0.849851 0.518303 0.312856
0.925002 0.511986 0.302632
1 0.514626 0.306691
0 0.761242 0.355749
0.0749981 0.763027 0.359304
0.149996 0.762875 0.359106
0.290333 0.741238 0.355215
0.5187 0.722164 0.329412
0.765499 0.701579 0.25919
0.850004 0.687739 0.228779
0.925002 0.679515 0.224994
1 0.679881 0.224994
0 0.850004 0.320378
0.0749981 0.850004 0.322988
0.149996 0.850004 0.322606
0.224994 0.850004 0.291188
0.401907 0.850004 0.232929
0.719448 0.850004 0.224994
0.850004 0.844175 0.224994
0.925002 0.83827 0.224994
1 0.835721 0.224994
0 0.925002 0.293904
0.0749981 0.925002 0.29427
0.149996 0.925002 0.291508
0.224994 0.925002 0.268559
0.366064 0.925002 0.225086
0.675044 0.925002 0.224994
0.850004 0.921691 0.224994
0.925002 0.92163 0.224994
1 0.92163 0.224994
0 1 0.290623
0.0749981 1 0.287739
0.149996 1 0.281666
0.224994 1 0.262913
0.347601 1 0.224994
0.636561 1 0.224994
0.850004 0.997116 0.224994
0.925002 0.996628 0.224994
1 0.996628 0.224994
0.00181582 0 0.699992
0.113085 0 0.699992
0.265583 0 0.693339
0.452506 0 0.650233
0.687251 0 0.657847
0.77499 0 0.63212
0.850004 0 0.610132
0.925002 0 0.6038
1 0 0.603464
3.0518e-05 0.0861219 0.699992
0.0977646 0.0831311 0.699992
0.248722 0.0798962 0.669337
0.434653 0.0749981 0.629725
0.67657 0.0749981 0.648615
0.77499 0.0749981 0.628901
0.850004 0.0749981 0.609705
0.925002 0.0749981 0.606531
1 0.0749981 0.608942
0.00151064 0.223499 0.664729
0.0818952 0.222797 0.658625
0.230701 0.223987 0.588312
0.393149 0.220905 0.558923
0.598749 0.201541 0.579065
0.77499 0.16202 0.612451
0.850004 0.150301 0.600565
0.925002 0.149996 0.599329
1 0.149996 0.601923
0.0270085 0.37911 0.587503
0.101411 0.381292 0.5906
0.227314 0.381201 0.565194
0.385107 0.381353 0.562112
0.566613 0.375326 0.554498
0.723568 0.366567 0.549355
0.803738 0.349676 0.538857
0.88043 0.345205 0.53608
0.953658 0.348592 0.537804
0.0298314 0.550942 0.581003
0.103044 0.553979 0.584298
0.201541 0.550439 0.576822
0.370855 0.548623 0.560464
0.554574 0.543694 0.543313
0.731823 0.538689 0.540948
0.808774 0.527367 0.530083
0.882414 0.522042 0.524773
0.9579 0.524071 0.526665
0 0.744884 0.582574
0.0749981 0.747875 0.585107
0.149996 0.747829 0.585092
0.349081 0.716411 0.572427
0.519005 0.71429 0.547951
0.730831 0.69897 0.529793
0.835355 0.690211 0.526177
0.908705 0.682765 0.517586
0.983719 0.682826 0.517662
0 0.850004 0.560403
0.0749981 0.850004 0.562142
0.149996 0.850004 0.561761
0.236927 0.850004 0.54786
0.493812 0.845731 0.547112
0.706844 0.843229 0.508476
0.850004 0.837934 0.483833
0.925002 0.831235 0.462852
1 0.828473 0.456779
0 0.925002 0.539574
0.0749981 0.925002 0.539712
0.149996 0.925002 0.537636
0.224994 0.925002 0.520043
0.451545 0.924712 0.514778
0.670481 0.923033 0.470527
0.850004 0.919997 0.40737
0.925002 0.920958 0.373571
1 0.92134 0.359091
0 1 0.535332
0.0749981 1 0.53286
0.149996 1 0.527153
0.224994 1 0.506691
0.415 1 0.485817
0.634272 1 0.434043
0.850004 0.997253 0.347982
0.925002 0.997162 0.318853
1 0.997299 0.305684
0.00228885 0 0.77499
0.105776 0 0.77499
0.260456 0 0.77499
0.463676 0 0.77499
0.678645 0 0.77499
0.77499 0 0.77499
0.850004 0 0.77499
0.925002 0 0.77499
1 0 0.77499
0.00047303 0.0798505 0.77499
0.0925612 0.0780804 0.77499
0.248157 0.0750591 0.77499
0.453223 0.0749981 0.77499
0.672557 0.0749981 0.77499
0.77499 0.0749981 0.77499
0.850004 0.0749981 0.77499
0.925002 0.0749981 0.77499
1 0.0749981 0.77499
0 0.214694 0.77499
0.0749981 0.214099 0.77499
0.222675 0.208499 0.77499
0.421363 0.19704 0.77499
0.653651 0.17232 0.77499
0.77499 0.155352 0.77499
0.850004 0.149996 0.77499
0.925002 0.149996 0.77499
1 0.149996 0.77499
0 0.379095 0.77499
0.0749981 0.38143 0.77499
0.186633 0.379767 0.77499
0.385565 0.378073 0.721721
0.562707 0.374563 0.704143
0.747372 0.356771 0.724392
0.830655 0.33846 0.72018
0.907515 0.333455 0.718593
0.980774 0.336965 0.71902
0 0.559167 0.77499
0.0749981 0.561852 0.77499
0.150439 0.559777 0.774975
0.376318 0.545159 0.710307
0.550042 0.541497 0.709941
0.732479 0.536309 0.697414
0.811231 0.525689 0.686
0.88455 0.520195 0.680644
0.960113 0.522026 0.682124
0 0.739925 0.769055
0.0749981 0.742336 0.770855
0.149996 0.742351 0.770779
0.336049 0.717128 0.730358
0.530617 0.707607 0.704707
0.72578 0.697749 0.679011
0.838407 0.688121 0.673747
0.910567 0.680446 0.666773
0.985519 0.680323 0.666667
0 0.850004 0.748913
0.0749981 0.850004 0.750332
0.149996 0.850004 0.750027
0.238209 0.850004 0.73286
0.517525 0.838758 0.709743
0.682414 0.848081 0.676265
0.850004 0.836973 0.668711
0.924712 0.82829 0.661585
0.999435 0.825101 0.659251
0 0.925002 0.728847
0.0749981 0.925002 0.728801
0.149996 0.925002 0.727047
0.224994 0.925002 0.713863
0.48925 0.914488 0.694331
0.65893 0.922957 0.668605
0.850004 0.9187 0.656336
0.925002 0.918318 0.650019
1 0.918135 0.646387
0 1 0.723751
0.0749981 1 0.721538
0.149996 1 0.717098
0.224994 1 0.702617
0.464866 0.99144 0.682551
0.640131 0.996307 0.659846
0.841062 0.992752 0.639551
0.925002 0.992584 0.634165
1 0.992386 0.628397
0.00228885 0 0.850004
0.0988174 0 0.850004
0.252705 0 0.850004
0.454734 0 0.850004
0.670802 0 0.850004
0.77499 0 0.850004
0.850004 0 0.850004
0.925002 0 0.850004
1 0 0.850004
0.0010071 0.0767681 0.850004
0.0879835 0.0758984 0.850004
0.242054 0.0749981 0.850004
0.44567 0.0749981 0.850004
0.665949 0.0749981 0.850004
0.77499 0.0749981 0.850004
0.850004 0.0749981 0.850004
0.925002 0.0749981 0.850004
1 0.0749981 0.850004
0 0.208988 0.850004
0.0749981 0.208698 0.850004
0.218051 0.203449 0.850004
0.417487 0.191211 0.850004
0.651957 0.166064 0.850004
0.77499 0.152926 0.850004
0.850004 0.149996 0.850004
0.925002 0.149996 0.850004
1 0.149996 0.850004
0 0.373739 0.850004
0.0749981 0.376242 0.850004
0.178882 0.374777 0.850004
0.381247 0.371878 0.834867
0.565286 0.368124 0.813977
0.772671 0.341604 0.850004
0.850004 0.320699 0.850004
0.925002 0.314931 0.850004
1 0.318669 0.850004
0 0.554513 0.850004
0.0749981 0.55697 0.850004
0.149996 0.555993 0.850004
0.359564 0.544198 0.845441
0.549523 0.540047 0.820523
0.727535 0.536019 0.826032
0.81091 0.525231 0.823621
0.884947 0.519432 0.821958
0.960113 0.521202 0.822263
0 0.733501 0.850004
0.0749981 0.735958 0.850004
0.149996 0.735943 0.850004
0.286183 0.724834 0.850004
0.53991 0.702922 0.842023
0.71696 0.695476 0.84622
0.839124 0.68484 0.834699
0.912505 0.67689 0.82533
0.987396 0.676478 0.824857
0 0.850004 0.850004
0.0749981 0.850004 0.850004
0.149996 0.850004 0.850004
0.232425 0.850004 0.850004
0.520027 0.839384 0.848203
0.685939 0.844968 0.833616
0.848371 0.837293 0.807584
0.92398 0.827237 0.798856
0.999054 0.823362 0.79585
0 0.925002 0.850004
0.0749981 0.925002 0.850004
0.149996 0.925002 0.850004
0.224994 0.925002 0.850004
0.486839 0.916136 0.838102
0.6654 0.921019 0.81828
0.846616 0.923659 0.784787
0.925002 0.922988 0.778103
1 0.922713 0.774319
0 1 0.850004
0.0749981 1 0.850004
0.149996 1 0.850004
0.224994 1 0.850004
0.458457 0.993591 0.828962
0.648295 0.99379 0.806027
0.827863 0.999039 0.766445
0.925002 0.996841 0.764752
1 0.99646 0.760861
0.00228885 0 0.925002
0.0958724 0 0.925002
0.24889 0 0.925002
0.449851 0 0.925002
0.666056 0 0.925002
0.77499 0 0.925002
0.850004 0 0.925002
0.925002 0 0.925002
1 0 0.925002
0.0012665 0.0757916 0.925002
0.0860304 0.0752575 0.925002
0.239109 0.0749981 0.925002
0.441703 0.0749981 0.925002
0.662333 0.0749981 0.925002
0.77499 0.0749981 0.925002
0.850004 0.0749981 0.925002
0.925002 0.0749981 0.925002
1 0.0749981 0.925002
0 0.206058 0.925002
0.0749981 0.206073 0.925002
0.215824 0.200946 0.925002
0.415564 0.188296 0.925002
0.649393 0.16376 0.925002
0.77499 0.151446 0.925002
0.850004 0.149996 0.925002
0.925002 0.149996 0.925002
1 0.149996 0.925002
0 0.370687 0.925002
0.0749981 0.373342 0.925002
0.176455 0.371939 0.925002
0.378531 0.368734 0.913176
0.563439 0.364675 0.890272
0.774548 0.337423 0.925002
0.850004 0.316808 0.925002
0.925002 0.310994 0.925002
1 0.314717 0.925002
0 0.551476 0.925002
0.0749981 0.553857 0.925002
0.149996 0.553002 0.925002
0.356008 0.541588 0.921126
0.547158 0.537484 0.894682
0.725597 0.533547 0.90045
0.81062 0.522881 0.899519
0.884794 0.516884 0.898695
0.959869 0.518517 0.898741
0 0.730999 0.925002
0.0749981 0.733455 0.925002
0.149996 0.733486 0.925002
0.282216 0.722713 0.925002
0.537896 0.700587 0.920363
0.714107 0.693523 0.925002
0.835279 0.683986 0.924498
0.907668 0.676387 0.923613
0.982422 0.675685 0.923415
0 0.850004 0.925002
0.0749981 0.850004 0.925002
0.149996 0.850004 0.925002
0.231022 0.850004 0.925002
0.510994 0.841398 0.925002
0.692241 0.841489 0.925002
0.842908 0.835431 0.925002
0.918776 0.824994 0.925002
0.993973 0.820798 0.925002
0 0.925002 0.925002
0.0749981 0.925002 0.925002
0.149996 0.925002 0.925002
0.224994 0.925002 0.925002
0.462181 0.922194 0.925002
0.674937 0.918669 0.925002
0.835203 0.925002 0.924834
0.917739 0.925002 0.922164
0.993332 0.925002 0.919173
0 1 0.925002
0.0749981 1 0.925002
0.149996 1 0.925002
0.224994 1 0.925002
0.421408 1 0.925002
0.657237 0.991867 0.925002
0.814191 1 0.919066
0.920455 1 0.90454
0.996414 0.999893 0.896727
0.00228885 0 1
0.0946822 0 1
0.247456 0 1
0.448173 0 1
0.664805 0 1
0.77499 0 1
0.850004 0 1
0.925002 0 1
1 0 1
0.00135805 0.0756542 1
0.0855421 0.0752117 1
0.238544 0.0749981 1
0.441321 0.0749981 1
0.662333 0.0749981 1
0.77499 0.0749981 1
0.850004 0.0749981 1
0.925002 0.0749981 1
1 0.0749981 1
0 0.205798 1
0.0749981 0.206012 1
0.216068 0.201129 1
0.415991 0.188663 1
0.650111 0.164141 1
0.77499 0.151461 1
0.850004 0.149996 1
0.925002 0.149996 1
1 0.149996 1
0 0.371145 1
0.0749981 0.373968 1
0.176852 0.372549 1
0.379141 0.369284 0.987503
0.563836 0.365148 0.965118
0.774624 0.337896 1
0.850004 0.317281 1
0.925002 0.311635 1
1 0.315373 1
0 0.551751 1
0.0749981 0.554208 1
0.149996 0.553338 1
0.356329 0.541741 0.996078
0.547234 0.537484 0.969696
0.725475 0.533333 0.975387
0.810544 0.522545 0.974456
0.884749 0.516548 0.973632
0.959808 0.518013 0.973678
0 0.730846 1
0.0749981 0.733318 1
0.149996 0.733257 1
0.281651 0.722316 1
0.537255 0.699916 0.995163
0.713176 0.692561 1
0.834913 0.682872 0.99939
0.907195 0.675074 0.998383
0.981872 0.674159 0.998093
0 0.850004 1
0.0749981 0.850004 1
0.149996 0.850004 1
0.229999 0.850004 1
0.508415 0.841489 1
0.690761 0.840345 1
0.843122 0.833204 1
0.918898 0.822553 1
0.993973 0.818051 1
0 0.925002 1
0.0749981 0.925002 1
0.149996 0.925002 1
0.224994 0.925002 1
0.457267 0.92285 1
0.673152 0.91841 1
0.834073 0.925002 1
0.916304 0.925002 1
0.991302 0.925002 1
0 1 1
0.0749981 1 1
0.149996 1 1
0.224994 1 1
0.413443 1 1
0.655985 0.991485 1
0.814343 1 1
0.916304 1 1
0.991302 1 1
