datas/cubes/TC - RESOLUTE_40.cube
TITLE "Generate by Resolve"
LUT_3D_SIZE 33
0 1.5259e-05 0.00077821
0.0187381 0 0.000427253
0.0374914 0 0.000366217
0.05626 0 0.000839246
0.0751507 0 0.00257877
0.0981003 0 0.00276188
0.124208 3.0518e-05 0.00228885
0.152453 4.57771e-05 0.0016022
0.182193 4.57771e-05 0.000961318
0.214099 0 0.000381476
0.249897 0 7.62951e-05
0.290547 0 1.5259e-05
0.336187 0 0
0.384695 0 0
0.434195 0 0
0.484413 0 0
0.533959 0 0
0.57998 0 0
0.620691 0 0
0.657374 0 0
0.690867 0 0
0.721721 0 0
0.75082 0 0
0.77879 0 0
0.806027 0 0
0.8318 0 0
0.854353 0 0
0.874571 0 0
0.893507 0 0
0.912261 0 0
0.930999 0 0
0.949752 0 0
0.968505 0 0
0 0.0190127 0.00143435
0.0187381 0.0189517 0.0010071
0.0374914 0.0188907 0.000823987
0.05626 0.0188296 0.00106813
0.0752422 0.0187839 0.00221256
0.0982528 0.0187533 0.00254826
0.124529 0.0187686 0.00228885
0.153094 0.0187991 0.00175479
0.183276 0.0187839 0.00112917
0.215656 0.0187381 0.000503548
0.252293 0.0187381 0.000122072
0.294163 0.0187381 1.5259e-05
0.341009 0.0187381 0
0.390784 0.0187381 0
0.440894 0.0187381 0
0.490929 0.0187381 0
0.540215 0.0187381 0
0.585687 0.0187381 0
0.625956 0.0187381 0
0.662257 0.0187381 0
0.69514 0.0187381 0
0.725734 0.0187381 0
0.754833 0.0187381 0
0.782849 0.0187381 0
0.809918 0.0187381 0
0.83476 0.0187381 0
0.855543 0.0187381 0
0.874754 0.0187381 0
0.893507 0.0187381 0
0.912261 0.0187381 0
0.930999 0.0187381 0
0.949767 0.0187381 0
0.968551 0.0187381 0
1.5259e-05 0.0386511 0.002121
0.0187533 0.038529 0.00184634
0.0375067 0.0383917 0.00164797
0.0562905 0.0382086 0.00163272
0.0753338 0.037995 0.00195315
0.098436 0.0377966 0.00231937
0.125002 0.037705 0.00227359
0.153811 0.0376287 0.00190738
0.18436 0.0375372 0.00134279
0.217288 0.0374914 0.000656138
0.255116 0.0374914 0.00015259
0.298436 0.0374914 1.5259e-05
0.346548 0.0374914 0
0.396567 0.0374914 0
0.447211 0.0374914 0
0.497749 0.0374914 0
0.546593 0.0374914 0
0.59147 0.0374914 0
0.631388 0.0374914 0
0.66688 0.0374914 0
0.699351 0.0374914 0
0.729747 0.0374914 0
0.758785 0.0374914 0
0.786816 0.0374914 0
0.812818 0.0374914 0
0.835935 0.0374914 0
0.85597 0.0374914 0
0.874754 0.0374914 0
0.893507 0.0374914 0
0.912276 0.0374914 0
0.93109 0.0374914 0
0.949981 0.0374914 0
0.96878 0.0374914 0
9.15541e-05 0.0595712 0.00241093
0.0188449 0.0594797 0.00241093
0.0375982 0.0592813 0.00234989
0.0563668 0.0589761 0.0021973
0.0754406 0.0585184 0.00178531
0.0985885 0.0579538 0.00210575
0.125429 0.0574807 0.0021973
0.154726 0.0570382 0.00196841
0.185611 0.0566567 0.00151064
0.218936 0.0564431 0.000762951
0.257588 0.0562905 0.00015259
0.302342 0.0562448 1.5259e-05
0.351141 0.0562448 0
0.401877 0.0562448 0
0.452827 0.0562448 0
0.503731 0.0562448 0
0.552712 0.0562448 0
0.596963 0.0562448 0
0.635904 0.0562448 0
0.670787 0.0562448 0
0.702876 0.0562448 0
0.733196 0.0562448 0
0.762356 0.0562448 0
0.789929 0.0562448 0
0.814893 0.0562448 0
0.836576 0.0562448 0
0.856016 0.0562448 0
0.874754 0.0562448 0
0.893507 0.0562448 0
0.912261 0.0562448 0
0.931044 0.0562448 0
0.949889 0.0562448 0
0.968704 0.0562448 0
0.000350958 0.0839094 0.00106813
0.0191196 0.0841688 0.00111391
0.0378729 0.0842756 0.00115969
0.0566262 0.0842145 0.00115969
0.0755627 0.08365 0.00114443
0.0982223 0.0824598 0.0016022
0.125368 0.0813458 0.00167849
0.155337 0.080354 0.00148013
0.186923 0.0792401 0.00112917
0.220935 0.0777752 0.000503548
0.259876 0.0757 7.62951e-05
0.305119 0.0750896 0
0.354314 0.0749981 0
0.405035 0.0749981 0
0.456153 0.0749981 0
0.50753 0.0749981 0
0.556222 0.0749981 0
0.600366 0.0749981 0
0.638651 0.0749981 0
0.673228 0.0749981 0
0.705272 0.0749981 0
0.735637 0.0749981 0
0.76463 0.0749981 0
0.792279 0.0749981 0
0.816709 0.0749981 0
0.837003 0.0749981 0
0.856016 0.0749981 0
0.87483 0.0749981 0
0.893874 0.0749981 0
0.912947 0.0749981 0
0.931991 0.0749981 0
0.95108 0.0749981 0
0.970153 0.0749981 0
0.000213626 0.110124 0.00122072
0.018967 0.110506 0.00132753
0.037705 0.110842 0.00140383
0.0564431 0.110872 0.00135805
0.0752728 0.110384 0.00117494
0.0969253 0.109148 0.000961318
0.1243 0.107637 0.00117494
0.155154 0.106157 0.00120546
0.187839 0.104738 0.000701915
0.223316 0.102541 0.000167849
0.263691 0.0992294 3.0518e-05
0.309789 0.0960555 0
0.358801 0.0942702 0
0.409354 0.0937362 0
0.460502 0.0937362 0
0.511299 0.0937362 0
0.55964 0.0937362 0
0.603311 0.0937362 0
0.641291 0.0937362 0
0.675868 0.0937362 0
0.707851 0.0937362 0
0.738109 0.0937362 0
0.767254 0.0937362 0
0.79501 0.0937362 0
0.81915 0.0937362 0
0.838758 0.0937362 0
0.857877 0.0937362 0
0.877028 0.0937362 0
0.896437 0.0937362 0
0.915923 0.0937362 0
0.935424 0.0937362 0
0.954971 0.0937362 0
0.974456 0.0940414 0
7.62951e-05 0.13724 0.000869764
0.0188144 0.137865 0.000915541
0.0375525 0.138231 0.000900282
0.0562905 0.138338 0.000808728
0.0750744 0.137926 0.000579843
0.0952773 0.136767 0.000335698
0.122271 0.135195 0.000518807
0.153689 0.133532 0.000839246
0.187243 0.131701 0.000839246
0.22388 0.129412 0.000213626
0.267109 0.125368 3.0518e-05
0.315785 0.120256 0
0.366278 0.115908 0
0.417243 0.113329 0
0.467765 0.11249 0
0.517891 0.11249 0
0.565408 0.11249 0
0.608026 0.11249 0
0.645716 0.11249 0
0.68014 0.11249 0
0.712123 0.11249 0
0.742611 0.112551 0
0.772091 0.112703 0
0.799786 0.112947 0
0.823575 0.113252 0
0.843168 0.113573 0
0.862806 0.113939 0
0.882536 0.114321 0
0.902358 0.114702 0
0.922286 0.115129 0
0.942275 0.115602 0
0.962219 0.115953 0
0.981979 0.116976 0
0 0.165393 0.000289921
0.0187381 0.16611 0.000274662
0.0374914 0.166674 0.000213626
0.0562448 0.166888 0.000137331
0.0749981 0.166567 3.0518e-05
0.0941024 0.165454 0
0.119753 0.16408 7.62951e-05
0.150881 0.162341 0.000427253
0.18526 0.16025 0.000854505
0.222263 0.158007 0.000518807
0.267475 0.153994 7.62951e-05
0.320058 0.148089 0
0.373632 0.141833 0
0.426719 0.136812 0
0.478431 0.133837 0
0.528328 0.132601 0
0.574914 0.132128 0
0.61651 0.132097 0
0.653559 0.132174 0
0.687694 0.132326 0
0.71989 0.132769 0
0.750851 0.133425 0
0.780865 0.134325 0
0.808042 0.135317 0
0.83093 0.136355 0
0.850843 0.13756 0
0.870802 0.139147 0
0.890837 0.140948 1.5259e-05
0.911025 0.143267 6.10361e-05
0.931243 0.1458 0.000106813
0.951583 0.148959 0.000106813
0.971878 0.152193 0.000106813
0.991928 0.154894 7.62951e-05
0 0.194965 0
0.0187381 0.19585 0
0.0374914 0.196643 0
0.0562448 0.197101 0
0.0749981 0.196963 0
0.0937362 0.19588 0
0.117037 0.194629 0
0.1467 0.193042 9.15541e-05
0.18201 0.190997 0.000350958
0.219242 0.18851 0.000701915
0.264057 0.18529 0.000106813
0.319203 0.179553 0
0.377264 0.173068 0
0.434897 0.166766 0
0.490074 0.161257 0
0.541695 0.157244 0
0.588129 0.155535 0
0.628763 0.155306 0
0.665354 0.155657 0
0.699428 0.15639 0
0.73196 0.158602 0
0.763516 0.161776 1.5259e-05
0.79324 0.165225 3.0518e-05
0.818952 0.168185 0
0.840681 0.170993 0
0.860761 0.173785 0
0.880934 0.176852 1.5259e-05
0.901213 0.180438 0.000198367
0.920928 0.184009 0.000900282
0.94052 0.187732 0.00180056
0.959991 0.191516 0.00285344
0.979263 0.194842 0.00390631
0.998474 0.197894 0.00495918
0 0.226673 0
0.0187381 0.227955 0
0.0374914 0.228962 0
0.0562448 0.229862 0
0.0749981 0.229831 0
0.0937362 0.228779 0
0.113909 0.227543 0
0.140703 0.226276 0
0.176562 0.224613 3.0518e-05
0.216327 0.221759 0.000183108
0.259586 0.21883 3.0518e-05
0.313893 0.214252 0
0.374609 0.208545 0
0.436759 0.202487 0
0.497169 0.197162 0
0.552819 0.193149 0
0.601556 0.191165 0
0.643046 0.191455 0
0.680186 0.193286 0
0.714961 0.196216 0
0.748165 0.199939 0
0.779644 0.203937 0.00047303
0.806745 0.207492 0.00151064
0.828992 0.210391 0.00247196
0.848478 0.213153 0.00329595
0.867445 0.216434 0.00440986
0.886412 0.220066 0.00563058
0.905394 0.223743 0.00682078
0.924331 0.22771 0.00816358
0.943252 0.231647 0.00952163
0.962158 0.235935 0.0109865
0.981018 0.239536 0.012253
0.999847 0.242817 0.0132753
0 0.262501 0
0.0187381 0.264332 0
0.0374914 0.26598 0
0.0562448 0.267063 0
0.0749981 0.267231 0
0.0937362 0.266178 0
0.112764 0.264881 0
0.136187 0.264027 0
0.168032 0.263218 0
0.209491 0.261051 3.0518e-05
0.256184 0.256886 0
0.308446 0.253101 0
0.367681 0.248844 0
0.432258 0.244297 0
0.496803 0.239673 0
0.557015 0.236027 0
0.609995 0.234455 0
0.654475 0.235294 4.57771e-05
0.693782 0.237812 0.000244144
0.729992 0.241474 0.00242618
0.76289 0.245518 0.00550851
0.7897 0.249531 0.00817884
0.811521 0.252476 0.00975052
0.831098 0.255024 0.0106661
0.849973 0.257847 0.0115206
0.868742 0.261311 0.0125887
0.887495 0.265019 0.0137179
0.906249 0.269001 0.0149081
0.925002 0.273136 0.016083
0.943755 0.27747 0.0171969
0.962493 0.2822 0.018204
0.981247 0.286 0.018967
1 0.289265 0.0195468
0 0.302831 0
0.0187381 0.305241 0
0.0374914 0.307378 0
0.0562448 0.309148 0
0.0749981 0.309819 0
0.0937362 0.308949 0
0.11252 0.30782 0
0.133242 0.306905 0
0.159777 0.307057 0
0.19855 0.306432 0
0.248463 0.302617 0
0.303578 0.297963 0
0.362554 0.294026 0
0.424994 0.290608 0
0.490364 0.287388 0
0.55465 0.284581 1.5259e-05
0.612009 0.283223 0.000244144
0.660044 0.284566 0.00175479
0.701534 0.287037 0.00460822
0.739208 0.29044 0.00860609
0.770443 0.294408 0.0128634
0.793225 0.297917 0.0160983
0.812497 0.300221 0.0175479
0.83125 0.302571 0.018204
0.850004 0.30518 0.0187686
0.868742 0.308507 0.01944
0.887495 0.31223 0.0201267
0.906249 0.31635 0.0207523
0.925002 0.320867 0.0214237
0.943755 0.325673 0.0220188
0.962493 0.330236 0.0224613
0.981247 0.334249 0.0228275
1 0.337835 0.0231479
0 0.347601 0
0.0187381 0.350698 0
0.0374914 0.353429 0
0.0562448 0.355856 0
0.0749981 0.357031 0
0.0937362 0.356466 0
0.11249 0.355184 0
0.131792 0.354345 0
0.154406 0.355016 0
0.188251 0.356085 0
0.238453 0.354284 0
0.297414 0.348867 0
0.358343 0.343648 0
0.419333 0.340047 0
0.48246 0.337789 0
0.547356 0.335775 0.000106813
0.60827 0.335119 0.000946059
0.659159 0.336004 0.00392157
0.702693 0.338369 0.00834669
0.741878 0.341665 0.013138
0.772457 0.345434 0.0176852
0.793744 0.348852 0.0210117
0.812497 0.351156 0.022385
0.83125 0.353063 0.0227665
0.850004 0.355505 0.0230411
0.868742 0.358785 0.0233616
0.887495 0.362509 0.023682
0.906249 0.366827 0.0239567
0.925002 0.371527 0.0242466
0.943755 0.37615 0.0245212
0.962493 0.380926 0.0247959
0.981247 0.385092 0.0250706
1 0.388815 0.0253147
0 0.396536 0
0.0187381 0.40029 0
0.0374914 0.403693 0
0.0562448 0.406683 0
0.0749981 0.408148 0
0.0937362 0.407691 0
0.11249 0.406394 0
0.131319 0.405478 0
0.151858 0.406134 0
0.181384 0.408576 0
0.228962 0.408499 0
0.28925 0.403616 0
0.353674 0.396902 0
0.416098 0.391775 0
0.476829 0.389013 0
0.539254 0.387701 0.000137331
0.59997 0.386923 0.00114443
0.653193 0.388113 0.00485237
0.698955 0.3906 0.00959792
0.739605 0.394018 0.0146181
0.771969 0.398413 0.01944
0.793698 0.402106 0.0231327
0.812497 0.404501 0.0248264
0.83125 0.406241 0.0252689
0.850004 0.408698 0.0254063
0.868742 0.411917 0.0255894
0.887495 0.416052 0.0258183
0.906249 0.420005 0.0260319
0.925002 0.424262 0.0262455
0.943755 0.428748 0.0264591
0.962493 0.433509 0.026688
0.981247 0.437873 0.0269474
1 0.441962 0.0271916
0 0.448981 0
0.0187381 0.453101 0
0.0374914 0.457221 0
0.0562448 0.460456 0
0.0749981 0.462074 0
0.0937362 0.461677 0
0.11249 0.460502 0
0.131243 0.459464 0
0.150988 0.459846 0
0.177447 0.462303 0
0.221118 0.463447 0
0.279271 0.459907 0
0.346273 0.452735 0
0.412879 0.445716 0
0.474495 0.441215 0
0.533928 0.438972 4.57771e-05
0.591852 0.438315 0.000701915
0.645365 0.439811 0.0043946
0.692592 0.442939 0.00943008
0.734829 0.447227 0.014847
0.769985 0.451682 0.019913
0.793332 0.455909 0.0240635
0.812497 0.458915 0.0264134
0.83125 0.461036 0.0271916
0.850004 0.463325 0.0273747
0.868742 0.46659 0.0275578
0.887495 0.470024 0.0277256
0.906249 0.473793 0.0279088
0.925002 0.477821 0.0280613
0.943755 0.482078 0.0281834
0.962493 0.486839 0.0283207
0.981247 0.491295 0.0284428
1 0.494972 0.0285191
0 0.503578 0
0.0187381 0.50811 0
0.0374914 0.512078 0
0.0562448 0.515251 0
0.0749981 0.516838 0
0.0937362 0.516777 0
0.11249 0.515572 0
0.131243 0.514321 0
0.150546 0.513863 0
0.174273 0.516167 0
0.214252 0.517754 0
0.268788 0.515969 0
0.335821 0.509972 0
0.406485 0.501534 0
0.472251 0.494575 0
0.532052 0.490974 0
0.587793 0.489952 0.000442512
0.639078 0.491478 0.00376898
0.686 0.495109 0.00883497
0.728573 0.499382 0.0144045
0.765652 0.504234 0.0196384
0.792187 0.508827 0.0241245
0.812482 0.512489 0.0270848
0.83125 0.515373 0.0283513
0.850004 0.517769 0.0286412
0.868742 0.520363 0.0286412
0.887495 0.523445 0.0285954
0.906249 0.526955 0.0285496
0.925002 0.530755 0.0284886
0.943755 0.535241 0.028397
0.962493 0.539528 0.0283207
0.981247 0.54342 0.0282292
1 0.5467 0.0280766
0 0.557885 0
0.0187381 0.562158 0
0.0374914 0.565835 0
0.0562448 0.568887 0
0.0749981 0.570352 0
0.0937362 0.570565 0
0.11249 0.569512 0
0.131243 0.567956 0
0.150317 0.566964 0
0.172534 0.568933 0
0.210254 0.571206 0
0.261295 0.571206 1.5259e-05
0.325383 0.566934 3.0518e-05
0.397543 0.55903 1.5259e-05
0.468315 0.550286 0
0.531441 0.544182 0
0.587396 0.542184 0.000350958
0.636332 0.54316 0.00303655
0.68069 0.545953 0.00756847
0.721767 0.550042 0.0126955
0.759594 0.554604 0.0177462
0.790127 0.559243 0.0221714
0.812284 0.563455 0.0254368
0.83125 0.566644 0.0272221
0.850004 0.569085 0.0277562
0.868742 0.571679 0.0276951
0.887495 0.574594 0.0275273
0.906249 0.577951 0.0273289
0.925002 0.581521 0.0271153
0.943755 0.585138 0.0268711
0.962493 0.588724 0.026566
0.981247 0.591867 0.0262913
1 0.594553 0.0260471
0 0.609995 0
0.0187381 0.614008 0
0.0374914 0.617731 0
0.0562448 0.620768 0
0.0749981 0.622629 0
0.0937362 0.622538 0
0.11249 0.621485 0
0.131243 0.620081 0
0.150378 0.618906 0
0.174029 0.620752 0
0.211765 0.623545 1.5259e-05
0.260014 0.624247 0.000213626
0.320195 0.621515 0.000335698
0.390524 0.614984 0.000244144
0.463706 0.605936 6.10361e-05
0.531182 0.597787 4.57771e-05
0.588952 0.593393 0.000396735
0.636851 0.592889 0.00297551
0.679255 0.594675 0.00688182
0.717906 0.59791 0.0111543
0.754131 0.601648 0.0154269
0.786297 0.605875 0.0192569
0.81117 0.60972 0.0223239
0.83125 0.613153 0.0243687
0.850004 0.616236 0.02533
0.868742 0.618891 0.0255131
0.887495 0.621729 0.0252995
0.906249 0.624567 0.0250553
0.925002 0.627161 0.0248417
0.943755 0.629984 0.0245975
0.962493 0.632837 0.0243534
0.981247 0.635355 0.024155
1 0.637613 0.0239567
0.000259403 0.6607 0.000213626
0.0193332 0.664424 0.000503548
0.0384222 0.667979 0.000793469
0.0574502 0.670985 0.0010071
0.0762188 0.672541 0.000991836
0.0946365 0.672587 0.00062562
0.112886 0.671641 0.000198367
0.131273 0.670344 0
0.150759 0.669352 4.57771e-05
0.178561 0.670619 0.00062562
0.217609 0.673182 0.00289921
0.264134 0.674144 0.0049897
0.320699 0.672175 0.00560006
0.387945 0.666606 0.00453193
0.461555 0.658228 0.00274662
0.531334 0.648829 0.00163272
0.591592 0.641871 0.00180056
0.639582 0.639597 0.00410468
0.680537 0.640085 0.00726329
0.717372 0.642069 0.0107271
0.751431 0.644892 0.0141146
0.783261 0.647959 0.0171206
0.810101 0.651194 0.0196078
0.83122 0.654353 0.0214847
0.850004 0.657145 0.0227359
0.868742 0.659861 0.0233463
0.887495 0.662348 0.0234531
0.906249 0.664637 0.023331
0.925002 0.66685 0.0231632
0.943755 0.6692 0.0229953
0.962493 0.671519 0.0228428
0.981247 0.673732 0.0226749
1 0.675456 0.0225528
0.00538643 0.708888 0.00500496
0.0254215 0.712779 0.00627146
0.0453193 0.716075 0.00738537
0.0649271 0.718502 0.00820935
0.0841382 0.719936 0.00865187
0.102739 0.719905 0.00849927
0.121035 0.719051 0.00805676
0.139437 0.718044 0.00762951
0.158816 0.716793 0.00729381
0.188067 0.717479 0.00885023
0.226551 0.719478 0.0120241
0.271565 0.720287 0.0144045
0.325353 0.71841 0.0146334
0.390051 0.713222 0.0124666
0.461357 0.704692 0.00891127
0.532143 0.694942 0.00595102
0.59472 0.686458 0.00476081
0.643229 0.682292 0.00602731
0.683314 0.681376 0.00842298
0.718685 0.682322 0.0111543
0.750973 0.684047 0.0138094
0.781353 0.686198 0.0161746
0.808286 0.688548 0.0181735
0.830564 0.690944 0.0197299
0.850004 0.693507 0.0208743
0.868742 0.695857 0.0216526
0.887495 0.6981 0.0220798
0.906249 0.700175 0.0222019
0.925002 0.702113 0.0220951
0.943755 0.704036 0.0219883
0.962493 0.705974 0.0218814
0.981247 0.7075 0.0218051
1 0.708553 0.0217594
0.0155489 0.754513 0.0149691
0.0358892 0.757839 0.0165713
0.0560159 0.760494 0.0179294
0.0757458 0.761746 0.0189059
0.0949721 0.762158 0.019379
0.113588 0.761669 0.0192569
0.131991 0.760998 0.0189059
0.150378 0.760159 0.0183719
0.169726 0.75935 0.0179141
0.198672 0.759823 0.019379
0.236271 0.760937 0.0220493
0.28014 0.761425 0.0238499
0.331945 0.759533 0.0232395
0.394018 0.754238 0.0200046
0.46331 0.745815 0.0152743
0.533806 0.735912 0.0108492
0.597086 0.726619 0.00817884
0.646967 0.721096 0.00834669
0.686412 0.718914 0.00996414
0.7205 0.718868 0.0120546
0.751583 0.719768 0.0141146
0.780789 0.721141 0.0159915
0.807446 0.722759 0.0175784
0.830243 0.72462 0.0188296
0.850004 0.726452 0.019791
0.868742 0.728328 0.0205234
0.887495 0.730251 0.0210574
0.906249 0.732036 0.0213779
0.925002 0.7337 0.0214542
0.943755 0.735378 0.0214237
0.962493 0.736767 0.0213931
0.981247 0.737942 0.0213626
1 0.738705 0.0213321
0.0264744 0.789425 0.0258488
0.0464179 0.790875 0.0270542
0.0662242 0.791897 0.0280919
0.0856794 0.79202 0.0287938
0.104768 0.791882 0.0291295
0.123354 0.791501 0.0289769
0.141695 0.791104 0.0285649
0.160174 0.790814 0.0280919
0.179599 0.7906 0.0276951
0.208499 0.790738 0.0287938
0.245655 0.791089 0.0307927
0.288136 0.79115 0.031693
0.338964 0.790204 0.0302129
0.399374 0.787457 0.0261997
0.466743 0.781765 0.0206455
0.535744 0.772717 0.0152132
0.5991 0.763241 0.01149
0.649638 0.756588 0.0105592
0.688991 0.753414 0.0115206
0.722301 0.752499 0.013077
0.752544 0.752697 0.0146944
0.780911 0.753384 0.0161746
0.807324 0.754513 0.0174563
0.830167 0.755703 0.0184634
0.850004 0.757092 0.0192569
0.868742 0.758511 0.0198825
0.887495 0.75996 0.0204013
0.906249 0.761486 0.0207828
0.925002 0.76289 0.0210269
0.943755 0.764202 0.0211032
0.962493 0.765301 0.0211185
0.981247 0.766247 0.0211185
1 0.766873 0.0211032
0.0347753 0.812497 0.0341192
0.0543374 0.812497 0.0349126
0.0737469 0.812497 0.035584
0.0929885 0.812497 0.0360571
0.111849 0.812497 0.0361791
0.130434 0.812497 0.0360113
0.148882 0.812497 0.0357214
0.167514 0.812497 0.0354009
0.187045 0.812497 0.0350652
0.217166 0.812497 0.0361181
0.253834 0.812497 0.0374304
0.295872 0.812497 0.0375982
0.346151 0.812299 0.0353552
0.405646 0.811612 0.0306554
0.47126 0.809567 0.0245823
0.537911 0.804532 0.0186618
0.600061 0.796719 0.0142061
0.651209 0.789548 0.0124056
0.690547 0.785626 0.0128328
0.723613 0.783886 0.0139773
0.753491 0.783429 0.015259
0.781338 0.783581 0.0164645
0.807507 0.784146 0.0175021
0.830243 0.784909 0.0183413
0.849989 0.78584 0.0190127
0.868742 0.786908 0.0195468
0.887495 0.788083 0.0199893
0.906249 0.789212 0.0203708
0.925002 0.790326 0.020676
0.943755 0.791379 0.0208286
0.962493 0.792279 0.0209201
0.981247 0.793027 0.0209354
1 0.793576 0.0209201
0.039765 0.83125 0.0390631
0.0588998 0.83125 0.0394598
0.0779583 0.83125 0.039765
0.0968643 0.83125 0.0399176
0.115602 0.83125 0.0399023
0.134234 0.83125 0.0397955
0.152834 0.83125 0.0396429
0.171786 0.83125 0.0395361
0.192416 0.83125 0.0395514
0.223865 0.83125 0.0406348
0.260517 0.83125 0.0416419
0.302892 0.83125 0.0412299
0.353323 0.83125 0.0384527
0.412009 0.831235 0.0333715
0.475334 0.830961 0.0271305
0.539635 0.829602 0.0210117
0.600748 0.82594 0.0160983
0.651942 0.820188 0.0137179
0.691249 0.815869 0.0137942
0.724468 0.813489 0.0146334
0.754147 0.81236 0.0156558
0.781659 0.812039 0.0166781
0.807721 0.812177 0.0175631
0.830304 0.812573 0.0182803
0.849958 0.813214 0.0188602
0.868742 0.814008 0.0193179
0.887495 0.814817 0.0197147
0.906249 0.815702 0.0200656
0.925002 0.816556 0.0203555
0.943755 0.817365 0.0205844
0.962493 0.818128 0.0207065
0.981247 0.818692 0.0207218
1 0.819043 0.0207065
0.0413977 0.850004 0.0406958
0.0601816 0.850004 0.0407416
0.0789349 0.850004 0.0407263
0.097673 0.850004 0.0407263
0.116426 0.850004 0.0407263
0.13518 0.850004 0.0407416
0.153948 0.850004 0.0407416
0.173312 0.850004 0.0408026
0.195911 0.850004 0.0411994
0.228717 0.850004 0.0425116
0.265949 0.850004 0.0434119
0.309071 0.850004 0.0426947
0.359991 0.850004 0.0396277
0.417639 0.850004 0.0344854
0.479149 0.849989 0.0283055
0.541436 0.849897 0.0222171
0.60119 0.849317 0.0171511
0.651667 0.846677 0.0145876
0.691295 0.843824 0.0143435
0.724758 0.841535 0.0149691
0.754513 0.839979 0.0158541
0.781903 0.8392 0.0167544
0.807797 0.838972 0.0175326
0.830289 0.839124 0.0181888
0.849897 0.83946 0.0186923
0.868742 0.839948 0.019089
0.887495 0.840513 0.0194553
0.906249 0.841169 0.0197757
0.925002 0.841794 0.0200504
0.943755 0.842435 0.0202945
0.962493 0.842939 0.0204166
0.981247 0.843351 0.0204318
1 0.84361 0.0204166
0.0414435 0.868742 0.0407416
0.0601816 0.868742 0.0407416
0.0789349 0.868742 0.0407416
0.0976883 0.868742 0.0407416
0.116442 0.868742 0.0407416
0.13518 0.868742 0.0407416
0.153948 0.868742 0.0407416
0.173632 0.868742 0.0408331
0.198566 0.868742 0.0415045
0.232639 0.868742 0.0429694
0.270726 0.868742 0.0437018
0.314321 0.868742 0.042771
0.365133 0.868742 0.0395666
0.422232 0.868742 0.0344396
0.48246 0.868742 0.0284276
0.543069 0.868742 0.0225528
0.601389 0.868727 0.0175631
0.650797 0.86833 0.0150149
0.690669 0.867613 0.0145113
0.724529 0.866316 0.0149996
0.754467 0.86508 0.0158083
0.781872 0.864317 0.0166476
0.807706 0.863981 0.01738
0.830182 0.863935 0.0179751
0.849897 0.864042 0.0184482
0.868742 0.864271 0.0188144
0.887495 0.864591 0.0191501
0.906249 0.864973 0.01944
0.925002 0.86537 0.0197147
0.943755 0.865721 0.0199435
0.962493 0.866026 0.0200504
0.981247 0.866255 0.0200504
1 0.866392 0.0200504
0.0414435 0.887495 0.0407416
0.0601816 0.887495 0.0407416
0.0789349 0.887495 0.0407416
0.0976883 0.887495 0.0407416
0.116442 0.887495 0.0407416
0.13518 0.887495 0.0407416
0.154025 0.887495 0.0407416
0.174212 0.887495 0.0408942
0.201678 0.887495 0.041825
0.236515 0.887495 0.0432136
0.274983 0.887495 0.0437018
0.318715 0.887495 0.0424964
0.369528 0.887495 0.0390631
0.42623 0.887495 0.033875
0.485344 0.887495 0.0280613
0.544808 0.887495 0.022385
0.601083 0.887495 0.0177005
0.649409 0.887495 0.0151522
0.689555 0.88748 0.0144503
0.723751 0.88716 0.0148165
0.753933 0.886748 0.0155795
0.78143 0.886473 0.0163882
0.807141 0.886305 0.0171054
0.829938 0.886244 0.0176852
0.849943 0.886259 0.0181277
0.868742 0.886305 0.0184939
0.887495 0.886412 0.0188144
0.906249 0.886534 0.019089
0.925002 0.886641 0.0193637
0.943755 0.886748 0.0195926
0.962493 0.886839 0.0196841
0.981247 0.8869 0.0196841
1 0.886946 0.0196841
0.0414435 0.906249 0.0407416
0.0601816 0.906249 0.0407416
0.0789349 0.906249 0.0407416
0.0976883 0.906249 0.0407416
0.116442 0.906249 0.0407416
0.135195 0.906249 0.0407416
0.15433 0.906249 0.0407721
0.175601 0.906249 0.0410468
0.205417 0.906249 0.0421912
