datas/cubes/TC - FORWARD_20.cube
TITLE "Generate by Resolve"
LUT_3D_SIZE 5
0 0.00169375 0.00561532
0.22034 0.000701915 0.000915541
0.585077 0 0
0.8 0 0
1 0 0
0.00889601 0.214206 0
0.21413 0.21413 0.000839246
0.580316 0.199985 0
0.8 0.199985 0
1 0.199985 0
0.0692454 0.488106 0
0.27924 0.501213 0
0.541604 0.511971 0.0272831
0.8 0.510323 0
1 0.531685 0
0.153689 0.77908 0
0.353689 0.77908 0
0.6 0.776837 0
0.8 0.791074 0
1 0.791074 0
0.153689 0.979095 0
0.353689 0.979095 0
0.6 0.979355 0
0.8 0.991073 0
1 0.991073 0
0.00135805 0.000122072 0.232685
0.217411 0.000137331 0.228641
0.582208 0 0.199985
0.8 0 0.199985
1 0 0.199985
0.000122072 0.215595 0.218143
0.209354 0.214908 0.220813
0.584115 0.199985 0.199985
0.8 0.199985 0.199985
1 0.199985 0.199985
0.0719921 0.491524 0.199985
0.282383 0.505852 0.199985
0.546777 0.515908 0.226749
0.8 0.514244 0.199985
1 0.534859 0.199985
0.153689 0.77908 0.199985
0.353689 0.77908 0.199985
0.6 0.776822 0.199985
0.8 0.791074 0.199985
1 0.791074 0.199985
0.153689 0.979095 0.199985
0.353689 0.979095 0.199985
0.6 0.978637 0.199985
0.8 0.991073 0.199985
1 0.991073 0.199985
0.00494392 0 0.6
0.21088 0 0.6
0.554879 0 0.566354
0.8 0 0.536324
1 0 0.544152
0.00343328 0.199985 0.6
0.205295 0.199985 0.6
0.570047 0.199985 0.581384
0.8 0.199985 0.57232
1 0.199985 0.593774
0.0113527 0.507698 0.510384
0.20676 0.523354 0.524636
0.517128 0.521935 0.540505
0.78941 0.519371 0.523445
0.992126 0.537469 0.54168
0.0248417 0.8 0.401053
0.215488 0.8 0.406363
0.563394 0.787457 0.447028
0.8 0.793851 0.439918
1 0.793759 0.435889
0 1 0.459983
0.199985 1 0.447044
0.565164 0.98732 0.46717
0.8 0.993194 0.420874
1 0.992523 0.409781
0.00494392 0 0.8
0.205707 0 0.8
0.551553 0 0.8
0.8 0 0.8
1 0 0.8
0.00463874 0.199985 0.8
0.20441 0.199985 0.8
0.567727 0.199985 0.8
0.8 0.199985 0.8
1 0.199985 0.8
0.00657664 0.500313 0.8
0.20322 0.516243 0.8
0.52224 0.518608 0.785641
0.792798 0.515557 0.790646
0.99382 0.53312 0.79147
0 0.8 0.79176
0.199985 0.8 0.79176
0.431724 0.8 0.79852
0.8 0.799191 0.79794
1 0.798764 0.798077
0 1 0.79176
0.199985 1 0.79176
0.430457 1 0.798703
0.796033 0.99939 0.791333
1 0.998398 0.787533
0.00494392 0 1
0.205539 0 1
0.550683 0 1
0.8 0 1
1 0 1
0.00462348 0.199985 1
0.20473 0.199985 1
0.573999 0.199985 1
0.8 0.199985 1
1 0.199985 1
0.00503548 0.508232 1
0.201343 0.525902 1
0.529854 0.525933 0.986877
0.79292 0.521935 0.990723
0.994232 0.53727 0.991821
0 0.8 0.99176
0.199985 0.8 0.99176
0.434394 0.8 0.998459
0.8 0.7991 0.997925
1 0.798779 0.998077
0 1 0.99176
0.199985 1 0.99176
0.426078 1 0.998657
0.790555 0.999954 0.996414
1 0.999176 0.998016
