datas/cubes/TC - INTREPID_20..cube
TITLE "Generate by Resolve"
LUT_3D_SIZE 33
0.00366217 0.00872816 0.0140536
0.0310826 0.00840772 0.0137789
0.0585946 0.00808728 0.013489
0.0863966 0.00773632 0.0130159
0.114321 0.00735485 0.0124971
0.142657 0.00691234 0.0117952
0.171466 0.00639353 0.0109712
0.201038 0.00575265 0.0099794
0.231617 0.00495918 0.00874342
0.263264 0.00401312 0.00729381
0.296071 0.00294499 0.00564584
0.330953 0.00149538 0.00366217
0.368597 0 0.00115969
0.409491 0 0
0.455985 0 0
0.516884 0 0
0.575341 0 0
0.620005 0 0
0.649989 0 0
0.674998 0 0
0.699992 0 0
0.725002 0 0
0.749996 0 0
0.77499 0 0
0.8 0 0
0.824994 0 0
0.850004 0 0
0.874998 0 0
0.899992 0 0
0.925002 0 0
0.949996 0 0
0.975006 0 0
1 0 0
0.00262455 0.0355077 0.0127108
0.0299382 0.0351873 0.0125887
0.057435 0.0348363 0.0124514
0.0852522 0.0344549 0.0121309
0.113222 0.0340124 0.0117647
0.141573 0.0335088 0.0111696
0.170489 0.0328374 0.0104982
0.200198 0.0319371 0.00967422
0.231052 0.0307469 0.00859083
0.262898 0.0292973 0.00729381
0.295735 0.027985 0.00570687
0.330571 0.0265507 0.00373846
0.368093 0.0249943 0.00122072
0.409003 0.0249943 0
0.455146 0.0249943 0
0.515862 0.0249943 0
0.574884 0.0249943 0
0.61973 0.0249943 0
0.649989 0.0249943 0
0.674998 0.0249943 0
0.699992 0.0249943 0
0.725002 0.0249943 0
0.749996 0.0249943 0
0.77499 0.0249943 0
0.8 0.0249943 0
0.824994 0.0249943 0
0.850004 0.0249943 0
0.874998 0.0249943 0
0.899992 0.0249943 0
0.925002 0.0249943 0
0.949996 0.0249943 0
0.975006 0.0249943 0
1 0.0249943 0
0.00157168 0.0623331 0.011368
0.028748 0.0620127 0.011368
0.0562295 0.0616922 0.0113527
0.0840467 0.0612802 0.0111696
0.112032 0.060853 0.0109407
0.140398 0.0603189 0.0104524
0.169329 0.0596628 0.00985733
0.19913 0.0587472 0.00914015
0.230182 0.0575265 0.00813306
0.262348 0.0560006 0.00694286
0.295659 0.0542153 0.00552377
0.330419 0.0520027 0.00373846
0.367926 0.0500191 0.00125124
0.408743 0.0499886 0
0.454887 0.0499886 0
0.515663 0.0499886 0
0.574884 0.0499886 0
0.619806 0.0499886 0
0.649989 0.0499886 0
0.674998 0.0499886 0
0.699992 0.0499886 0
0.725002 0.0499886 0
0.749996 0.0499886 0
0.77499 0.0499886 0
0.8 0.0499886 0
0.824994 0.0499886 0
0.850004 0.0499886 0
0.874998 0.0499886 0
0.899992 0.0499886 0
0.925002 0.0499886 0
0.949996 0.0499886 0
0.975006 0.0499886 0
1 0.0499886 0
0.000869764 0.0890364 0.0108949
0.0277562 0.0888228 0.0107576
0.0551308 0.0885328 0.010605
0.0828412 0.0882124 0.0103151
0.110689 0.0878157 0.0100404
0.139086 0.0872969 0.00959792
0.168032 0.0866255 0.00909438
0.19794 0.0857252 0.00846876
0.229175 0.0844434 0.00762951
0.261891 0.0827802 0.0065156
0.295689 0.0808576 0.00523384
0.330694 0.0786603 0.00360113
0.368063 0.0761578 0.00128176
0.408759 0.0750744 0
0.455146 0.0749828 0
0.516167 0.0749828 0
0.575463 0.0749828 0
0.620233 0.0749828 0
0.649989 0.0749828 0
0.674998 0.0749828 0
0.699992 0.0749828 0
0.725002 0.0749828 0
0.749996 0.0749828 0
0.77499 0.0749828 0
0.8 0.0749828 0
0.824994 0.0749828 0
0.850004 0.0749828 0
0.874998 0.0749828 0
0.899992 0.0749828 0
0.925002 0.0749828 0
0.949996 0.0749828 0
0.975006 0.0749828 0
1 0.0749828 0
0.00015259 0.11577 0.0104219
0.0267033 0.115618 0.010193
0.0539712 0.115419 0.00987259
0.0815442 0.11516 0.00949111
0.1093 0.114839 0.00909438
0.137682 0.114382 0.00869764
0.166567 0.113741 0.00827039
0.196536 0.112856 0.00773632
0.227909 0.111604 0.00701915
0.26096 0.109926 0.00604257
0.295445 0.107851 0.00488289
0.331014 0.105531 0.00341802
0.36849 0.102724 0.00128176
0.409033 0.100389 0
0.45478 0.0999924 0
0.516075 0.0999924 0
0.576272 0.0999924 0
0.621012 0.0999924 0
0.649989 0.0999924 0
0.674998 0.0999924 0
0.699992 0.0999924 0
0.725002 0.0999924 0
0.749996 0.0999924 0
0.77499 0.0999924 0
0.8 0.0999924 0
0.824994 0.0999924 0
0.850004 0.0999924 0
0.874998 0.0999924 0
0.899992 0.0999924 0
0.925002 0.0999924 0
0.949996 0.0999924 0
0.975006 0.0999924 0
1 0.0999924 0
7.62951e-05 0.142794 0.00944533
0.0260319 0.142672 0.00927749
0.0528572 0.142565 0.00891127
0.0801709 0.142351 0.00854505
0.107881 0.142123 0.00813306
0.13611 0.141726 0.00775158
0.16495 0.141176 0.00735485
0.194934 0.140352 0.00689708
0.226413 0.139086 0.00633249
0.259831 0.137346 0.00550851
0.295094 0.135088 0.00448615
0.331182 0.132708 0.00321965
0.368948 0.129976 0.00128176
0.409506 0.126772 0
0.454444 0.125124 0
0.514092 0.124987 0
0.574762 0.124987 0
0.621637 0.124987 0
0.649989 0.124987 0
0.674998 0.124987 0
0.699992 0.124987 0
0.725002 0.124987 0
0.749996 0.124987 0
0.77499 0.124987 0
0.8 0.124987 0
0.824994 0.124987 0
0.850004 0.124987 0
0.874998 0.124987 0
0.899992 0.124987 0
0.925002 0.124987 0
0.949996 0.124987 0
0.975006 0.124987 0
1 0.124987 0
0 0.169955 0.00842298
0.0254063 0.169924 0.00830091
0.0517281 0.169863 0.00791943
0.0785992 0.169757 0.00753796
0.106233 0.169635 0.00712596
0.134325 0.16936 0.00674449
0.163027 0.168917 0.00636301
0.193011 0.16817 0.00598154
0.224491 0.16701 0.00553903
0.258106 0.165301 0.00492866
0.294102 0.163027 0.0040589
0.33109 0.160479 0.00299077
0.369375 0.157702 0.00131228
0.410071 0.15433 0
0.454597 0.150881 0
0.512001 0.149996 0
0.573068 0.149996 0
0.621683 0.149996 0
0.649989 0.149996 0
0.674998 0.149996 0
0.699992 0.149996 0
0.725002 0.149996 0
0.749996 0.149996 0
0.77499 0.149996 0
0.8 0.149996 0
0.824994 0.149996 0
0.850004 0.149996 0
0.874998 0.149996 0
0.899992 0.149996 0
0.925002 0.149996 0
0.949996 0.149996 0
0.975006 0.149996 0
1 0.149996 0
0 0.197498 0.00733959
0.0249943 0.197528 0.00732433
0.050721 0.197574 0.00689708
0.0767376 0.19762 0.00648508
0.104295 0.197604 0.00604257
0.132204 0.197482 0.00564584
0.160739 0.197223 0.00526436
0.190585 0.196658 0.00494392
0.221958 0.195697 0.00460822
0.255711 0.19408 0.00419623
0.292302 0.19173 0.00358587
0.330465 0.189029 0.00276188
0.369574 0.186175 0.00137331
0.410544 0.182986 1.5259e-05
0.454734 0.179217 0
0.509865 0.175265 0
0.571298 0.17499 0
0.620706 0.17499 0
0.649989 0.17499 0
0.674998 0.17499 0
0.699992 0.17499 0
0.725002 0.17499 0
0.749996 0.17499 0
0.77499 0.17499 0
0.8 0.17499 0
0.824994 0.17499 0
0.850004 0.17499 0
0.874998 0.17499 0
0.899992 0.17499 0
0.925002 0.17499 0
0.949996 0.17499 0
0.975006 0.17499 0
1 0.17499 0
0 0.225513 0.00613413
0.0249943 0.225574 0.00610361
0.0501411 0.225742 0.00582895
0.0753796 0.225956 0.00537118
0.102251 0.226123 0.00491341
0.129747 0.226276 0.00444038
0.158145 0.22623 0.00404364
0.187671 0.22591 0.00373846
0.218784 0.225193 0.00350958
0.25243 0.223835 0.00334173
0.289525 0.221607 0.0030518
0.329015 0.218784 0.002533
0.369223 0.215824 0.00151064
0.410788 0.212833 0.00015259
0.454948 0.209354 0
0.508003 0.2038 0
0.569711 0.200351 0
0.619883 0.199985 0
0.649989 0.199985 0
0.674998 0.199985 0
0.699992 0.199985 0
0.725002 0.199985 0
0.749996 0.199985 0
0.77499 0.199985 0
0.8 0.199985 0
0.824994 0.199985 0
0.850004 0.199985 0
0.874998 0.199985 0
0.899992 0.199985 0
0.925002 0.199985 0
0.949996 0.199985 0
0.975006 0.199985 0
1 0.199985 0
0 0.254215 0.00477607
0.0249943 0.254398 0.00471504
0.0499886 0.254597 0.004654
0.0749828 0.255009 0.00418097
0.100526 0.255436 0.00369268
0.127169 0.255833 0.00320439
0.155093 0.256123 0.00276188
0.184222 0.256229 0.00239567
0.214893 0.255955 0.00222782
0.248157 0.255024 0.00225834
0.285328 0.253117 0.00234989
0.325887 0.25037 0.00224308
0.36788 0.24741 0.00161746
0.410483 0.24448 0.000320439
0.455024 0.241459 0
0.506203 0.236912 0
0.567727 0.23032 0
0.619623 0.227253 0
0.649989 0.22649 0
0.674998 0.226322 0
0.699992 0.225635 0
0.725002 0.22504 0
0.749996 0.224994 0
0.77499 0.224994 0
0.8 0.224994 0
0.824994 0.224994 0
0.850004 0.224994 0
0.874998 0.224994 0
0.899992 0.224994 0
0.925002 0.224994 0
0.949996 0.224994 0
0.975006 0.224994 0
1 0.226398 0
0 0.284108 0.00321965
0.0249943 0.284428 0.0031281
0.0499886 0.28484 0.00300603
0.0749828 0.285328 0.00280766
0.0999924 0.285924 0.00241093
0.125383 0.286625 0.00195315
0.151675 0.287343 0.00148013
0.18027 0.288014 0.00103761
0.210346 0.288396 0.000839246
0.242954 0.288182 0.000961318
0.279622 0.286946 0.00137331
0.320653 0.284688 0.00172427
0.364462 0.281895 0.0015259
0.40885 0.279255 0.000656138
0.454093 0.276677 0
0.50399 0.273167 0
0.563622 0.267384 0
0.618616 0.262974 0
0.649989 0.261326 0
0.674998 0.26128 0
0.699992 0.259663 0
0.725002 0.257847 0
0.749996 0.256535 0
0.77499 0.255726 0
0.8 0.255375 0
0.824994 0.255299 0
0.850004 0.255573 0
0.874998 0.256123 0
0.899992 0.257069 0
0.925002 0.258869 0
0.949996 0.260914 0
0.975006 0.262898 0
1 0.264897 0
0 0.315679 0.00138857
0.0249943 0.316274 0.00123598
0.0499886 0.316899 0.00106813
0.0749828 0.317601 0.000885023
0.0999924 0.318364 0.000656138
0.124987 0.319249 0.000396735
0.149996 0.320363 0.000183108
0.176944 0.321599 6.10361e-05
0.206165 0.322789 0
0.237842 0.323583 0
0.273564 0.323323 0.00015259
0.314137 0.321965 0.000808728
0.359182 0.319631 0.00103761
0.405463 0.317281 0.000869764
0.451774 0.315206 0.00030518
0.500999 0.312703 0
0.557931 0.308309 0
0.615763 0.304112 0
0.649989 0.301869 0
0.674998 0.302022 0
0.699992 0.300816 0
0.725002 0.298955 0
0.749996 0.297688 0
0.77499 0.296895 0
0.8 0.296468 0
0.824994 0.296361 0
0.850004 0.296712 0
0.874998 0.2972 0
0.899992 0.298421 0
0.925002 0.300435 0
0.949996 0.302617 0
0.975006 0.304891 0
1 0.30724 0
0 0.349401 0
0.0249943 0.350332 0
0.0499886 0.351324 0
0.0749828 0.352422 0
0.0999924 0.353582 0
0.124987 0.354726 0
0.149996 0.356207 0
0.175219 0.357961 0
0.202625 0.35996 0
0.23386 0.361639 0
0.268605 0.362539 0
0.308263 0.362249 0.000137331
0.353124 0.360754 0.000595102
0.400641 0.358801 0.000717174
0.447959 0.357061 0.000610361
0.496956 0.355062 6.10361e-05
0.551232 0.351904 0
0.60914 0.348104 0
0.649989 0.345525 0
0.674998 0.34493 0
0.699992 0.344182 0
0.725002 0.342351 0
0.749996 0.341054 0
0.77499 0.34023 0
0.8 0.339742 0
0.824994 0.339742 0
0.850004 0.340078 0
0.874998 0.340581 0
0.899992 0.341863 0
0.925002 0.344167 0
0.949996 0.34667 0
0.975006 0.349157 0
1 0.351705 0
0 0.385916 0
0.0249943 0.387304 0
0.0499886 0.388922 0
0.0749828 0.390661 0
0.0999924 0.392493 0
0.124987 0.39408 0
0.149996 0.395514 0
0.17499 0.39736 0
0.200748 0.399786 0
0.230716 0.402197 0
0.265003 0.403876 0
0.303838 0.404532 0.000289921
0.347829 0.403952 0.000732433
0.395514 0.402396 0.000732433
0.443351 0.400916 0.00062562
0.492195 0.3991 0.000122072
0.544244 0.39675 0
0.599527 0.393668 0
0.649119 0.39118 0
0.674998 0.389654 0
0.699992 0.389258 0
0.725002 0.387488 0
0.749996 0.386007 0
0.77499 0.385092 0
0.8 0.38468 0
0.824994 0.384878 0
0.850004 0.385428 0
0.874998 0.386206 0
0.899992 0.387289 0
0.925002 0.390005 0
0.949996 0.392874 0
0.975006 0.395743 0
1 0.398566 0
0 0.425635 0
0.0249943 0.427649 0
0.0499886 0.429755 0
0.0749828 0.431937 0
0.0999924 0.434134 0
0.124987 0.436301 0
0.149996 0.438087 0
0.17499 0.439796 0
0.200122 0.4421 0
0.228336 0.444816 0
0.262715 0.446799 0.000106813
0.301015 0.447929 0.00117494
0.343984 0.447837 0.00170901
0.391257 0.44651 0.00143435
0.439033 0.444892 0.00103761
0.487678 0.443214 0.000274662
0.538445 0.441199 0
0.591043 0.439002 0
0.642786 0.437186 0
0.674998 0.435889 0
0.699992 0.435737 0
0.725002 0.434455 0
0.749996 0.433097 0
0.77499 0.432242 0
0.8 0.431983 0
0.824994 0.432288 0
0.850004 0.43299 0
0.874998 0.433936 0
0.899992 0.435019 0
0.925002 0.437949 0
0.949996 0.440879 0
0.975006 0.443793 0
1 0.446586 0
0 0.468193 0
0.0249943 0.470588 0
0.0499886 0.473228 0
0.0749828 0.475959 0
0.0999924 0.478691 0
0.124987 0.481254 0
0.149996 0.483436 0
0.17499 0.485267 0
0.199985 0.48687 0
0.225864 0.489082 0
0.259068 0.490867 7.62951e-05
0.29723 0.491966 0.00120546
0.339544 0.491951 0.00198367
0.386313 0.490684 0.00169375
0.434211 0.489235 0.00115969
0.482734 0.487755 0.000259403
0.532906 0.486015 0
0.583978 0.484413 0
0.634089 0.483192 0
0.674846 0.482536 0
0.699992 0.482536 0
0.725002 0.481987 0
0.749996 0.480888 0
0.77499 0.48011 0
0.8 0.480079 0
0.824994 0.480446 0
0.850004 0.481178 0
0.874998 0.482017 0
0.899992 0.483192 0
0.925002 0.485863 0
0.949996 0.488685 0
0.975006 0.491402 0
1 0.494057 0
0 0.513802 0
0.0249943 0.51667 0
0.0499886 0.519707 0
0.0749828 0.522759 0
0.0999924 0.525795 0
0.124987 0.52871 0
0.149996 0.531258 0
0.17499 0.533227 0
0.199985 0.534417 0
0.224994 0.535439 0
0.25304 0.53637 0
0.291264 0.536934 0.00015259
0.334142 0.536782 0.00184634
0.380896 0.535546 0.00205997
0.428962 0.534234 0.00138857
0.477409 0.532952 7.62951e-05
0.527382 0.531456 0
0.577401 0.53019 0
0.625849 0.529351 0
0.670405 0.529274 0
0.699992 0.529259 0
0.725002 0.529259 0
0.749996 0.528328 0
0.77499 0.527764 0
0.8 0.527703 0
0.824994 0.528069 0
0.850004 0.528649 0
0.874998 0.52958 0
0.899992 0.530663 0
0.925002 0.532753 0
0.949996 0.53521 0
0.975006 0.53753 0
1 0.539879 0
0 0.561532 0
0.0249943 0.564797 0
0.0499886 0.568109 0
0.0749828 0.571313 0
0.0999924 0.574517 0
0.124987 0.57763 0
0.149996 0.580301 0
0.17499 0.582315 0
0.199985 0.58349 0
0.224994 0.583947 0
0.250111 0.583978 0
0.281849 0.58381 0
0.325765 0.583124 0.000503548
0.373648 0.58146 0.00177005
0.423209 0.579644 0.00131228
0.472068 0.578164 3.0518e-05
0.522179 0.576455 0
0.571786 0.574884 0
0.619211 0.574105 0
0.663279 0.574075 0
0.699321 0.574075 0
0.725002 0.57406 0
0.749996 0.57348 0
0.77499 0.573098 0
0.8 0.573144 0
0.824994 0.573434 0
0.850004 0.573861 0
0.874998 0.574502 0
0.899992 0.575326 0
0.925002 0.576883 0
0.949996 0.578912 0
0.975006 0.580652 0
1 0.582361 0
0 0.610346 0
0.0249943 0.613611 0
0.0499886 0.616678 0
0.0749828 0.619654 0
0.0999924 0.622568 0
0.124987 0.625376 0
0.149996 0.627909 0
0.17499 0.629816 0
0.199985 0.630945 0
0.224994 0.631464 0
0.249989 0.631418 0
0.275227 0.631174 0
0.314504 0.630335 0
0.361837 0.628443 0.000198367
0.413474 0.625559 0.00030518
0.464775 0.622873 0
0.515877 0.620203 0
0.566461 0.617853 0
0.613993 0.616358 0
0.657176 0.615854 0
0.696254 0.615717 0
0.724987 0.615412 0
0.749996 0.615 0
0.77499 0.614679 0
0.8 0.614603 0
0.824994 0.614816 0
0.850004 0.615213 0
0.874998 0.615717 0
0.899992 0.616236 0
0.925002 0.61706 0
0.949996 0.618524 0
0.975006 0.619944 0
1 0.621302 0
0 0.657176 0
0.0249943 0.659968 0
0.0499886 0.662715 0
0.0749828 0.665431 0
0.0999924 0.667613 0
0.124987 0.669688 0
0.149996 0.671672 0
0.17499 0.673335 0
0.199985 0.674723 0
0.224994 0.674632 0
0.249989 0.674693 0
0.274998 0.674754 0
0.306462 0.674342 0
0.349432 0.673396 0
0.398733 0.670771 0
0.45333 0.666712 0
0.507042 0.662623 0
0.560021 0.658778 0
0.609262 0.655985 0
0.652781 0.654612 0
0.691768 0.653941 0
0.724666 0.653361 0
0.749996 0.652949 0
0.77499 0.652628 0
0.8 0.652476 0
0.824994 0.652506 0
0.850004 0.652674 0
0.874998 0.652964 0
0.899992 0.653391 0
0.925002 0.653849 0
0.949996 0.654902 0
0.975006 0.655833 0
1 0.656718 0
0 0.699351 0
0.0249943 0.699992 0
0.0499886 0.699992 0
0.0749828 0.699992 0
0.0999924 0.699992 0
0.124987 0.699992 0
0.149996 0.699992 0
0.17499 0.699992 0
0.199985 0.699992 0
0.224994 0.699992 0
0.249989 0.699992 0
0.274998 0.699992 0
0.303578 0.699992 0
0.342061 0.699992 0
0.385763 0.699992 0
0.438209 0.699992 0
0.495094 0.699046 0
0.550958 0.696925 0
0.60351 0.693538 0
0.648737 0.690913 0
0.687938 0.689403 0
0.723507 0.688487 0
0.749996 0.687831 0
0.77499 0.687434 0
0.8 0.687251 0
0.824994 0.687251 0
0.850004 0.687373 0
0.874998 0.687526 0
0.899992 0.687724 0
0.925002 0.687907 0
0.949996 0.688579 0
0.975006 0.689281 0
1 0.689937 0
0 0.725002 0
0.0249943 0.725002 0
0.0499886 0.725002 0
0.0749828 0.725002 0
0.0999924 0.725002 0
0.124987 0.725002 0
0.149996 0.725002 0
0.17499 0.725002 0
0.199985 0.725002 0
0.224994 0.725002 0
0.249989 0.725002 0
0.274998 0.725002 0
0.30367 0.725002 0
0.340612 0.725002 0
0.379477 0.725002 0
0.425437 0.725002 0
0.482795 0.725002 0
0.540825 0.725002 0
0.596796 0.724987 0
0.644862 0.724712 0
0.684703 0.722988 0
0.720775 0.721767 0
0.749996 0.720913 0
0.77499 0.720302 0
0.8 0.720058 0
0.824994 0.719921 0
0.850004 0.71989 0
0.874998 0.719936 0
0.899992 0.720058 0
0.925002 0.720165 0
0.949996 0.720546 0
0.975006 0.72108 0
1 0.721569 0
0 0.749996 0
0.0249943 0.749996 0
0.0499886 0.749996 0
0.0749828 0.749996 0
0.0999924 0.749996 0
0.124987 0.749996 0
0.149996 0.749996 0
0.17499 0.749996 0
0.199985 0.749996 0
0.224994 0.749996 0
0.249989 0.749996 0
0.274998 0.749996 0
0.303151 0.749996 0
0.339986 0.749996 0
0.377935 0.749996 0
0.421302 0.749996 0
0.475593 0.749996 0
0.533883 0.749996 0
0.590982 0.749996 0
0.640665 0.749996 0
0.681575 0.749996 0
0.717876 0.749996 0
0.749615 0.749996 0
0.77499 0.749996 0
0.8 0.749828 0
0.824994 0.749523 0
0.850004 0.74934 0
0.874998 0.749264 0
0.899992 0.749279 0
0.925002 0.749401 0
0.949996 0.749615 0
0.975006 0.749844 0
1 0.749996 0
0 0.77499 0
0.0249943 0.77499 0
0.0499886 0.77499 0
0.0749828 0.77499 0
0.0999924 0.77499 0
0.124987 0.77499 0
0.149996 0.77499 0
0.17499 0.77499 0
0.199985 0.77499 0
0.224994 0.77499 0
0.249989 0.77499 0
0.274998 0.77499 0
0.302602 0.77499 0
0.339422 0.77499 0
0.376761 0.77499 0
0.419043 0.77499 0
0.471351 0.77499 0
0.528862 0.77499 0
0.585916 0.77499 0
0.636469 0.77499 0
0.678431 0.77499 0
0.715114 0.77499 0
0.74786 0.77499 0
0.77499 0.77499 0
0.8 0.77499 0
0.824994 0.77499 0
0.850004 0.77499 0
0.874998 0.77499 0
0.899992 0.77499 0
0.925002 0.77499 0
0.949996 0.77499 0
0.975006 0.77499 0
1 0.77499 0
0 0.8 0
0.0249943 0.8 0
0.0499886 0.8 0
0.0749828 0.8 0
0.0999924 0.8 0
0.124987 0.8 0
0.149996 0.8 0
0.17499 0.8 0
0.199985 0.8 0
0.224994 0.8 0
0.249989 0.8 0
0.274998 0.8 0
0.302953 0.8 0
0.339162 0.8 0
0.376303 0.8 0
0.41828 0.8 0
0.469963 0.8 0
0.526925 0.8 0
0.583505 0.8 0
0.633997 0.8 0
0.676387 0.8 0
0.713054 0.8 0
0.746654 0.8 0
0.77499 0.8 0
0.8 0.8 0
0.824994 0.8 0
0.850004 0.8 0
0.874998 0.8 0
0.899992 0.8 0
0.925002 0.8 0
0.949996 0.8 0
0.975006 0.8 0
1 0.8 0
0 0.824994 0
0.0249943 0.824994 0
0.0499886 0.824994 0
0.0749828 0.824994 0
0.0999924 0.824994 0
0.124987 0.824994 0
0.149996 0.824994 0
0.17499 0.824994 0
0.199985 0.824994 0
0.224994 0.824994 0
0.249989 0.824994 0
0.274998 0.824994 0
0.302815 0.824994 0
0.339147 0.824994 0
0.376379 0.824994 0
0.417762 0.824994 0
0.469459 0.824994 0
0.526116 0.824994 0
0.582544 0.824994 0
0.632914 0.824994 0
0.675486 0.824994 0
0.711955 0.824994 0
0.745922 0.824994 0
0.774655 0.824994 0
0.8 0.824994 0
0.824994 0.824994 0
0.850004 0.824994 0
0.874998 0.824994 0
0.899992 0.824994 0
0.925002 0.824994 0
0.949996 0.824994 0
0.975006 0.824994 0
1 0.824994 0
0 0.850004 0
0.0249943 0.850004 0
0.0499886 0.850004 0
0.0749828 0.850004 0
0.0999924 0.850004 0
0.124987 0.850004 0
0.149996 0.850004 0
0.17499 0.850004 0
0.199985 0.850004 0
0.224994 0.850004 0
0.249989 0.850004 0
0.274998 0.850004 0
0.302556 0.850004 0
0.339223 0.850004 0
0.376379 0.850004 0
0.417762 0.850004 0
0.469001 0.850004 0
0.525444 0.850004 0
0.581613 0.850004 0
0.632166 0.850004 0
0.674647 0.850004 0
0.711238 0.850004 0
0.745144 0.850004 0
0.77438 0.850004 0
0.8 0.850004 0
0.824994 0.850004 0
0.850004 0.850004 0
0.874998 0.850004 0
0.899992 0.850004 0
0.925002 0.850004 0
0.949996 0.850004 0
0.975006 0.850004 0
1 0.850004 0
0 0.874998 0
0.0249943 0.874998 0
0.0499886 0.874998 0
0.0749828 0.874998 0
0.0999924 0.874998 0
0.124987 0.874998 0
0.149996 0.874998 0
0.17499 0.874998 0
0.199985 0.874998 0
