datas/cubes/TC - FLOURISH_20.cube
TITLE "Generate by Resolve"
LUT_3D_SIZE 5
0 0.00172427 0.00972
0.20943 0.000274662 0.00694286
0.557961 0 0
0.8 0 0
1 0 0
0 0.221576 0.000640879
0.202457 0.222477 0
0.570443 0.199985 0
0.8 0.199985 0
1 0.199985 0
0 0.514443 0
0.199985 0.533211 0
0.533761 0.51429 0.00653086
0.8 0.51545 0.00520333
1 0.524529 0.00759899
0.00280766 0.8 0.00215152
0.202792 0.8 0.00215152
0.532357 0.8 0
0.8 0.797681 0.0499733
1 0.797681 0.0499733
0.00280766 1 0.00215152
0.202792 1 0.00215152
0.540612 1 0.000274662
0.8 0.997696 0.0499733
1 0.997696 0.0499733
0 1.5259e-05 0.246357
0.207126 0 0.240696
0.55758 0 0.199985
0.8 0 0.199985
1 0 0.199985
0.000381476 0.218967 0.236896
0.204273 0.220905 0.237003
0.576242 0.200015 0.201694
0.8 0.199985 0.199985
1 0.199985 0.199985
0 0.520409 0.199985
0.199985 0.539818 0.199985
0.541924 0.520531 0.210437
0.8 0.520378 0.2065
1 0.529259 0.208957
0.00280766 0.8 0.202152
0.202792 0.8 0.202152
0.538537 0.8 0.199985
0.8 0.797681 0.249958
1 0.797681 0.249958
0.00280766 1 0.202152
0.202762 1 0.202213
0.541558 1 0.20032
0.8 0.997696 0.249958
1 0.997696 0.249958
0 0 0.598459
0.199985 0 0.595956
0.542855 0 0.537179
0.8 0 0.4878
1 0 0.478737
0 0.209384 0.592096
0.199985 0.211917 0.59762
0.569482 0.199985 0.560357
0.8 0.199985 0.536141
1 0.199985 0.54818
0 0.509178 0.559716
0.199985 0.526772 0.577447
0.541909 0.523323 0.526314
0.8 0.516701 0.515129
1 0.524437 0.522744
0 0.8 0.539223
0.199985 0.8 0.559777
0.512825 0.8 0.486946
0.8 0.798718 0.505684
1 0.798672 0.500679
0 1 0.568643
0.199985 1 0.571527
0.511879 1 0.482292
0.8 0.998703 0.510201
1 0.998993 0.48397
0 0 0.8
0.199985 0 0.8
0.52755 0 0.8
0.8 0 0.8
1 0 0.8
0 0.204242 0.8
0.199985 0.207553 0.8
0.562264 0.199985 0.8
0.8 0.199985 0.8
1 0.199985 0.8
0 0.506355 0.8
0.200015 0.522667 0.8
0.54255 0.520348 0.8
0.8 0.512673 0.8
1 0.519966 0.8
0.0194858 0.8 0.8
0.219486 0.8 0.8
0.518456 0.8 0.8
0.8 0.799893 0.798825
1 0.797848 0.79678
0.0194858 1 0.8
0.219486 1 0.8
0.513603 1 0.8
0.8 0.999832 0.793164
1 0.999619 0.786755
0 0 1
0.199985 0 1
0.525002 0 1
0.8 0 1
1 0 1
0 0.20267 1
0.199985 0.206592 1
0.566278 0.199985 1
0.8 0.199985 1
1 0.199985 1
0 0.508293 1
0.199985 0.525322 1
0.547753 0.522316 1
0.8 0.514748 1
1 0.522118 1
0.0194858 0.8 1
0.219486 0.8 1
0.519646 0.8 1
0.8 0.799939 1
1 0.79649 1
0.0194858 1 1
0.219486 1 1
0.512367 1 1
0.8 1 1
1 1 1
