datas/cubes/TC - INTREPID_20..cube
TITLE "Generate by Resolve"
LUT_3D_SIZE 9
0.00366217 0.00872816 0.0140536
0.114321 0.00735485 0.0124971
0.231617 0.00495918 0.00874342
0.368597 0 0.00115969
0.575341 0 0
0.699992 0 0
0.8 0 0
0.899992 0 0
1 0 0
0.00015259 0.11577 0.0104219
0.1093 0.114839 0.00909438
0.227909 0.111604 0.00701915
0.36849 0.102724 0.00128176
0.576272 0.0999924 0
0.699992 0.0999924 0
0.8 0.0999924 0
0.899992 0.0999924 0
1 0.0999924 0
0 0.225513 0.00613413
0.102251 0.226123 0.00491341
0.218784 0.225193 0.00350958
0.369223 0.215824 0.00151064
0.569711 0.200351 0
0.699992 0.199985 0
0.8 0.199985 0
0.899992 0.199985 0
1 0.199985 0
0 0.349401 0
0.0999924 0.353582 0
0.202625 0.35996 0
0.353124 0.360754 0.000595102
0.551232 0.351904 0
0.699992 0.344182 0
0.8 0.339742 0
0.899992 0.341863 0
1 0.351705 0
0 0.513802 0
0.0999924 0.525795 0
0.199985 0.534417 0
0.334142 0.536782 0.00184634
0.527382 0.531456 0
0.699992 0.529259 0
0.8 0.527703 0
0.899992 0.530663 0
1 0.539879 0
0 0.699351 0
0.0999924 0.699992 0
0.199985 0.699992 0
0.303578 0.699992 0
0.495094 0.699046 0
0.687938 0.689403 0
0.8 0.687251 0
0.899992 0.687724 0
1 0.689937 0
0 0.8 0
0.0999924 0.8 0
0.199985 0.8 0
0.302953 0.8 0
0.469963 0.8 0
0.676387 0.8 0
0.8 0.8 0
0.899992 0.8 0
1 0.8 0
0 0.899992 0
0.0999924 0.899992 0
0.199985 0.899992 0
0.304417 0.899992 0
0.468223 0.899992 0
0.67303 0.899992 0
0.8 0.899992 0
0.899992 0.899992 0
1 0.899992 0
0 1 0
0.0999924 1 0
0.199985 1 0
0.307713 1 0
0.473518 1 0
0.672602 1 0
0.8 1 0
0.899992 1 0
1 1 0
0.00358587 0.00787366 0.126177
0.113344 0.00675975 0.125292
0.23125 0.00442512 0.118746
0.36878 0 0.104555
0.575113 0 0.0999924
0.699992 0 0.0999924
0.8 0 0.0999924
0.899992 0 0.0999924
1 0 0.0999924
3.0518e-05 0.11603 0.116701
0.10898 0.114183 0.120531
0.228183 0.111009 0.116365
0.369345 0.102464 0.104524
0.576715 0.0999924 0.0999924
0.699992 0.0999924 0.0999924
0.8 0.0999924 0.0999924
0.899992 0.0999924 0.0999924
1 0.0999924 0.0999924
0 0.225345 0.112566
0.10219 0.226169 0.112062
0.218967 0.225559 0.110338
0.372351 0.216022 0.10486
0.570428 0.200336 0.0999924
0.699992 0.199985 0.0999924
0.8 0.199985 0.0999924
0.899992 0.199985 0.0999924
1 0.199985 0.0999924
0 0.350668 0.0999924
0.0999924 0.35552 0.100206
0.203189 0.362829 0.100526
0.356161 0.36379 0.102068
0.555016 0.355123 0.0999924
0.699992 0.34728 0.0999924
0.8 0.342626 0.0999924
0.899992 0.345312 0.0999924
1 0.355398 0.0999924
0 0.517769 0.0999924
0.0999924 0.530022 0.0999924
0.199985 0.538582 0.0999924
0.336614 0.540368 0.101884
0.531029 0.53492 0.0999924
0.699992 0.533043 0.0999924
0.8 0.531014 0.0999924
0.899992 0.533944 0.0999924
1 0.543282 0.0999924
0 0.699992 0.0999924
0.0999924 0.699992 0.0999924
0.199985 0.699992 0.0999924
0.30515 0.699992 0.0999924
0.497704 0.699687 0.0999924
0.689464 0.690852 0.0999924
0.8 0.688579 0.0999924
0.899992 0.688746 0.0999924
1 0.690959 0.0999924
0 0.8 0.0999924
0.0999924 0.8 0.0999924
0.199985 0.8 0.0999924
0.303822 0.8 0.0999924
0.472602 0.8 0.0999924
0.677546 0.8 0.0999924
0.8 0.8 0.0999924
0.899992 0.8 0.0999924
1 0.8 0.0999924
0 0.899992 0.0999924
0.0999924 0.899992 0.0999924
0.199985 0.899992 0.0999924
0.304921 0.899992 0.0999924
0.469581 0.899992 0.0999924
0.673503 0.899992 0.0999924
0.8 0.899992 0.0999924
0.899992 0.899992 0.0999924
1 0.899992 0.0999924
0 1 0.0999924
0.0999924 1 0.0999924
0.199985 1 0.0999924
0.307698 1 0.0999924
0.473716 1 0.0999924
0.672801 1 0.0999924
0.8 1 0.0999924
0.899992 1 0.0999924
1 1 0.0999924
0.00357061 0.00663767 0.243992
0.111223 0.00581369 0.24596
0.227131 0.00395209 0.24094
0.368658 0 0.218021
0.56405 0 0.199985
0.699992 0 0.199985
0.8 0 0.199985
0.899992 0 0.199985
1 0 0.199985
0.00158694 0.113039 0.241077
0.108522 0.112337 0.24387
0.225559 0.109773 0.241138
0.370443 0.101472 0.218189
0.56672 0.0999924 0.2
0.699992 0.0999924 0.199985
0.8 0.0999924 0.199985
0.899992 0.0999924 0.199985
1 0.0999924 0.199985
0 0.22533 0.223545
0.101625 0.225895 0.227176
0.218433 0.224735 0.233387
0.378698 0.21474 0.218997
0.559518 0.202609 0.203281
0.699992 0.199985 0.199985
0.8 0.199985 0.199985
0.899992 0.199985 0.199985
1 0.199985 0.199985
0 0.352178 0.209384
0.0999924 0.357733 0.211414
0.202487 0.366369 0.212909
0.359335 0.367544 0.211551
0.551766 0.360113 0.212558
0.699992 0.349737 0.202426
0.8 0.344945 0.200229
0.899992 0.348211 0.201617
1 0.358663 0.205142
0 0.520424 0.199985
0.0999924 0.532158 0.200229
0.199985 0.540169 0.200977
0.340841 0.542702 0.209812
0.533394 0.537438 0.202029
0.699992 0.535622 0.199985
0.8 0.533547 0.199985
0.899992 0.536522 0.199985
1 0.545251 0.199985
0 0.699992 0.199985
0.0999924 0.699992 0.199985
0.199985 0.699992 0.199985
0.306111 0.699992 0.199985
0.498711 0.699992 0.199985
0.690181 0.691844 0.199985
0.8 0.689372 0.199985
0.899992 0.689372 0.199985
1 0.691447 0.199985
0 0.8 0.199985
0.0999924 0.8 0.199985
0.199985 0.8 0.199985
0.303899 0.8 0.199985
0.473243 0.8 0.199985
0.677607 0.8 0.199985
0.8 0.8 0.199985
0.899992 0.8 0.199985
1 0.8 0.199985
0 0.899992 0.199985
0.0999924 0.899992 0.199985
0.199985 0.899992 0.199985
0.304784 0.899992 0.199985
0.468849 0.899992 0.199985
0.672908 0.899992 0.199985
0.8 0.899992 0.199985
0.899992 0.899992 0.199985
1 0.899992 0.199985
0 1 0.199985
0.0999924 1 0.199985
0.199985 1 0.199985
0.307042 1 0.199985
0.471901 1 0.199985
0.671733 1 0.199985
0.8 1 0.199985
0.899992 1 0.199985
1 1 0.199985
0.00131228 0.00294499 0.397543
0.107179 0.00291447 0.394903
0.218875 0.00230411 0.390463
0.360143 0 0.370672
0.545998 0 0.346014
0.699992 0 0.33312
0.8 0 0.316655
0.899992 0 0.311009
1 0 0.30837
0.00106813 0.108248 0.393194
0.106325 0.108141 0.39263
0.218402 0.107027 0.390967
0.361379 0.100221 0.372137
0.55108 0.0999924 0.349905
0.699992 0.0999924 0.340841
0.8 0.0999924 0.328084
0.899992 0.0999924 0.327138
1 0.0999924 0.333883
0.000747692 0.218631 0.385229
0.104051 0.219516 0.387884
0.217121 0.22005 0.393652
0.371191 0.21207 0.383612
0.548394 0.203037 0.357305
0.699992 0.199985 0.356268
0.8 0.199985 0.348806
0.899992 0.199985 0.352636
1 0.199985 0.367163
0 0.352377 0.341726
0.0999924 0.358679 0.346273
0.201389 0.366873 0.354803
0.3579 0.366049 0.379812
0.555535 0.358953 0.364858
0.699992 0.354147 0.358022
0.8 0.348837 0.352789
0.899992 0.352819 0.357504
1 0.36466 0.369711
0 0.5196 0.339651
0.0999924 0.530343 0.348013
0.199985 0.53782 0.354803
0.339986 0.543755 0.358022
0.535225 0.53785 0.346166
0.697902 0.538384 0.339788
0.8 0.536385 0.328862
0.899992 0.539086 0.331182
1 0.547066 0.340551
0 0.699351 0.310277
0.0999924 0.699992 0.316487
0.199985 0.699992 0.321187
0.318166 0.699992 0.333013
0.524727 0.694682 0.341894
0.688029 0.689281 0.307195
0.8 0.688029 0.299992
0.899992 0.687892 0.299992
1 0.689555 0.299992
0 0.8 0.313909
0.0999924 0.8 0.317784
0.199985 0.8 0.320424
0.303395 0.8 0.317937
0.477272 0.8 0.308415
0.675517 0.8 0.299992
0.8 0.8 0.299992
0.899992 0.8 0.299992
1 0.8 0.299992
0 0.899992 0.317266
0.0999924 0.899992 0.320958
0.199985 0.899992 0.322377
0.303548 0.899992 0.317418
0.467002 0.899992 0.305043
0.669779 0.899992 0.299992
0.8 0.899992 0.299992
0.899992 0.899992 0.299992
1 0.899992 0.299992
0 1 0.324285
0.0999924 1 0.326146
0.199985 1 0.325719
0.304967 1 0.319127
0.469291 1 0.305196
0.667414 1 0.299992
0.799603 1 0.299992
0.899992 1 0.299992
1 1 0.299992
0 0 0.6
0.100999 0 0.6
0.216159 0 0.6
0.367971 0 0.576242
0.556191 0 0.55552
0.699992 0 0.553552
0.8 0 0.541176
0.899992 0 0.535241
1 0 0.532525
0 0.10042 0.6
0.100252 0.100313 0.6
0.213748 0.100053 0.599603
0.368063 0.0999924 0.575326
0.562173 0.0999924 0.560784
0.699992 0.0999924 0.559853
0.8 0.0999924 0.55285
0.899992 0.0999924 0.55285
1 0.0999924 0.558068
0 0.210834 0.6
0.0999924 0.211734 0.599634
0.211353 0.212848 0.589654
0.361776 0.208484 0.562387
0.556466 0.2 0.555261
0.699992 0.199985 0.573007
0.8 0.199985 0.568856
0.899992 0.199985 0.571221
1 0.199985 0.579919
0 0.34461 0.554635
0.0999924 0.351843 0.563439
0.20383 0.359182 0.56286
0.358862 0.36231 0.561166
0.553307 0.355367 0.554498
0.699992 0.353704 0.561913
0.8 0.348333 0.561151
0.899992 0.352483 0.563851
1 0.364263 0.569162
0 0.521874 0.501289
0.0999924 0.533471 0.512306
0.199985 0.541436 0.520363
0.334981 0.542962 0.532784
0.533028 0.533684 0.541741
0.695537 0.534295 0.537743
0.8 0.534401 0.537667
0.899992 0.536507 0.540002
1 0.543008 0.546197
0 0.695872 0.513359
0.0999924 0.699992 0.525628
0.199985 0.699992 0.535927
0.32639 0.699962 0.545708
0.521813 0.689036 0.53257
0.682017 0.681376 0.517861
0.797787 0.680522 0.518898
0.89781 0.680323 0.518395
0.997803 0.681331 0.521172
0 0.8 0.500877
0.0999924 0.8 0.512718
0.199985 0.8 0.520943
0.30312 0.8 0.514504
0.518944 0.8 0.531182
0.678721 0.799832 0.517342
0.79939 0.799573 0.498726
0.899992 0.799084 0.49221
1 0.79881 0.490562
0 0.899992 0.510246
0.0999924 0.899992 0.520974
0.199985 0.899992 0.524865
0.302525 0.899992 0.510369
0.511116 0.899992 0.523552
0.675731 0.899992 0.50811
0.798535 0.899992 0.473121
0.899992 0.899992 0.455329
1 0.899992 0.448646
0 1 0.529305
0.0999924 1 0.5346
0.199985 1 0.533349
0.303838 1 0.515648
0.511025 1 0.523369
0.673701 1 0.502068
0.797223 1 0.458961
0.899992 1 0.433997
1 1 0.426841
0 0 0.699992
0.0999924 0 0.699992
0.21181 0 0.699992
0.376898 0 0.699992
0.566033 0 0.699992
0.699992 0 0.699992
0.8 0 0.698146
0.899992 0 0.697002
1 0 0.696513
0 0.0999924 0.699992
0.0999924 0.0999924 0.699992
0.210437 0.0999924 0.699992
0.379629 0.0999924 0.699992
0.569421 0.0999924 0.699992
0.699992 0.0999924 0.699992
0.8 0.0999924 0.699992
0.899992 0.0999924 0.699992
1 0.0999924 0.699992
0 0.207019 0.699992
0.0999924 0.208118 0.699992
0.206775 0.208133 0.699992
0.376684 0.200092 0.699992
0.578714 0.199985 0.699992
0.699992 0.199985 0.699992
0.8 0.199985 0.699992
0.899992 0.199985 0.699992
1 0.199985 0.699992
0 0.343313 0.699992
0.0999924 0.351476 0.699992
0.199985 0.358511 0.699992
0.356359 0.360052 0.699992
0.558358 0.352667 0.69987
0.699992 0.345357 0.699992
0.8 0.340475 0.699992
0.899992 0.344244 0.699992
1 0.356252 0.699992
0 0.525505 0.697765
0.0999924 0.537331 0.698314
0.199985 0.545235 0.699382
0.327016 0.54287 0.699702
0.53402 0.533059 0.692714
0.696269 0.532464 0.693767
0.8 0.532906 0.694133
0.899992 0.534722 0.694835
1 0.541192 0.696406
0 0.698421 0.685832
0.0999924 0.699992 0.693736
0.199985 0.699992 0.699062
0.302464 0.699992 0.698192
0.515328 0.687999 0.683757
0.680293 0.677348 0.679271
0.8 0.675639 0.676783
0.899992 0.675288 0.676616
1 0.676158 0.677501
0 0.8 0.699977
0.0999924 0.8 0.699992
0.199985 0.8 0.699992
0.299992 0.8 0.699992
0.518227 0.8 0.688685
0.671778 0.798688 0.672511
0.797406 0.795834 0.667964
0.899214 0.794522 0.667063
0.999191 0.793957 0.666407
0 0.899992 0.699992
0.0999924 0.899992 0.699992
0.199985 0.899992 0.699992
0.299992 0.899992 0.699992
0.510674 0.899992 0.687144
0.669398 0.899992 0.670283
0.794461 0.899992 0.6654
0.89897 0.899992 0.66482
0.998947 0.899992 0.663706
0 1 0.699992
0.0999924 1 0.699992
0.199985 1 0.699992
0.299992 1 0.699992
0.50869 1 0.686717
0.667185 1 0.668238
0.791653 1 0.661799
0.898894 1 0.661006
0.998901 1 0.65951
0 0 0.8
0.0999924 0 0.8
0.208896 0 0.8
0.369589 0 0.8
0.56202 0 0.8
0.699992 0 0.8
0.8 0 0.8
0.899992 0 0.8
1 0 0.8
0 0.0999924 0.8
0.0999924 0.0999924 0.8
0.208194 0.0999924 0.8
0.373785 0.0999924 0.8
0.566537 0.0999924 0.8
0.699992 0.0999924 0.8
0.8 0.0999924 0.8
0.899992 0.0999924 0.8
1 0.0999924 0.8
0 0.205188 0.8
0.0999924 0.206485 0.8
0.204944 0.206668 0.8
0.373159 0.199985 0.8
0.576867 0.199985 0.8
0.699992 0.199985 0.8
0.8 0.199985 0.8
0.899992 0.199985 0.8
1 0.199985 0.8
0 0.341604 0.8
0.0999924 0.349859 0.8
0.199985 0.356771 0.8
0.353872 0.358618 0.8
0.557168 0.351095 0.8
0.699992 0.343618 0.8
0.8 0.338979 0.8
0.899992 0.343328 0.8
1 0.355459 0.8
0 0.523903 0.8
0.0999924 0.535286 0.8
0.199985 0.543679 0.8
0.320378 0.543755 0.8
0.533715 0.533242 0.798138
0.695857 0.532815 0.8
0.8 0.53312 0.8
0.899992 0.534707 0.8
1 0.540719 0.8
0 0.699977 0.798901
0.0999924 0.699992 0.799527
0.199985 0.699992 0.8
0.299992 0.699992 0.8
0.514061 0.688075 0.79971
0.679576 0.6766 0.8
0.8 0.674662 0.8
0.899992 0.67422 0.799786
1 0.674891 0.8
0 0.8 0.8
0.0999924 0.8 0.8
0.199985 0.8 0.8
0.299992 0.8 0.8
0.501656 0.8 0.8
0.6692 0.798321 0.795468
0.797772 0.793988 0.794827
0.899992 0.792309 0.79321
1 0.791547 0.792538
0 0.899992 0.8
0.0999924 0.899992 0.8
0.199985 0.899992 0.8
0.299992 0.899992 0.8
0.489876 0.899992 0.8
0.667445 0.899992 0.795407
0.791867 0.899992 0.788891
0.89984 0.899992 0.78648
0.999817 0.899901 0.785245
0 1 0.8
0.0999924 1 0.8
0.199985 1 0.8
0.299992 1 0.8
0.48539 1 0.8
0.664622 1 0.793545
0.78793 1 0.78526
0.899565 1 0.782574
0.999664 1 0.781308
0 0 0.899992
0.0999924 0 0.899992
0.207416 0 0.899992
0.365606 0 0.899992
0.559853 0 0.899992
0.699992 0 0.899992
0.8 0 0.899992
0.899992 0 0.899992
1 0 0.899992
0 0.0999924 0.899992
0.0999924 0.0999924 0.899992
0.20708 0.0999924 0.899992
0.371038 0.0999924 0.899992
0.565454 0.0999924 0.899992
0.699992 0.0999924 0.899992
0.8 0.0999924 0.899992
0.899992 0.0999924 0.899992
1 0.0999924 0.899992
0 0.204486 0.899992
0.0999924 0.205921 0.899992
0.204471 0.206424 0.899992
0.372915 0.200153 0.899992
0.577096 0.199985 0.899992
0.699992 0.199985 0.899992
0.8 0.199985 0.899992
0.899992 0.199985 0.899992
1 0.199985 0.899992
0 0.341939 0.899992
0.0999924 0.350545 0.899992
0.199985 0.357641 0.899992
0.354345 0.359701 0.899992
0.557229 0.352163 0.899992
0.699992 0.344686 0.899992
0.8 0.340551 0.899992
0.899992 0.345647 0.899992
1 0.358282 0.899992
0 0.525261 0.899992
0.0999924 0.536553 0.899992
0.199985 0.545083 0.899992
0.32076 0.545098 0.899992
0.534371 0.534386 0.8981
0.696101 0.533806 0.899992
0.8 0.533974 0.899992
0.899992 0.535698 0.899992
1 0.541421 0.899992
0 0.699794 0.898955
0.0999924 0.699992 0.899718
0.199985 0.699992 0.899992
0.299992 0.699992 0.899992
0.513893 0.688396 0.89958
0.679408 0.676707 0.899992
0.8 0.674662 0.899992
0.899992 0.674083 0.899992
1 0.674678 0.899992
0 0.8 0.899992
0.0999924 0.8 0.899992
0.199985 0.8 0.899992
0.299992 0.8 0.899992
0.49839 0.8 0.899992
0.667796 0.79852 0.895628
0.797299 0.793393 0.899992
0.899992 0.791592 0.899992
1 0.790707 0.899992
0 0.899992 0.899992
0.0999924 0.899992 0.899992
0.199985 0.899992 0.899992
0.299992 0.899992 0.899992
0.481056 0.899992 0.899992
0.666224 0.899992 0.897642
0.790555 0.899992 0.899657
0.899992 0.899901 0.899794
1 0.899626 0.899504
0 1 0.899992
0.0999924 1 0.899992
0.199985 1 0.899992
0.299992 1 0.899992
0.473304 1 0.899992
0.66331 1 0.897566
0.786572 1 0.89929
0.899718 1 0.898528
1 1 0.89778
0 0 1
0.0999924 0 1
0.206989 0 1
0.363668 0 1
0.558328 0 1
0.699992 0 1
0.8 0 1
0.899992 0 1
1 0 1
0 0.0999924 1
0.0999924 0.0999924 1
0.207034 0.0999924 1
0.371008 0.0999924 1
0.565454 0.0999924 1
0.699992 0.0999924 1
0.8 0.0999924 1
0.899992 0.0999924 1
1 0.0999924 1
0 0.2047 1
0.0999924 0.206439 1
0.205417 0.207431 1
0.375616 0.20087 1
0.579217 0.199985 1
0.699992 0.199985 1
0.8 0.199985 1
0.899992 0.199985 1
1 0.199985 1
0 0.34374 1
0.0999924 0.353292 1
0.199985 0.361212 1
0.357717 0.362921 1
0.559197 0.355398 1
0.699992 0.348196 1
0.8 0.343954 1
0.899992 0.349905 1
1 0.362493 1
0 0.527626 1
0.0999924 0.53962 1
0.199985 0.548516 1
0.323873 0.54815 1
0.537133 0.537026 0.998016
0.69691 0.536385 1
0.8 0.535882 1
0.899992 0.537728 1
1 0.542916 1
0 0.699992 0.999039
0.0999924 0.699992 1
0.199985 0.699992 1
0.299992 0.699992 1
0.515206 0.689174 0.999084
0.679881 0.677272 1
0.8 0.674983 1
0.899992 0.674327 1
1 0.674861 1
0 0.8 1
0.0999924 0.8 1
0.199985 0.8 1
0.299992 0.8 1
0.498894 0.8 1
0.667659 0.798474 0.995682
0.797086 0.793256 1
0.899992 0.791394 1
1 0.790433 1
0 0.899992 1
0.0999924 0.899992 1
0.199985 0.899992 1
0.299992 0.899992 1
0.48011 0.899992 1
0.665843 0.899992 0.997635
0.789914 0.899992 0.999588
0.899977 0.89984 1
1 0.899519 1
0 1 1
0.0999924 1 1
0.199985 1 1
0.299992 1 1
0.471534 1 1
0.662715 1 0.997559
0.785687 1 0.999283
0.89958 1 1
1 1 1
