datas/cubes/TC - FORWARD_20.cube
TITLE "Generate by Resolve"
LUT_3D_SIZE 9
0 0.00169375 0.00561532
0.10547 0.00143435 0.00471504
0.22034 0.000701915 0.000915541
0.357076 0.0027924 0
0.585077 0 0
0.699992 0 0
0.8 0 0
0.899992 0 0
1 0 0
0.000885023 0.107912 0
0.104189 0.106752 0.00157168
0.216114 0.105104 0.000503548
0.352438 0.10277 0
0.580636 0.0999924 0
0.699992 0.0999924 0
0.8 0.0999924 0
0.899992 0.0999924 0
1 0.0999924 0
0.00889601 0.214206 0
0.108904 0.214191 0
0.21413 0.21413 0.000839246
0.349065 0.208576 9.15541e-05
0.580316 0.199985 0
0.699992 0.199985 0
0.8 0.199985 0
0.899992 0.199985 0
1 0.199985 0
0.0241703 0.332708 0
0.125719 0.33463 0
0.228412 0.337942 0
0.350423 0.34165 0.00825513
0.547265 0.333715 0.000640879
0.699992 0.318898 0
0.8 0.32018 0
0.899992 0.3308 0
1 0.339055 0
0.0692454 0.488106 0
0.174746 0.494957 0
0.27924 0.501213 0
0.396384 0.503487 0.00132753
0.541604 0.511971 0.0272831
0.699992 0.510201 0
0.8 0.510323 0
0.899992 0.521599 0
1 0.531685 0
0.140536 0.668177 0
0.247318 0.673793 0
0.349966 0.67599 0
0.452384 0.678019 0
0.59997 0.673167 0
0.699992 0.679179 0
0.8 0.677852 0
0.899992 0.681178 0
1 0.685573 0
0.153689 0.77908 0
0.253681 0.77908 0
0.353689 0.77908 0
0.453681 0.77908 0
0.6 0.776837 0
0.699992 0.789746 0
0.8 0.791074 0
0.899992 0.791074 0
1 0.791074 0
0.153689 0.879088 0
0.253681 0.879088 0
0.353689 0.879088 0
0.457023 0.878676 0
0.6 0.878187 0
0.699992 0.889967 0
0.8 0.891066 0
0.899992 0.891066 0
1 0.891066 0
0.153689 0.979095 0
0.253681 0.979095 0
0.353689 0.979095 0
0.461433 0.978164 0
0.6 0.979355 0
0.699992 0.990204 0
0.8 0.991073 0
0.899992 0.991073 0
1 0.991073 0
9.15541e-05 0.00114443 0.115663
0.105165 0.000976577 0.114443
0.220432 0.000137331 0.109758
0.356298 0.0027924 0.0999924
0.584176 0 0.0999924
0.699992 0 0.0999924
0.8 0 0.0999924
0.899992 0 0.0999924
1 0 0.0999924
0.000167849 0.107424 0.110536
0.102022 0.10663 0.110948
0.216236 0.104601 0.107149
0.352102 0.10277 0.0999924
0.580407 0.0999924 0.0999924
0.699992 0.0999924 0.0999924
0.8 0.0999924 0.0999924
0.899992 0.0999924 0.0999924
1 0.0999924 0.0999924
0.00578317 0.215152 0.0999924
0.105776 0.215244 0.0999924
0.213687 0.214405 0.103487
0.349722 0.208789 0.100145
0.582635 0.199985 0.0999924
0.699992 0.199985 0.0999924
0.8 0.199985 0.0999924
0.899992 0.199985 0.0999924
1 0.199985 0.0999924
0.0245365 0.333165 0.0999924
0.126299 0.335348 0.0999924
0.229419 0.339193 0.0999924
0.352209 0.343023 0.108766
0.551537 0.335225 0.100526
0.699992 0.320943 0.0999924
0.8 0.322316 0.0999924
0.899992 0.332921 0.0999924
1 0.341436 0.0999924
0.0708629 0.49012 0.0999924
0.176364 0.497139 0.0999924
0.280934 0.503731 0.0999924
0.399451 0.50547 0.101076
0.544488 0.514183 0.127001
0.699992 0.512367 0.0999924
0.8 0.512749 0.0999924
0.899992 0.523919 0.0999924
1 0.53341 0.0999924
0.142489 0.669795 0.0999924
0.249134 0.675303 0.0999924
0.350835 0.676707 0.0999924
0.453223 0.678706 0.0999924
0.599985 0.674266 0.0999924
0.699992 0.680186 0.0999924
0.8 0.678691 0.0999924
0.899992 0.681743 0.0999924
1 0.685878 0.0999924
0.153689 0.77908 0.0999924
0.253681 0.77908 0.0999924
0.353689 0.77908 0.0999924
0.453681 0.77908 0.0999924
0.6 0.776898 0.0999924
0.699992 0.789761 0.0999924
0.8 0.791074 0.0999924
0.899992 0.791074 0.0999924
1 0.791074 0.0999924
0.153689 0.879088 0.0999924
0.253681 0.879088 0.0999924
0.353689 0.879088 0.0999924
0.456886 0.878691 0.0999924
0.6 0.878111 0.0999924
0.699992 0.889906 0.0999924
0.8 0.891066 0.0999924
0.899992 0.891066 0.0999924
1 0.891066 0.0999924
0.153689 0.979095 0.0999924
0.253681 0.979095 0.0999924
0.353689 0.979095 0.0999924
0.460533 0.978256 0.0999924
0.6 0.979141 0.0999924
0.699992 0.990112 0.0999924
0.8 0.991073 0.0999924
0.899992 0.991073 0.0999924
1 0.991073 0.0999924
0.00135805 0.000122072 0.232685
0.104845 4.57771e-05 0.231983
0.217411 0.000137331 0.228641
0.356619 0.00221256 0.207691
0.582208 0 0.199985
0.699992 0 0.199985
0.8 0 0.199985
0.899992 0 0.199985
1 0 0.199985
0.00077821 0.105577 0.229664
0.10219 0.105119 0.22884
0.214603 0.103609 0.225864
0.353216 0.102129 0.207202
0.579477 0.0999924 0.199985
0.699992 0.0999924 0.199985
0.8 0.0999924 0.199985
0.899992 0.0999924 0.199985
1 0.0999924 0.199985
0.000122072 0.215595 0.218143
0.10013 0.215793 0.218265
0.209354 0.214908 0.220813
0.35259 0.208286 0.207523
0.584115 0.199985 0.199985
0.699992 0.199985 0.199985
0.8 0.199985 0.199985
0.899992 0.199985 0.199985
1 0.199985 0.199985
0.0246281 0.333852 0.199985
0.126253 0.336751 0.199985
0.228489 0.341451 0.199985
0.35433 0.345068 0.210376
0.555978 0.337026 0.200412
0.699992 0.322988 0.199985
0.8 0.324361 0.199985
0.899992 0.335653 0.199985
1 0.344671 0.199985
0.0719921 0.491524 0.199985
0.177707 0.499016 0.199985
0.282383 0.505852 0.199985
0.402502 0.507301 0.201328
0.546777 0.515908 0.226749
0.699992 0.513771 0.199985
0.8 0.514244 0.199985
0.899992 0.525429 0.199985
1 0.534859 0.199985
0.143221 0.670405 0.199985
0.249744 0.675807 0.199985
0.351415 0.677195 0.199985
0.45333 0.678798 0.199985
0.599985 0.674556 0.199985
0.699992 0.680339 0.199985
0.8 0.678599 0.199985
0.899992 0.681376 0.199985
1 0.685252 0.199985
0.153689 0.77908 0.199985
0.253681 0.77908 0.199985
0.353689 0.77908 0.199985
0.453681 0.77908 0.199985
0.6 0.776822 0.199985
0.699992 0.7897 0.199985
0.8 0.791074 0.199985
0.899992 0.791074 0.199985
1 0.791074 0.199985
0.153689 0.879088 0.199985
0.253681 0.879088 0.199985
0.353689 0.879088 0.199985
0.455665 0.878843 0.199985
0.6 0.877806 0.199985
0.699992 0.889677 0.199985
0.8 0.891066 0.199985
0.899992 0.891066 0.199985
1 0.891066 0.199985
0.153689 0.979095 0.199985
0.253681 0.979095 0.199985
0.353689 0.979095 0.199985
0.45948 0.978378 0.199985
0.6 0.978637 0.199985
0.699992 0.989899 0.199985
0.8 0.991073 0.199985
0.899992 0.991073 0.199985
1 0.991073 0.199985
0.00302129 0 0.405829
0.103136 0 0.401022
0.21268 0 0.385855
0.348257 0.00190738 0.365499
0.555871 0 0.328588
0.699992 0 0.301122
0.8 0 0.299992
0.899992 0 0.299992
1 0 0.299992
0.0033875 0.100496 0.390585
0.103365 0.100435 0.387503
0.210925 0.100404 0.379629
0.345159 0.101976 0.363134
0.55201 0.0999924 0.327504
0.699992 0.0999924 0.302266
0.8 0.0999924 0.300572
0.899992 0.0999924 0.303105
1 0.0999924 0.307027
0.00442512 0.2094 0.374868
0.104479 0.209598 0.375952
0.209583 0.209964 0.376074
0.345876 0.205859 0.364828
0.565347 0.199985 0.335958
0.699992 0.199985 0.312932
0.8 0.199985 0.315389
0.899992 0.199985 0.329152
1 0.199985 0.344991
0.00270085 0.338415 0.341619
0.103395 0.341756 0.344976
0.204395 0.346975 0.34963
0.339971 0.34873 0.364233
0.538964 0.341909 0.340749
0.699992 0.322072 0.315251
0.8 0.323247 0.316533
0.899992 0.336583 0.330816
1 0.346777 0.342153
0.0588388 0.497948 0.302342
0.160662 0.506233 0.302144
0.260792 0.513832 0.302235
0.382696 0.515389 0.313649
0.542794 0.518532 0.345251
0.699992 0.515373 0.300298
0.8 0.515328 0.300618
0.899992 0.526513 0.304524
1 0.536492 0.310002
0.14432 0.671382 0.299992
0.250523 0.676493 0.299992
0.351888 0.677684 0.299992
0.45069 0.679744 0.299992
0.6 0.674907 0.299992
0.699992 0.680613 0.299992
0.8 0.678325 0.299992
0.899992 0.680644 0.299992
1 0.684184 0.299992
0.153643 0.77911 0.299992
0.253529 0.779141 0.299992
0.353048 0.779309 0.299992
0.453315 0.779217 0.299992
0.6 0.776669 0.299992
0.699992 0.789517 0.299992
0.8 0.791074 0.299992
0.899992 0.791074 0.299992
1 0.791074 0.299992
0.13698 0.884901 0.299992
0.233783 0.885985 0.299992
0.335607 0.885359 0.299992
0.446006 0.882063 0.299992
0.6 0.877256 0.299992
0.699992 0.889296 0.299992
0.8 0.891066 0.299992
0.899992 0.891066 0.299992
1 0.891066 0.299992
0.123461 0.989441 0.299992
0.224384 0.989136 0.299992
0.32845 0.987762 0.299992
0.442847 0.983917 0.299992
0.6 0.977874 0.299992
0.699992 0.989532 0.299992
0.8 0.991073 0.299992
0.899992 0.991073 0.299992
1 0.991073 0.299992
0.00494392 0 0.6
0.104921 0 0.6
0.21088 0 0.6
0.366598 0 0.599039
0.554879 0 0.566354
0.699992 0 0.547982
0.8 0 0.536324
0.899992 0 0.539773
1 0 0.544152
0.00492866 0.0999924 0.6
0.104921 0.0999924 0.6
0.209171 0.0999924 0.6
0.362402 0.0999924 0.598764
0.553445 0.0999924 0.565637
0.699992 0.0999924 0.551949
0.8 0.0999924 0.54699
0.899992 0.0999924 0.556451
1 0.0999924 0.56405
0.00343328 0.199985 0.6
0.10338 0.199985 0.6
0.205295 0.199985 0.6
0.363851 0.199985 0.599985
0.570047 0.199985 0.581384
0.699992 0.199985 0.569421
0.8 0.199985 0.57232
0.899992 0.199985 0.583917
1 0.199985 0.593774
0.00158694 0.328099 0.579782
0.100984 0.332052 0.587625
0.200732 0.337484 0.593622
0.343191 0.34136 0.567758
0.539086 0.335668 0.550271
0.699992 0.315022 0.568048
0.8 0.315785 0.569696
0.899992 0.329686 0.579492
1 0.339284 0.585855
0.0113527 0.507698 0.510384
0.109224 0.516365 0.518425
0.20676 0.523354 0.524636
0.319097 0.528145 0.530983
0.517128 0.521935 0.540505
0.689418 0.519844 0.524102
0.78941 0.519371 0.523445
0.890684 0.528695 0.532784
0.992126 0.537469 0.54168
0.0165866 0.699992 0.401923
0.113939 0.699992 0.406134
0.212192 0.699992 0.409247
0.309804 0.699992 0.410849
0.562936 0.682277 0.483909
0.697871 0.68014 0.520623
0.8 0.678981 0.508873
0.899992 0.680522 0.511559
1 0.683497 0.517861
0.0248417 0.8 0.401053
0.117357 0.8 0.405203
0.215488 0.8 0.406363
0.317678 0.8 0.402167
0.563394 0.787457 0.447028
0.699992 0.789502 0.491859
0.8 0.793851 0.439918
0.899992 0.793759 0.434501
1 0.793759 0.435889
0 0.899992 0.435599
0.0999924 0.899992 0.440406
0.199985 0.899992 0.435325
0.306218 0.899992 0.418723
0.563973 0.887419 0.455741
0.699992 0.888914 0.482307
0.8 0.893385 0.425422
0.899992 0.89308 0.418845
1 0.892973 0.416861
0 1 0.459983
0.0999924 1 0.457572
0.199985 1 0.447044
0.300206 1 0.430137
0.565164 0.98732 0.46717
0.699992 0.988922 0.483925
0.8 0.993194 0.420874
0.899992 0.992737 0.41297
1 0.992523 0.409781
0.00494392 0 0.699992
0.104921 0 0.699992
0.206027 0 0.699992
0.356481 0 0.699992
0.554589 0 0.699992
0.699992 0 0.699992
0.8 0 0.699992
0.899992 0 0.699992
1 0 0.699992
0.00494392 0.0999924 0.699992
0.104921 0.0999924 0.699992
0.205493 0.0999924 0.699992
0.353597 0.0999924 0.699992
0.554757 0.0999924 0.699992
0.699992 0.0999924 0.699992
0.8 0.0999924 0.699992
0.899992 0.0999924 0.699992
1 0.0999924 0.699992
0.00454719 0.199985 0.699992
0.104417 0.199985 0.699992
0.204303 0.199985 0.699992
0.35761 0.199985 0.699992
0.566674 0.199985 0.699992
0.699992 0.199985 0.699992
0.8 0.199985 0.699992
0.899992 0.199985 0.699992
1 0.199985 0.699992
0 0.322087 0.699992
0.0999924 0.326635 0.699992
0.199985 0.332448 0.699992
0.339437 0.333883 0.699992
0.555932 0.323476 0.698436
0.699992 0.308782 0.699992
0.8 0.30956 0.699992
0.899992 0.321233 0.699992
1 0.330785 0.699992
0.00666819 0.499992 0.699992
0.104967 0.508598 0.699992
0.203525 0.515099 0.699992
0.309346 0.521187 0.699992
0.521752 0.518181 0.685573
0.692363 0.516457 0.690578
0.792798 0.515633 0.690654
0.893111 0.52462 0.690883
0.993835 0.533349 0.691493
0 0.699992 0.689128
0.0999924 0.699992 0.691417
0.199985 0.699992 0.691752
0.299992 0.699992 0.692439
0.484215 0.697597 0.692546
0.680888 0.680842 0.686549
0.8 0.67657 0.68072
0.899992 0.677791 0.681758
1 0.680827 0.684627
0 0.8 0.67837
0.0999924 0.8 0.684321
0.199985 0.8 0.685649
0.299992 0.8 0.684947
0.450828 0.8 0.675669
0.683482 0.795666 0.660212
0.8 0.796704 0.671504
0.899992 0.796475 0.670268
1 0.796475 0.670283
0 0.899992 0.691768
0.0999924 0.899992 0.691768
0.199985 0.899992 0.691752
0.299992 0.899992 0.691722
0.449058 0.899992 0.676127
0.681987 0.894514 0.654047
0.8 0.896025 0.666712
0.899992 0.895888 0.664469
1 0.895766 0.66331
0 1 0.691768
0.0999924 1 0.691768
0.199985 1 0.691768
0.299992 1 0.691722
0.452903 1 0.681727
0.680827 0.994507 0.653422
0.8 0.995499 0.663783
0.899992 0.995499 0.660288
1 0.9953 0.658015
0.00494392 0 0.8
0.104921 0 0.8
0.205707 0 0.8
0.352911 0 0.8
0.551553 0 0.8
0.699992 0 0.8
0.8 0 0.8
0.899992 0 0.8
1 0 0.8
0.00494392 0.0999924 0.8
0.104921 0.0999924 0.8
0.205264 0.0999924 0.8
0.350988 0.0999924 0.8
0.553017 0.0999924 0.8
0.699992 0.0999924 0.8
0.8 0.0999924 0.8
0.899992 0.0999924 0.8
1 0.0999924 0.8
0.00463874 0.199985 0.8
0.10454 0.199985 0.8
0.20441 0.199985 0.8
0.358083 0.199985 0.8
0.567727 0.199985 0.8
0.699992 0.199985 0.8
0.8 0.199985 0.8
0.899992 0.199985 0.8
1 0.199985 0.8
0 0.321996 0.8
0.0999924 0.327153 0.8
0.199985 0.333471 0.8
0.340658 0.335058 0.8
0.556985 0.324498 0.79823
0.699992 0.309392 0.8
0.8 0.310414 0.8
0.899992 0.323339 0.8
1 0.333562 0.8
0.00657664 0.500313 0.8
0.104829 0.509239 0.8
0.20322 0.516243 0.8
0.309346 0.522255 0.8
0.52224 0.518608 0.785641
0.692195 0.516518 0.79057
0.792798 0.515557 0.790646
0.893111 0.524529 0.790875
0.99382 0.53312 0.79147
0 0.699992 0.799741
0.0999924 0.699992 0.797009
0.199985 0.699992 0.795499
0.299992 0.699992 0.794278
0.479637 0.697704 0.79913
0.680858 0.679103 0.8
0.8 0.674784 0.798932
0.899992 0.675639 0.799023
1 0.678325 0.799298
0 0.8 0.79176
0.0999924 0.8 0.79176
0.199985 0.8 0.79176
0.299992 0.8 0.79176
0.431724 0.8 0.79852
0.662425 0.799969 0.794308
0.8 0.799191 0.79794
0.899992 0.798733 0.798077
1 0.798764 0.798077
0 0.899992 0.79176
0.0999924 0.899992 0.79176
0.199985 0.899992 0.79176
0.299992 0.899992 0.79176
0.426444 0.899992 0.798596
0.656855 0.899825 0.793652
0.79852 0.899382 0.79585
0.899992 0.898955 0.794629
1 0.898878 0.793454
0 1 0.79176
0.0999924 1 0.79176
0.199985 1 0.79176
0.299992 1 0.79176
0.430457 1 0.798703
0.655009 0.999771 0.793378
0.796033 0.99939 0.791333
0.899992 0.998627 0.790097
1 0.998398 0.787533
0.00494392 0 0.899992
0.104921 0 0.899992
0.205615 0 0.899992
0.351904 0 0.899992
0.550958 0 0.899992
0.699992 0 0.899992
0.8 0 0.899992
0.899992 0 0.899992
1 0 0.899992
0.00494392 0.0999924 0.899992
0.104921 0.0999924 0.899992
0.205249 0.0999924 0.899992
0.351003 0.0999924 0.899992
0.553796 0.0999924 0.899992
0.699992 0.0999924 0.899992
0.8 0.0999924 0.899992
0.899992 0.0999924 0.899992
1 0.0999924 0.899992
0.00463874 0.199985 0.899992
0.104494 0.199985 0.899992
0.204501 0.199985 0.899992
0.360601 0.199985 0.899992
0.570794 0.199985 0.899992
0.699992 0.199985 0.899992
0.8 0.199985 0.899992
0.899992 0.199985 0.899992
1 0.199985 0.899992
0 0.323949 0.899992
0.0999924 0.329259 0.899992
0.199985 0.33611 0.899992
0.343862 0.338201 0.899992
0.559731 0.328328 0.897307
0.699992 0.312764 0.899992
0.8 0.314336 0.899992
0.899992 0.32813 0.899992
1 0.337713 0.899992
0.00582895 0.504555 0.899992
0.103822 0.513649 0.899992
0.201907 0.52166 0.899992
0.310597 0.527504 0.899992
0.526452 0.522606 0.88632
0.69247 0.520073 0.890608
0.792767 0.519112 0.890608
0.893339 0.527565 0.891081
0.994064 0.535668 0.891676
0 0.699992 0.898756
0.0999924 0.699992 0.895537
0.199985 0.699992 0.893874
0.299992 0.699992 0.8934
0.48275 0.698512 0.898329
0.681773 0.680201 0.899992
0.8 0.67541 0.899016
0.899992 0.675944 0.899062
1 0.678447 0.899321
0 0.8 0.891768
0.0999924 0.8 0.891768
0.199985 0.8 0.891768
0.299992 0.8 0.891768
0.432242 0.8 0.898512
0.662181 0.799954 0.894286
0.8 0.79913 0.897917
0.899992 0.798581 0.8981
1 0.798642 0.898085
0 0.899992 0.891768
0.0999924 0.899992 0.891768
0.199985 0.899992 0.891768
0.299992 0.899992 0.891768
0.424506 0.899992 0.898634
0.655863 0.899779 0.893538
0.797299 0.899672 0.896941
0.899992 0.899168 0.898009
1 0.899168 0.898009
0 1 0.891768
0.0999924 1 0.891768
0.199985 1 0.891768
0.299992 1 0.891768
0.426947 1 0.898665
0.653162 0.999725 0.893294
0.791547 0.999924 0.896498
0.899992 0.999176 0.898009
1 0.999176 0.898009
0.00494392 0 1
0.104921 0 1
0.205539 0 1
0.35137 0 1
0.550683 0 1
0.699992 0 1
0.8 0 1
0.899992 0 1
1 0 1
0.00494392 0.0999924 1
0.104921 0.0999924 1
0.20528 0.0999924 1
0.35169 0.0999924 1
0.55491 0.0999924 1
0.699992 0.0999924 1
0.8 0.0999924 1
0.899992 0.0999924 1
1 0.0999924 1
0.00462348 0.199985 1
0.104417 0.199985 1
0.20473 0.199985 1
0.363638 0.199985 1
0.573999 0.199985 1
0.699992 0.199985 1
0.8 0.199985 1
0.899992 0.199985 1
1 0.199985 1
0 0.32575 1
0.0999924 0.331182 1
0.199985 0.338674 1
0.34638 0.340688 1
0.561608 0.331075 0.996689
0.699992 0.315068 1
0.8 0.31722 1
0.899992 0.331212 1
1 0.341115 1
0.00503548 0.508232 1
0.103014 0.517082 1
0.201343 0.525902 1
0.311421 0.531563 1
0.529854 0.525933 0.986877
0.692836 0.523186 0.990768
0.79292 0.521935 0.990723
0.893538 0.529992 0.991241
0.994232 0.53727 0.991821
0 0.699992 0.997391
0.0999924 0.699992 0.993927
0.199985 0.699992 0.993011
0.299992 0.699992 0.99263
0.486595 0.698482 0.997314
0.683146 0.681712 1
0.8 0.676539 0.999146
0.899992 0.676844 0.999176
1 0.67921 0.99939
0 0.8 0.99176
0.0999924 0.8 0.99176
0.199985 0.8 0.99176
0.299992 0.8 0.99176
0.434394 0.8 0.998459
0.662486 0.799954 0.994324
0.8 0.7991 0.997925
0.899992 0.798596 0.998093
1 0.798779 0.998077
0 0.899992 0.99176
0.0999924 0.899992 0.99176
0.199985 0.899992 0.99176
0.299992 0.899992 0.99176
0.424628 0.899992 0.998672
0.655589 0.899763 0.993515
0.796704 0.899687 0.996933
0.899992 0.899168 0.998016
1 0.899168 0.998016
0 1 0.99176
0.0999924 1 0.99176
0.199985 1 0.99176
0.299992 1 0.99176
0.426078 1 0.998657
0.652369 0.99971 0.993225
0.790555 0.999954 0.996414
0.899992 0.999176 0.998016
1 0.999176 0.998016
