datas/cubes/TC - SELECT_20.cube
TITLE "Generate by Resolve"
LUT_3D_SIZE 33
0.00177005 0.00227359 0.00494392
0.0319524 0.00170901 0.00430304
0.0640726 0.000961318 0.00355535
0.0962387 0.000259403 0.00283818
0.128161 0 0.00222782
0.159823 3.0518e-05 0.00177005
0.191089 0.00062562 0.00166323
0.222187 0.00146487 0.00205997
0.253986 0.00239567 0.0030518
0.287144 0.00325017 0.0039826
0.321996 0.00389105 0.0047303
0.359594 0.0039826 0.00497444
0.403433 0.002533 0.00373846
0.458106 0 0.000640879
0.515953 0 0
0.568307 0 0
0.6 0 0
0.624994 0 0
0.649989 0 0
0.674998 0 0
0.699992 0 0
0.725002 0 0
0.749996 0 0
0.77499 0 0
0.8 0 0
0.824994 0 0
0.850004 0 0
0.874998 0 0
0.899992 0 0
0.925002 0 0
0.949996 0 0
0.975006 0 0
1 0 0
0.000900282 0.0299382 0.00445563
0.0303655 0.0293431 0.00361639
0.0623026 0.0285191 0.00296025
0.0946517 0.0276341 0.00239567
0.126848 0.0269627 0.00190738
0.15877 0.0265812 0.00157168
0.190311 0.0266423 0.00155642
0.221454 0.027039 0.00204471
0.253132 0.0276188 0.00302129
0.286107 0.0282597 0.00393683
0.320699 0.0288243 0.00466926
0.358007 0.0290227 0.0049897
0.401175 0.0277256 0.00392157
0.454536 0.0249943 0.00077821
0.512596 0.0249943 0
0.567086 0.0249943 0
0.6 0.0249943 0
0.624994 0.0249943 0
0.649989 0.0249943 0
0.674998 0.0249943 0
0.699992 0.0249943 0
0.725002 0.0249943 0
0.749996 0.0249943 0
0.77499 0.0249943 0
0.8 0.0249943 0
0.824994 0.0249943 0
0.850004 0.0249943 0
0.874998 0.0249943 0
0.899992 0.0249943 0
0.925002 0.0249943 0
0.949996 0.0249943 0
0.975006 0.0249943 0
1 0.0249943 0
0.000198367 0.0599222 0.00392157
0.0273899 0.0594644 0.00300603
0.0596628 0.05832 0.00187686
0.092668 0.0571756 0.00148013
0.125139 0.0562142 0.00125124
0.157458 0.055375 0.00117494
0.189441 0.0547646 0.00143435
0.220951 0.0543832 0.00218204
0.252491 0.0542 0.00323491
0.285145 0.0539712 0.00410468
0.319448 0.0538491 0.004654
0.356237 0.0540627 0.00500496
0.398795 0.0529641 0.00411994
0.450919 0.0499886 0.000961318
0.509285 0.0499886 0
0.564431 0.0499886 0
0.6 0.0499886 0
0.624994 0.0499886 0
0.649989 0.0499886 0
0.674998 0.0499886 0
0.699992 0.0499886 0
0.725002 0.0499886 0
0.749996 0.0499886 0
0.77499 0.0499886 0
0.8 0.0499886 0
0.824994 0.0499886 0
0.850004 0.0499886 0
0.874998 0.0499886 0
0.899992 0.0499886 0
0.925002 0.0499886 0
0.949996 0.0499886 0
0.975006 0.0499886 0
1 0.0499886 0
0 0.0905165 0.00340276
0.0254978 0.0901503 0.00276188
0.0555886 0.0893568 0.0012665
0.0897383 0.087953 0.000488289
0.123232 0.0866712 0.000564584
0.155947 0.0856489 0.000823987
0.188449 0.0847028 0.00141909
0.220539 0.0838636 0.00241093
0.252293 0.0831769 0.00363165
0.284779 0.0824598 0.00469978
0.318761 0.0817578 0.00537118
0.354788 0.0811322 0.00570687
0.396246 0.0794995 0.00483711
0.44712 0.0757763 0.0016022
0.505867 0.0749828 0
0.561883 0.0749828 0
0.6 0.0749828 0
0.624994 0.0749828 0
0.649989 0.0749828 0
0.674998 0.0749828 0
0.699992 0.0749828 0
0.725002 0.0749828 0
0.749996 0.0749828 0
0.77499 0.0749828 0
0.8 0.0749828 0
0.824994 0.0749828 0
0.850004 0.0749828 0
0.874998 0.0749828 0
0.899992 0.0749828 0
0.925002 0.0749828 0
0.949996 0.0749828 0
0.975006 0.0749828 0
1 0.0749828 0
0 0.121294 0.00355535
0.0249943 0.120974 0.00318914
0.0521096 0.120562 0.00178531
0.085008 0.119493 0.000244144
0.120424 0.117769 9.15541e-05
0.154177 0.116457 0.00062562
0.187228 0.115389 0.00157168
0.219928 0.114443 0.00271611
0.252277 0.113619 0.00415045
0.284871 0.112902 0.00561532
0.318593 0.11194 0.00656138
0.353933 0.11075 0.00698863
0.393622 0.108659 0.00627146
0.442298 0.10428 0.00317388
0.500938 0.100526 0
0.558877 0.0999924 0
0.6 0.0999924 0
0.624994 0.0999924 0
0.649989 0.0999924 0
0.674998 0.0999924 0
0.699992 0.0999924 0
0.725002 0.0999924 0
0.749996 0.0999924 0
0.77499 0.0999924 0
0.8 0.0999924 0
0.824994 0.0999924 0
0.850004 0.0999924 0
0.874998 0.0999924 0
0.899992 0.0999924 0
0.925002 0.0999924 0
0.949996 0.0999924 0
0.975006 0.0999924 0
1 0.0999924 0
0 0.152285 0.004654
0.0249943 0.151949 0.00445563
0.0504616 0.15172 0.00350958
0.0797436 0.151293 0.00151064
0.115328 0.149828 0.000122072
0.151415 0.147967 0.000244144
0.185565 0.146593 0.00151064
0.218997 0.14548 0.00306706
0.251987 0.144564 0.00469978
0.284932 0.143786 0.0065156
0.318608 0.142931 0.00788891
0.353689 0.141802 0.00857557
0.391546 0.140002 0.00828565
0.436774 0.136248 0.00563058
0.493019 0.129656 0.00047303
0.552605 0.125399 0
0.599908 0.124987 0
0.624994 0.124987 0
0.649989 0.124987 0
0.674998 0.124987 0
0.699992 0.124987 0
0.725002 0.124987 0
0.749996 0.124987 0
0.77499 0.124987 0
0.8 0.124987 0
0.824994 0.124987 0
0.850004 0.124987 0
0.874998 0.124987 0
0.899992 0.124987 0
0.925002 0.124987 0
0.949996 0.124987 0
0.975006 0.124987 0
1 0.124987 0
0 0.183505 0.00646983
0.0249943 0.183215 0.00636301
0.0499886 0.183017 0.00588998
0.0763561 0.182895 0.00436408
0.108721 0.182528 0.00131228
0.146151 0.180621 0.000137331
0.182757 0.178637 0.000900282
0.217395 0.177234 0.00302129
0.251331 0.176104 0.00520333
0.284916 0.175219 0.0074464
0.3187 0.174411 0.00927749
0.353582 0.173434 0.0103456
0.390356 0.172076 0.0105592
0.432303 0.169375 0.00868238
0.484062 0.164111 0.00341802
0.543603 0.15671 4.57771e-05
0.598062 0.150484 0
0.624994 0.149996 0
0.649989 0.149996 0
0.674998 0.149996 0
0.699992 0.149996 0
0.725002 0.149996 0
0.749996 0.149996 0
0.77499 0.149996 0
0.8 0.149996 0
0.824994 0.149996 0
0.850004 0.149996 0
0.874998 0.149996 0
0.899992 0.149996 0
0.925002 0.149996 0
0.949996 0.149996 0
0.975006 0.149996 0
1 0.149996 0
0 0.215015 0.00881971
0.0249943 0.214771 0.00872816
0.0499886 0.214588 0.00851453
0.0754864 0.214542 0.0075227
0.105135 0.214618 0.00527962
0.13901 0.214038 0.00198367
0.177401 0.211978 0.000579843
0.214557 0.209964 0.00257877
0.249775 0.208515 0.00527962
0.284474 0.20737 0.00819409
0.318807 0.2065 0.0107271
0.353613 0.205661 0.0122683
0.389746 0.204608 0.0129549
0.429252 0.202762 0.0119478
0.476432 0.198932 0.00759899
0.533822 0.192462 0.0010071
0.593286 0.185443 0
0.624994 0.181765 0
0.649989 0.179294 0
0.674998 0.177401 0
0.699992 0.17583 0
0.725002 0.175021 0
0.749996 0.17499 0
0.77499 0.17499 0
0.8 0.17499 0
0.824994 0.17499 0
0.850004 0.17499 0
0.874998 0.17499 0
0.899992 0.17499 0
0.925002 0.17499 0
0.949996 0.17499 0
0.975006 0.17499 0
1 0.17499 0
0.000198367 0.246921 0.0117647
0.0251774 0.246708 0.0116732
0.0501564 0.246571 0.0115969
0.0755779 0.246509 0.0111238
0.103487 0.246769 0.00961318
0.134844 0.246952 0.00689708
0.169955 0.24622 0.00360113
0.209094 0.244053 0.00273136
0.246937 0.242023 0.00518807
0.28304 0.240543 0.00852979
0.318578 0.239384 0.0119326
0.35375 0.23856 0.0142672
0.389685 0.23772 0.0154269
0.427482 0.2365 0.0153048
0.470817 0.233906 0.0121614
0.523949 0.22887 0.00491341
0.583368 0.222232 0.000198367
0.624994 0.217197 0
0.649989 0.214572 0
0.674998 0.212055 0
0.699992 0.20972 0
0.725002 0.207584 0
0.749996 0.205768 0
0.77499 0.204196 0
0.8 0.202792 0
0.824994 0.201724 0
0.850004 0.201617 0
0.874998 0.201663 0
0.899992 0.201724 0
0.925002 0.201785 0
0.949996 0.201846 0
0.975006 0.20209 0
1 0.202441 0
0.00154116 0.279271 0.015198
0.0264897 0.279149 0.0151369
0.0514534 0.279042 0.0150912
0.0766155 0.278996 0.0149844
0.103548 0.279179 0.0141451
0.133242 0.279683 0.0122377
0.165454 0.279942 0.00933852
0.201724 0.279072 0.00619516
0.241566 0.276875 0.00585946
0.280217 0.274861 0.00886549
0.317311 0.273381 0.0126497
0.353613 0.272312 0.0160067
0.389792 0.271534 0.0179446
0.42681 0.270726 0.0186618
0.46714 0.269123 0.0168002
0.515175 0.26569 0.0107118
0.572915 0.259861 0.00204471
0.623865 0.253864 0
0.649989 0.251026 0
0.674998 0.248615 0
0.699992 0.246265 0
0.725002 0.244068 0
0.749996 0.242054 0
0.77499 0.240192 0
0.8 0.238514 0
0.824994 0.237232 0
0.850004 0.237079 0
0.874998 0.237339 0
0.899992 0.237629 0
0.925002 0.237949 0
0.949996 0.238285 0
0.975006 0.238605 0
1 0.238941 0
0.00408942 0.312291 0.0189059
0.0290532 0.312215 0.0188754
0.0540475 0.312184 0.0188602
0.079057 0.312215 0.0188754
0.104784 0.312245 0.0185855
0.132891 0.312657 0.0175174
0.163851 0.31339 0.0154726
0.19704 0.313634 0.0124971
0.23444 0.312642 0.00968948
0.275303 0.310414 0.0099794
0.314778 0.308461 0.0134432
0.352544 0.307134 0.0171817
0.389624 0.306218 0.0200961
0.426795 0.30547 0.0216526
0.465202 0.304524 0.0211795
0.509087 0.302373 0.0166781
0.562615 0.297932 0.00706493
0.61941 0.292119 0.000411994
0.649989 0.288258 0
0.674998 0.285847 0
0.699992 0.283543 0
0.725002 0.281361 0
0.749996 0.279377 0
0.77499 0.277501 0
0.8 0.275853 0
0.824994 0.274495 0
0.850004 0.274159 0
0.874998 0.274418 0
0.899992 0.274693 0
0.925002 0.275013 0
0.949996 0.275349 0
0.975006 0.275654 0
1 0.275944 0
0.00654612 0.346075 0.0227207
0.0315404 0.346075 0.0227207
0.0565499 0.346136 0.0227512
0.0815747 0.346227 0.0227817
0.106737 0.346258 0.0227512
0.133471 0.346441 0.0223087
0.1635 0.347204 0.0210574
0.1953 0.347982 0.019089
0.229664 0.348104 0.0161288
0.268559 0.346914 0.0137789
0.310445 0.344671 0.0149081
0.350439 0.342885 0.0183719
0.388724 0.341756 0.0216983
0.42649 0.340902 0.0240024
0.464271 0.340169 0.0248569
0.505486 0.338781 0.0219272
0.553628 0.335897 0.0138247
0.611063 0.330922 0.00282292
0.649927 0.325933 0
0.674998 0.323583 0
0.699992 0.321279 0
0.725002 0.319158 0
0.749996 0.317143 0
0.77499 0.315312 0
0.8 0.313619 0
0.824994 0.3122 0
0.850004 0.31165 0
0.874998 0.311879 0
0.899992 0.312139 0
0.925002 0.312398 0
0.949996 0.312703 0
0.975006 0.313039 0
1 0.313344 0
0.00880446 0.380774 0.0266423
0.0337987 0.38085 0.0266575
0.0588388 0.380972 0.0267185
0.0838636 0.381109 0.0267643
0.108904 0.381292 0.0268406
0.13463 0.381323 0.0267033
0.163363 0.381826 0.0260624
0.194781 0.382696 0.0248417
0.227588 0.383383 0.0228275
0.263416 0.383337 0.0199435
0.30428 0.381811 0.0180819
0.346883 0.379522 0.0199588
0.387137 0.377935 0.0231632
0.42565 0.376944 0.0258335
0.463722 0.376165 0.0273899
0.503365 0.375174 0.0260777
0.548043 0.373175 0.0195773
0.601175 0.369421 0.00759899
0.648081 0.364584 0.000228885
0.674998 0.361578 0
0.699992 0.359319 0
0.725002 0.357183 0
0.749996 0.3552 0
0.77499 0.353338 0
0.8 0.35169 0
0.824994 0.350164 0
0.850004 0.34934 0
0.874998 0.349569 0
0.899992 0.349844 0
0.925002 0.350149 0
0.949996 0.3505 0
0.975006 0.350851 0
1 0.351186 0
0.0104829 0.416388 0.0303349
0.0354772 0.416556 0.0303807
0.060502 0.41677 0.0304417
0.0855116 0.416983 0.0305028
0.110536 0.417288 0.0305943
0.135683 0.417319 0.0305791
0.163012 0.417487 0.0303044
0.193881 0.418189 0.0296178
0.22649 0.418967 0.0283818
0.260624 0.419455 0.0261997
0.298558 0.418952 0.0233768
0.341299 0.416999 0.0224002
0.384283 0.41471 0.0246738
0.424414 0.413291 0.0274357
0.462898 0.412375 0.0292363
0.50193 0.41149 0.0290837
0.544442 0.410025 0.0239872
0.593317 0.407385 0.0132296
0.644297 0.403265 0.00195315
0.674998 0.39968 0
0.699992 0.397421 0
0.725002 0.395315 0
0.749996 0.393317 0
0.77499 0.391485 0
0.8 0.389822 0
0.824994 0.388342 0
0.850004 0.38732 0
0.874998 0.387488 0
0.899992 0.387762 0
0.925002 0.388113 0
0.949996 0.388464 0
0.975006 0.388815 0
1 0.389166 0
0.0102693 0.453208 0.032929
0.0352178 0.453483 0.0329595
0.0601663 0.453758 0.03299
0.0851148 0.454063 0.0330205
0.110063 0.454429 0.0330663
0.135027 0.454582 0.0330816
0.160998 0.454475 0.0330816
0.191363 0.454627 0.0330205
0.224765 0.455192 0.0325933
0.258564 0.455695 0.0313725
0.294636 0.455756 0.0289158
0.334905 0.454688 0.0263218
0.379034 0.452293 0.0263981
0.421958 0.450065 0.0286412
0.461738 0.448814 0.0306249
0.500954 0.447883 0.0307317
0.542214 0.446662 0.0269017
0.588418 0.444709 0.01738
0.639673 0.441444 0.00456245
0.674998 0.437842 0
0.699992 0.435431 0
0.725002 0.433371 0
0.749996 0.431449 0
0.77499 0.429679 0
0.8 0.428077 0
0.824994 0.426627 0
0.850004 0.425544 0
0.874998 0.425544 0
0.899992 0.425849 0
0.925002 0.4262 0
0.949996 0.426551 0
0.975006 0.426902 0
1 0.427268 0
0.00560006 0.492119 0.0327153
0.0304265 0.492485 0.0326696
0.0552529 0.492836 0.032639
0.0800793 0.493248 0.0325933
0.104875 0.493675 0.0325475
0.129732 0.49395 0.0325017
0.154894 0.493812 0.0325475
0.183963 0.493339 0.0330968
0.219623 0.492958 0.0341039
0.25507 0.492866 0.0343328
0.290959 0.492851 0.0332036
0.329397 0.492393 0.0308232
0.372076 0.490639 0.0289464
0.417121 0.487938 0.0296178
0.459571 0.485924 0.0313115
0.499672 0.484718 0.031281
0.540337 0.483619 0.0280766
0.584848 0.482017 0.0194095
0.634714 0.47953 0.00671397
0.674998 0.476249 0
0.699992 0.473671 0
0.725002 0.471641 0
0.749996 0.469764 0
0.77499 0.468055 0
0.8 0.466499 0
0.824994 0.46511 0
0.850004 0.463996 0
0.874998 0.463798 0
0.899992 0.464103 0
0.925002 0.464424 0
0.949996 0.464836 0
0.975006 0.465156 0
1 0.465522 0
0 0.533974 0.0282902
0.0249943 0.534417 0.0281224
0.0499886 0.53492 0.0279393
0.0749828 0.535424 0.0277409
0.0999924 0.535943 0.0275425
0.124987 0.536416 0.0273747
0.149996 0.536339 0.0274052
0.17499 0.535668 0.027985
0.20708 0.534142 0.0301213
0.245655 0.532631 0.0325475
0.28423 0.531579 0.033875
0.32314 0.530739 0.0331884
0.364202 0.529458 0.0312047
0.409461 0.526864 0.0301671
0.454856 0.524102 0.0306401
0.49723 0.52224 0.030396
0.538643 0.520974 0.027039
0.581903 0.519631 0.0190738
0.629602 0.517632 0.00733959
0.674998 0.514885 0
0.699992 0.51223 0
0.725002 0.510231 0
0.749996 0.508431 0
0.77499 0.506783 0
0.8 0.505257 0
0.824994 0.503929 0
0.850004 0.502785 0
0.874998 0.502327 0
0.899992 0.502647 0
0.925002 0.502983 0
0.949996 0.503349 0
0.975006 0.50367 0
1 0.504005 0
0 0.577691 0.0213169
0.0249943 0.578134 0.021149
0.0499886 0.578637 0.0209812
0.0749828 0.579141 0.020798
0.0999924 0.579583 0.0206455
0.124987 0.580179 0.0204318
0.149996 0.580133 0.0204471
0.17499 0.579538 0.0207523
0.199985 0.578012 0.0220951
0.230335 0.57557 0.0249943
0.269871 0.573236 0.0279698
0.311757 0.571283 0.0297246
0.354009 0.569482 0.0294957
0.398764 0.567086 0.028397
0.44651 0.563714 0.0278477
0.49247 0.560861 0.0270848
0.535988 0.558968 0.0234073
0.579156 0.557519 0.0161288
0.625238 0.555795 0.00547799
0.674022 0.553429 3.0518e-05
0.699992 0.550805 0
0.725002 0.548836 0
0.749996 0.547097 0
0.77499 0.54551 0
0.8 0.54406 0
0.824994 0.542748 0
0.850004 0.541588 0
0.874998 0.540902 0
0.899992 0.541176 0
0.925002 0.541497 0
0.949996 0.541833 0
0.975006 0.542107 0
1 0.542428 0
0 0.620905 0.015259
0.0249943 0.621332 0.0151369
0.0499886 0.621805 0.0149844
0.0749828 0.622232 0.0148623
0.0999924 0.622599 0.0147402
0.124987 0.623117 0.0145876
0.149996 0.623178 0.0145724
0.17499 0.62269 0.014725
0.199985 0.621637 0.0151827
0.22501 0.619348 0.0166476
0.254002 0.616648 0.0189975
0.294621 0.613916 0.0213474
0.338903 0.611399 0.0222782
0.384298 0.608728 0.0218357
0.43299 0.605112 0.0208591
0.482704 0.60116 0.019501
0.530037 0.598047 0.0160983
0.575418 0.595773 0.00981155
0.621103 0.593851 0.00231937
0.668727 0.591638 0
0.699992 0.589136 0
0.725002 0.587076 0
0.749996 0.585382 0
0.77499 0.583825 0
0.8 0.582437 0
0.824994 0.58117 0
0.850004 0.580072 0
0.874998 0.579217 0
0.899992 0.579385 0
0.925002 0.57966 0
0.949996 0.579889 0
0.975006 0.580133 0
1 0.580362 0
0 0.661097 0.0141299
0.0249943 0.661387 0.0141451
0.0499886 0.661723 0.0141604
0.0749828 0.662043 0.0142214
0.0999924 0.662318 0.0142824
0.124987 0.662638 0.0143435
0.149996 0.662821 0.014374
0.17499 0.662562 0.0143282
0.199985 0.662043 0.0139773
0.224994 0.661601 0.0118868
0.250019 0.65977 0.0112306
0.278187 0.656947 0.0124208
0.320775 0.654093 0.0130465
0.366781 0.651225 0.0122988
0.415351 0.647654 0.0107576
0.467613 0.642924 0.00886549
0.519448 0.638361 0.00595102
0.568414 0.634821 0.00248722
0.615839 0.631983 0
0.663371 0.629511 0
0.699794 0.626978 0
0.725002 0.624735 0
0.749996 0.623041 0
0.77499 0.621546 0
0.8 0.620203 0
0.824994 0.618952 0
0.850004 0.617868 0
0.874998 0.616999 0
0.899992 0.616861 0
0.925002 0.61706 0
0.949996 0.617288 0
0.975006 0.617426 0
1 0.617624 0
0 0.697383 0.016495
0.0249943 0.697475 0.016556
0.0499886 0.697597 0.0166171
0.0749828 0.697704 0.0166629
0.0999924 0.69781 0.0167239
0.124987 0.697948 0.0167849
0.149996 0.69807 0.0168154
0.17499 0.697993 0.0167849
0.199985 0.697734 0.0166171
0.224994 0.69749 0.015259
0.249989 0.697368 0.0117494
0.274998 0.697093 0.00766003
0.303456 0.695598 0.00546273
0.348623 0.693355 0.00349432
0.396414 0.690196 0.000839246
0.448676 0.685512 0.000671397
0.503914 0.679881 0.000396735
0.55726 0.674876 0
0.608164 0.670695 0
0.657313 0.667323 0
0.698222 0.664408 0
0.725002 0.661906 0
0.749996 0.660105 0
0.77499 0.658656 0
0.8 0.657328 0
0.824994 0.656107 0
0.850004 0.655009 0
0.874998 0.654078 0
0.899992 0.653712 0
0.925002 0.653864 0
0.949996 0.654002 0
0.975006 0.654124 0
1 0.654231 0
0 0.725002 0.0186923
0.0249943 0.725002 0.0187381
0.0499886 0.725002 0.0187991
0.0749828 0.725002 0.0188449
0.0999924 0.725002 0.0188907
0.124987 0.725002 0.0189364
0.149996 0.725002 0.0189975
0.17499 0.725002 0.018967
0.199985 0.725002 0.0188754
0.224994 0.725002 0.018143
0.249989 0.725002 0.0150301
0.274998 0.725002 0.0106355
0.299992 0.725002 0.00572213
0.334554 0.725002 0.000732433
0.379553 0.725002 0
0.429511 0.724712 0
0.484962 0.721386 0
0.542092 0.715755 0
0.597192 0.71017 0
0.649485 0.705364 0
0.69514 0.701625 0
0.725002 0.698756 0
0.749996 0.696788 0
0.77499 0.695308 0
0.8 0.693996 0
0.824994 0.692775 0
0.850004 0.691646 0
0.874998 0.690639 0
0.899992 0.690074 0
0.925002 0.69015 0
0.949996 0.690227 0
0.975006 0.690257 0
1 0.690303 0
0 0.749996 0.019852
0.0249943 0.749996 0.0198672
0.0499886 0.749996 0.0198825
0.0749828 0.749996 0.0198978
0.0999924 0.749996 0.019913
0.124987 0.749996 0.019913
0.149996 0.749996 0.0199283
0.17499 0.749996 0.0199283
0.199985 0.749996 0.019913
0.224994 0.749996 0.0196536
0.249989 0.749996 0.017258
0.274998 0.749996 0.0130007
0.299992 0.749996 0.00823987
0.328313 0.749996 0.00283818
0.370336 0.749996 0
0.415915 0.749996 0
0.467475 0.749996 0
0.524636 0.749996 0
0.583307 0.748287 0
0.639735 0.743252 0
0.690013 0.738811 0
0.72488 0.735378 0
0.749996 0.733074 0
0.77499 0.731548 0
0.8 0.730159 0
0.824994 0.728939 0
0.850004 0.727779 0
0.874998 0.726696 0
0.899992 0.725917 0
0.925002 0.725917 0
0.949996 0.725917 0
0.975006 0.725917 0
1 0.725887 0
0 0.77499 0.0199588
0.0249943 0.77499 0.0199588
0.0499886 0.77499 0.0199588
0.0749828 0.77499 0.0199588
0.0999924 0.77499 0.0199588
0.124987 0.77499 0.0199588
0.149996 0.77499 0.0199588
0.17499 0.77499 0.0199588
0.199985 0.77499 0.0199588
0.224994 0.77499 0.019852
0.249989 0.77499 0.018204
0.274998 0.77499 0.0142367
0.299992 0.77499 0.00961318
0.325887 0.77499 0.0043946
0.365423 0.77499 0.000259403
0.409354 0.77499 0
0.458183 0.77499 0
0.512627 0.77499 0
0.57084 0.77499 0
0.629053 0.77499 0
0.681941 0.774365 0
0.723125 0.771237 0
0.749996 0.768811 0
0.77499 0.7673 0
0.8 0.765927 0
0.824994 0.76466 0
0.850004 0.76347 0
0.874998 0.762387 0
0.899992 0.761501 0
0.925002 0.761303 0
0.949996 0.761227 0
0.975006 0.761151 0
1 0.761044 0
0 0.8 0.0199588
0.0249943 0.8 0.0199588
0.0499886 0.8 0.0199588
0.0749828 0.8 0.0199588
0.0999924 0.8 0.0199588
0.124987 0.8 0.0199588
0.149996 0.8 0.0199588
0.17499 0.8 0.0199588
0.199985 0.8 0.0199588
0.224994 0.8 0.019913
0.249989 0.8 0.0188602
0.274998 0.8 0.015198
0.299992 0.8 0.0105745
0.325246 0.8 0.00556954
0.361868 0.8 0.000823987
0.405173 0.8 0
0.452827 0.8 0
0.50602 0.8 0
0.563546 0.8 0
0.621988 0.8 0
0.675883 0.8 0
0.720714 0.799725 0
0.749996 0.798688 0
0.77499 0.798306 0
0.8 0.798306 0
0.824994 0.798306 0
0.850004 0.798215 0
0.874998 0.797406 0
0.899992 0.79649 0
0.925002 0.796109 0
0.949996 0.795972 0
0.975006 0.795834 0
1 0.795651 0
0 0.824994 0.0199588
0.0249943 0.824994 0.0199588
0.0499886 0.824994 0.0199588
0.0749828 0.824994 0.0199588
0.0999924 0.824994 0.0199588
0.124987 0.824994 0.0199588
0.149996 0.824994 0.0199588
0.17499 0.824994 0.0199588
0.199985 0.824994 0.0199588
0.224994 0.824994 0.0199435
0.249989 0.824994 0.0194095
0.274998 0.824994 0.0160525
0.299992 0.824994 0.0114595
0.324987 0.824994 0.0065919
0.358755 0.824994 0.00141909
0.401511 0.824994 0
0.448081 0.824994 0
0.500175 0.824994 0
0.557137 0.824994 0
0.615793 0.824994 0
0.670832 0.824994 0
0.718059 0.824872 0
0.749996 0.823911 0
0.77499 0.823316 0
0.8 0.823316 0
0.824994 0.823316 0
0.850004 0.823316 0
0.874998 0.823316 0
0.899992 0.823316 0
0.925002 0.82327 0
0.949996 0.82324 0
0.975006 0.823194 0
1 0.823148 0
0 0.850004 0.0199588
0.0249943 0.850004 0.0199588
0.0499886 0.850004 0.0199588
0.0749828 0.850004 0.0199588
0.0999924 0.850004 0.0199588
0.124987 0.850004 0.0199588
0.149996 0.850004 0.0199588
0.17499 0.850004 0.0199588
0.199985 0.850004 0.0199588
0.224994 0.850004 0.0199588
0.249989 0.850004 0.0196994
0.274998 0.850004 0.0168307
0.299992 0.850004 0.0122835
0.324987 0.850004 0.00747692
0.355901 0.850004 0.00205997
0.398199 0.850004 0
0.443915 0.850004 0
0.494789 0.850004 0
0.551141 0.850004 0
0.609918 0.850004 0
0.665949 0.850004 0
0.715038 0.849973 0
0.749996 0.849149 0
0.77499 0.848371 0
0.8 0.84831 0
0.824994 0.84831 0
0.850004 0.84831 0
0.874998 0.84831 0
0.899992 0.84831 0
0.925002 0.84831 0
0.949996 0.84831 0
0.975006 0.84831 0
1 0.84831 0
0 0.874998 0.0199588
0.0249943 0.874998 0.0199588
0.0499886 0.874998 0.0199588
0.0749828 0.874998 0.0199588
0.0999924 0.874998 0.0199588
0.124987 0.874998 0.0199588
0.149996 0.874998 0.0199588
0.17499 0.874998 0.0199588
0.199985 0.874998 0.0199588
