datas/cubes/TC - FORWARD_40.cube
TITLE "Generate by Resolve"
LUT_3D_SIZE 9
0 0.00337224 0.0112306
0.0859541 0.0028687 0.00943008
0.190692 0.00140383 0.00184634
0.339162 0.0055848 0
0.670146 0 0
0.77499 0 0
0.850004 0 0
0.925002 0 0
1 0 0
0.00177005 0.0908522 0
0.0834058 0.0885176 0.00315862
0.182223 0.0852216 0.00102235
0.329885 0.0805524 0
0.661295 0.0749981 0
0.77499 0.0749981 0
0.850004 0.0749981 0
0.925002 0.0749981 0
1 0.0749981 0
0.017792 0.178424 0
0.0928206 0.178378 0
0.178271 0.178271 0.00166323
0.32314 0.167163 0.000183108
0.660639 0.149996 0
0.77499 0.149996 0
0.850004 0.149996 0
0.925002 0.149996 0
1 0.149996 0
0.0483253 0.29041 0
0.126467 0.294286 0
0.206836 0.300908 0
0.325841 0.308293 0.0165103
0.594537 0.292424 0.00129702
0.77499 0.262806 0
0.850004 0.265354 0
0.925002 0.28661 0
1 0.30312 0
0.138491 0.476219 0
0.224521 0.489921 0
0.308476 0.502449 0
0.417777 0.506966 0.00265507
0.583215 0.523964 0.054551
0.77499 0.520409 0
0.850004 0.520668 0
0.925002 0.543191 0
1 0.563378 0
0.281056 0.71136 0
0.369635 0.722606 0
0.449943 0.726986 0
0.529793 0.731029 0
0.699931 0.72134 0
0.77499 0.733349 0
0.850004 0.730724 0
0.925002 0.737362 0
1 0.746151 0
0.307393 0.808179 0
0.382376 0.808179 0
0.457389 0.808179 0
0.532387 0.808179 0
0.699992 0.803677 0
0.77499 0.829496 0
0.850004 0.832151 0
0.925002 0.832151 0
1 0.832151 0
0.307393 0.883177 0
0.382376 0.883177 0
0.457389 0.883177 0
0.539071 0.882368 0
0.699992 0.881376 0
0.77499 0.904936 0
0.850004 0.907149 0
0.925002 0.907149 0
1 0.907149 0
0.307393 0.958175 0
0.382376 0.958175 0
0.457389 0.958175 0
0.54789 0.956329 0
0.699992 0.958694 0
0.77499 0.980407 0
0.850004 0.982147 0
0.925002 0.982147 0
1 0.982147 0
0.000198367 0.00230411 0.106325
0.0853437 0.0019379 0.103899
0.190875 0.000289921 0.0945449
0.337606 0.0055848 0.0749981
0.668345 0 0.0749981
0.77499 0 0.0749981
0.850004 0 0.0749981
0.925002 0 0.0749981
1 0 0.0749981
0.000335698 0.0898756 0.0960861
0.079057 0.0882734 0.0969253
0.182483 0.0841993 0.0893111
0.329213 0.0805524 0.0749981
0.660807 0.0749981 0.0749981
0.77499 0.0749981 0.0749981
0.850004 0.0749981 0.0749981
0.925002 0.0749981 0.0749981
1 0.0749981 0.0749981
0.0115816 0.180316 0.0749981
0.0865644 0.180499 0.0749981
0.177386 0.178836 0.0819867
0.324453 0.16759 0.075288
0.665263 0.149996 0.0749981
0.77499 0.149996 0.0749981
0.850004 0.149996 0.0749981
0.925002 0.149996 0.0749981
1 0.149996 0.0749981
0.0490883 0.291341 0.0749981
0.127611 0.295705 0.0749981
0.208835 0.30338 0.0749981
0.329427 0.311055 0.0925307
0.603067 0.29546 0.0760662
0.77499 0.266896 0.0749981
0.850004 0.269642 0.0749981
0.925002 0.290852 0.0749981
1 0.307881 0.0749981
0.141726 0.480232 0.0749981
0.227726 0.494285 0.0749981
0.311894 0.507469 0.0749981
0.423926 0.510948 0.0771801
0.588968 0.528374 0.129015
0.77499 0.524758 0.0749981
0.850004 0.52549 0.0749981
0.925002 0.547845 0.0749981
1 0.566812 0.0749981
0.284977 0.714611 0.0749981
0.373281 0.725612 0.0749981
0.451667 0.728435 0.0749981
0.531441 0.732403 0.0749981
0.699977 0.723537 0.0749981
0.77499 0.735378 0.0749981
0.850004 0.732387 0.0749981
0.925002 0.738491 0.0749981
1 0.746761 0.0749981
0.307393 0.808179 0.0749981
0.382376 0.808179 0.0749981
0.457389 0.808179 0.0749981
0.532387 0.808179 0.0749981
0.699992 0.8038 0.0749981
0.77499 0.829526 0.0749981
0.850004 0.832151 0.0749981
0.925002 0.832151 0.0749981
1 0.832151 0.0749981
0.307393 0.883177 0.0749981
0.382376 0.883177 0.0749981
0.457389 0.883177 0.0749981
0.538796 0.882399 0.0749981
0.699992 0.881224 0.0749981
0.77499 0.904814 0.0749981
0.850004 0.907149 0.0749981
0.925002 0.907149 0.0749981
1 0.907149 0.0749981
0.307393 0.958175 0.0749981
0.382376 0.958175 0.0749981
0.457389 0.958175 0.0749981
0.546075 0.956527 0.0749981
0.699992 0.958267 0.0749981
0.77499 0.980224 0.0749981
0.850004 0.982147 0.0749981
0.925002 0.982147 0.0749981
1 0.982147 0.0749981
0.00271611 0.000259403 0.215381
0.0847028 9.15541e-05 0.213977
0.184817 0.000289921 0.207294
0.338262 0.00442512 0.165377
0.664424 0 0.149996
0.77499 0 0.149996
0.850004 0 0.149996
0.925002 0 0.149996
1 0 0.149996
0.00155642 0.0861677 0.209339
0.0793927 0.0852522 0.207691
0.179217 0.0822156 0.201724
0.331441 0.0792554 0.164416
0.658976 0.0749981 0.149996
0.77499 0.0749981 0.149996
0.850004 0.0749981 0.149996
0.925002 0.0749981 0.149996
1 0.0749981 0.149996
0.000244144 0.181201 0.186282
0.0752728 0.181613 0.186542
0.168719 0.179812 0.191623
0.330175 0.166567 0.165057
0.668254 0.149996 0.149996
0.77499 0.149996 0.149996
0.850004 0.149996 0.149996
0.925002 0.149996 0.149996
1 0.149996 0.149996
0.0492561 0.292729 0.149996
0.12752 0.298512 0.149996
0.206989 0.307912 0.149996
0.333669 0.31516 0.170764
0.611948 0.299062 0.150835
0.77499 0.271 0.149996
0.850004 0.273732 0.149996
0.925002 0.296315 0.149996
1 0.314336 0.149996
0.143984 0.48307 0.149996
0.230411 0.498039 0.149996
0.314778 0.511711 0.149996
0.430014 0.514611 0.152667
0.593561 0.531823 0.20351
0.77499 0.527535 0.149996
0.850004 0.528496 0.149996
0.925002 0.550851 0.149996
1 0.569726 0.149996
0.286427 0.715801 0.149996
0.374487 0.726619 0.149996
0.452842 0.729397 0.149996
0.531685 0.732601 0.149996
0.699977 0.724132 0.149996
0.77499 0.735683 0.149996
0.850004 0.732204 0.149996
0.925002 0.737758 0.149996
1 0.745495 0.149996
0.307393 0.808179 0.149996
0.382376 0.808179 0.149996
0.457389 0.808179 0.149996
0.532387 0.808179 0.149996
0.699992 0.803662 0.149996
0.77499 0.829404 0.149996
0.850004 0.832151 0.149996
0.925002 0.832151 0.149996
1 0.832151 0.149996
0.307393 0.883177 0.149996
0.382376 0.883177 0.149996
0.457389 0.883177 0.149996
0.536339 0.882673 0.149996
0.699992 0.880598 0.149996
0.77499 0.904372 0.149996
0.850004 0.907149 0.149996
0.925002 0.907149 0.149996
1 0.907149 0.149996
0.307393 0.958175 0.149996
0.382376 0.958175 0.149996
0.457389 0.958175 0.149996
0.543969 0.956756 0.149996
0.699992 0.957275 0.149996
0.77499 0.979812 0.149996
0.850004 0.982147 0.149996
0.925002 0.982147 0.149996
1 0.982147 0.149996
0.00604257 0 0.436667
0.0812695 0 0.427054
0.175357 0 0.396719
0.321523 0.00381476 0.356008
0.611734 0 0.2822
0.77499 0 0.227237
0.850004 0 0.224994
0.925002 0 0.224994
1 0 0.224994
0.00675975 0.0760052 0.406165
0.0817426 0.0758831 0.400031
0.171847 0.0758221 0.384253
0.315343 0.0789654 0.351278
0.604013 0.0749981 0.280003
0.77499 0.0749981 0.229541
0.850004 0.0749981 0.226139
0.925002 0.0749981 0.231235
1 0.0749981 0.239063
0.00886549 0.168811 0.374746
0.0839704 0.169207 0.376913
0.169192 0.169924 0.377157
0.316777 0.161715 0.35465
0.630701 0.149996 0.296925
0.77499 0.149996 0.250874
0.850004 0.149996 0.255802
0.925002 0.149996 0.283314
1 0.149996 0.315007
0.00540169 0.301839 0.308248
0.0818036 0.308522 0.314977
0.158785 0.318959 0.324269
0.304952 0.322469 0.353491
0.57792 0.308843 0.306508
0.77499 0.269154 0.255528
0.850004 0.271519 0.258076
0.925002 0.298161 0.286656
1 0.318547 0.309331
0.117678 0.495918 0.229694
0.196338 0.512474 0.229297
0.271595 0.527687 0.22948
0.390387 0.530785 0.252323
0.585595 0.537072 0.315511
0.77499 0.530755 0.225605
0.850004 0.530648 0.226246
0.925002 0.553033 0.234058
1 0.573007 0.245029
0.28864 0.717769 0.224994
0.376043 0.728008 0.224994
0.453788 0.730388 0.224994
0.52639 0.734493 0.224994
0.699992 0.724804 0.224994
0.77499 0.736233 0.224994
0.850004 0.731655 0.224994
0.925002 0.736294 0.224994
1 0.743389 0.224994
0.307286 0.808225 0.224994
0.382071 0.808286 0.224994
0.456123 0.808621 0.224994
0.53164 0.808438 0.224994
0.699992 0.803342 0.224994
0.77499 0.829038 0.224994
0.850004 0.832151 0.224994
0.925002 0.832151 0.224994
1 0.832151 0.224994
0.27396 0.894789 0.224994
0.34258 0.896956 0.224994
0.421225 0.89572 0.224994
0.517021 0.889128 0.224994
0.699992 0.879515 0.224994
0.77499 0.903593 0.224994
0.850004 0.907149 0.224994
0.925002 0.907149 0.224994
1 0.907149 0.224994
0.246937 0.978882 0.224994
0.323781 0.978256 0.224994
0.406928 0.975525 0.224994
0.510689 0.967834 0.224994
0.699992 0.955749 0.224994
0.77499 0.97908 0.224994
0.850004 0.982147 0.224994
0.925002 0.982147 0.224994
1 0.982147 0.224994
0.00987259 0 0.699992
0.0848707 0 0.699992
0.171771 0 0.699992
0.358221 0 0.6981
0.609766 0 0.632715
0.77499 0 0.595972
0.850004 0 0.572671
0.925002 0 0.579538
1 0 0.588296
0.00985733 0.0749981 0.699992
0.0848554 0.0749981 0.699992
0.168353 0.0749981 0.699992
0.349813 0.0749981 0.69752
0.606897 0.0749981 0.631266
0.77499 0.0749981 0.603891
0.850004 0.0749981 0.593973
0.925002 0.0749981 0.612894
1 0.0749981 0.628107
0.00686656 0.149996 0.699992
0.0817731 0.149996 0.699992
0.160586 0.149996 0.699992
0.352712 0.149996 0.699992
0.640085 0.149996 0.662791
0.77499 0.149996 0.638849
0.850004 0.149996 0.644648
0.925002 0.149996 0.667842
1 0.149996 0.687572
0.00315862 0.281209 0.659571
0.0769818 0.289113 0.675242
0.151476 0.299977 0.687266
0.311391 0.307744 0.635508
0.578164 0.296345 0.600565
0.77499 0.255055 0.636088
0.850004 0.25658 0.639399
0.925002 0.284398 0.659007
1 0.303593 0.671717
0.0227207 0.515404 0.520775
0.0934615 0.532738 0.536858
0.163546 0.546715 0.549279
0.263203 0.556283 0.561975
0.534279 0.543893 0.581018
0.753857 0.539696 0.548226
0.82884 0.538766 0.546883
0.906355 0.557382 0.565576
0.984268 0.574945 0.583368
0.0331579 0.77499 0.303853
0.102907 0.77499 0.312276
0.17438 0.77499 0.318486
0.244617 0.77499 0.321691
0.625864 0.739559 0.467842
0.770733 0.735271 0.541253
0.850004 0.732967 0.517769
0.925002 0.736049 0.523125
1 0.742 0.535729
0.0496834 0.850004 0.302113
0.109728 0.850004 0.310399
0.181003 0.850004 0.312718
0.260365 0.850004 0.304341
0.626795 0.824918 0.39408
0.77499 0.829007 0.483726
0.850004 0.837705 0.379843
0.925002 0.837522 0.369009
1 0.837537 0.371786
0 0.925002 0.371206
0.0749981 0.925002 0.380819
0.149996 0.925002 0.370642
0.23743 0.925002 0.337438
0.627955 0.89984 0.41149
0.77499 0.902846 0.464622
0.850004 0.911772 0.350851
0.925002 0.911177 0.337682
1 0.910948 0.33373
0 1 0.419974
0.0749981 1 0.415152
0.149996 1 0.394095
0.225406 1 0.360281
0.630335 0.97464 0.434348
0.77499 0.977844 0.467857
0.850004 0.986389 0.341756
0.925002 0.985473 0.325963
1 0.985031 0.31957
0.00987259 0 0.77499
0.0848707 0 0.77499
0.162066 0 0.77499
0.337987 0 0.77499
0.609171 0 0.77499
0.77499 0 0.77499
0.850004 0 0.77499
0.925002 0 0.77499
1 0 0.77499
0.00987259 0.0749981 0.77499
0.0848707 0.0749981 0.77499
0.160998 0.0749981 0.77499
0.332204 0.0749981 0.77499
0.609522 0.0749981 0.77499
0.77499 0.0749981 0.77499
0.850004 0.0749981 0.77499
0.925002 0.0749981 0.77499
1 0.0749981 0.77499
0.00907912 0.149996 0.77499
0.0838483 0.149996 0.77499
0.158618 0.149996 0.77499
0.340215 0.149996 0.77499
0.633356 0.149996 0.77499
0.77499 0.149996 0.77499
0.850004 0.149996 0.77499
0.925002 0.149996 0.77499
1 0.149996 0.77499
0 0.269169 0.77499
0.0749981 0.278279 0.77499
0.149996 0.289891 0.77499
0.303868 0.29279 0.77499
0.611872 0.271946 0.771878
0.77499 0.242573 0.77499
0.850004 0.244129 0.77499
0.925002 0.26746 0.77499
1 0.28658 0.77499
0.0133516 0.499992 0.77499
0.084947 0.51722 0.77499
0.157046 0.530205 0.77499
0.243702 0.542397 0.77499
0.543526 0.53637 0.746136
0.759731 0.532921 0.756176
0.835599 0.531273 0.756313
0.911223 0.549249 0.756771
0.987671 0.566705 0.757977
0 0.77499 0.753262
0.0749981 0.77499 0.757855
0.149996 0.77499 0.758511
0.224994 0.77499 0.759884
0.468452 0.770199 0.760098
0.736782 0.73669 0.748104
0.850004 0.728145 0.736446
0.925002 0.730587 0.738506
1 0.736675 0.744274
0 0.850004 0.731746
0.0749981 0.850004 0.743633
0.149996 0.850004 0.746303
0.224994 0.850004 0.744884
0.401648 0.850004 0.72636
0.74197 0.841321 0.69543
0.850004 0.843412 0.718029
0.925002 0.842954 0.715541
1 0.842954 0.715572
0 0.925002 0.758526
0.0749981 0.925002 0.758526
0.149996 0.925002 0.758526
0.224994 0.925002 0.758434
0.398123 0.925002 0.727275
0.738979 0.914031 0.683101
0.850004 0.917052 0.708431
0.925002 0.916777 0.703944
1 0.916533 0.70161
0 1 0.758526
0.0749981 1 0.758526
0.149996 1 0.758526
0.224994 1 0.758434
0.405798 1 0.73846
0.736675 0.989013 0.681849
0.850004 0.990997 0.702586
0.925002 0.990997 0.695583
1 0.990585 0.691035
0.00987259 0 0.850004
0.0848707 0 0.850004
0.161425 0 0.850004
0.330831 0 0.850004
0.603113 0 0.850004
0.77499 0 0.850004
0.850004 0 0.850004
0.925002 0 0.850004
1 0 0.850004
0.00987259 0.0749981 0.850004
0.0848707 0.0749981 0.850004
0.160555 0.0749981 0.850004
0.32697 0.0749981 0.850004
0.606043 0.0749981 0.850004
0.77499 0.0749981 0.850004
0.850004 0.0749981 0.850004
0.925002 0.0749981 0.850004
1 0.0749981 0.850004
0.00927749 0.149996 0.850004
0.0840925 0.149996 0.850004
0.158846 0.149996 0.850004
0.341176 0.149996 0.850004
0.635462 0.149996 0.850004
0.77499 0.149996 0.850004
0.850004 0.149996 0.850004
0.925002 0.149996 0.850004
1 0.149996 0.850004
0 0.268986 0.850004
0.0749981 0.279301 0.850004
0.149996 0.291936 0.850004
0.30631 0.29514 0.850004
0.613977 0.273991 0.846464
0.77499 0.243793 0.850004
0.850004 0.245838 0.850004
0.925002 0.271687 0.850004
1 0.292134 0.850004
0.0131685 0.500648 0.850004
0.0846723 0.518471 0.850004
0.156435 0.532479 0.850004
0.243702 0.544518 0.850004
0.544488 0.537209 0.821286
0.75938 0.533028 0.831144
0.835599 0.531136 0.831312
0.911208 0.549065 0.831754
0.98764 0.566247 0.832944
0 0.77499 0.849485
0.0749981 0.77499 0.844022
0.149996 0.77499 0.841001
0.224994 0.77499 0.838544
0.459266 0.770413 0.848264
0.736736 0.733211 0.850004
0.850004 0.724575 0.847868
0.925002 0.726299 0.848051
1 0.73167 0.8486
0 0.850004 0.833524
0.0749981 0.850004 0.833524
0.149996 0.850004 0.833524
0.224994 0.850004 0.833524
0.36347 0.850004 0.847044
0.699855 0.849928 0.838621
0.850004 0.848386 0.845884
0.925002 0.847486 0.846143
1 0.847532 0.846159
0 0.925002 0.833524
0.0749981 0.925002 0.833524
0.149996 0.925002 0.833524
0.224994 0.925002 0.833524
0.352895 0.925002 0.847196
0.688716 0.924636 0.837293
0.847044 0.923766 0.841688
0.925002 0.922911 0.839261
1 0.922744 0.836912
0 1 0.833524
0.0749981 1 0.833524
0.149996 1 0.833524
0.224994 1 0.833524
0.360922 1 0.84741
0.685008 0.999542 0.836759
0.842069 0.998795 0.832654
0.925002 0.997253 0.830213
1 0.99678 0.825071
0.00987259 0 0.925002
0.0848707 0 0.925002
0.161242 0 0.925002
0.328817 0 0.925002
0.601938 0 0.925002
0.77499 0 0.925002
0.850004 0 0.925002
0.925002 0 0.925002
1 0 0.925002
0.00987259 0.0749981 0.925002
0.0848707 0.0749981 0.925002
0.16051 0.0749981 0.925002
0.327016 0.0749981 0.925002
0.607599 0.0749981 0.925002
0.77499 0.0749981 0.925002
0.850004 0.0749981 0.925002
0.925002 0.0749981 0.925002
1 0.0749981 0.925002
0.00927749 0.149996 0.925002
0.0840009 0.149996 0.925002
0.158999 0.149996 0.925002
0.346227 0.149996 0.925002
0.641596 0.149996 0.925002
0.77499 0.149996 0.925002
0.850004 0.149996 0.925002
0.925002 0.149996 0.925002
1 0.149996 0.925002
0 0.272923 0.925002
0.0749981 0.283528 0.925002
0.149996 0.29723 0.925002
0.312749 0.301411 0.925002
0.619471 0.281666 0.919631
0.77499 0.250553 0.925002
0.850004 0.253681 0.925002
0.925002 0.28127 0.925002
1 0.30045 0.925002
0.0116579 0.509102 0.925002
0.0826581 0.527306 0.925002
0.153826 0.543343 0.925002
0.24622 0.555016 0.925002
0.552911 0.545205 0.897627
0.759945 0.540139 0.906218
0.835554 0.538231 0.906218
0.911681 0.555138 0.907149
0.988144 0.571344 0.90837
0 0.77499 0.92253
0.0749981 0.77499 0.916091
0.149996 0.77499 0.912749
0.224994 0.77499 0.911803
0.465507 0.772045 0.921645
0.738552 0.735409 0.925002
0.850004 0.725826 0.923018
0.925002 0.726909 0.923125
1 0.731899 0.923644
0 0.850004 0.908537
0.0749981 0.850004 0.908537
0.149996 0.850004 0.908537
0.224994 0.850004 0.908537
0.364477 0.850004 0.922026
0.699351 0.849912 0.913558
0.850004 0.848264 0.920836
0.925002 0.847166 0.921187
1 0.847288 0.921187
0 0.925002 0.908537
0.0749981 0.925002 0.908537
0.149996 0.925002 0.908537
0.224994 0.925002 0.908537
0.34902 0.925002 0.922271
0.686732 0.924575 0.912077
0.844602 0.924346 0.918883
0.925002 0.923339 0.921019
1 0.923339 0.921019
0 1 0.908537
0.0749981 1 0.908537
0.149996 1 0.908537
0.224994 1 0.908537
0.353887 1 0.922347
0.681315 0.999451 0.911574
0.833097 0.999832 0.917998
0.925002 0.998337 0.921019
1 0.998337 0.921019
0.00987259 0 1
0.0848707 0 1
0.161089 0 1
0.327764 0 1
0.601373 0 1
0.77499 0 1
0.850004 0 1
0.925002 0 1
1 0 1
0.00987259 0.0749981 1
0.0848707 0.0749981 1
0.160571 0.0749981 1
0.328389 0.0749981 1
0.609842 0.0749981 1
0.77499 0.0749981 1
0.850004 0.0749981 1
0.925002 0.0749981 1
1 0.0749981 1
0.00924697 0.149996 1
0.0838483 0.149996 1
0.159472 0.149996 1
0.3523 0.149996 1
0.64799 0.149996 1
0.77499 0.149996 1
0.850004 0.149996 1
0.925002 0.149996 1
1 0.149996 1
0 0.276509 1
0.0749981 0.287358 1
0.149996 0.302342 1
0.317784 0.306386 1
0.623224 0.28716 0.993378
0.77499 0.255146 1
0.850004 0.259449 1
0.925002 0.287449 1
1 0.30724 1
0.010071 0.516472 1
0.0810559 0.534173 1
0.152712 0.551812 1
0.247868 0.563119 1
0.559731 0.551873 0.973754
0.760693 0.54638 0.981552
0.835843 0.543877 0.98146
0.912093 0.559991 0.982483
0.988464 0.574563 0.983642
0 0.77499 0.994781
0.0749981 0.77499 0.987854
0.149996 0.77499 0.986023
0.224994 0.77499 0.98526
0.473198 0.771969 0.994629
0.741299 0.738415 1
0.850004 0.728084 0.998291
0.925002 0.728679 0.998352
1 0.73341 0.998764
0 0.850004 0.983536
0.0749981 0.850004 0.983536
0.149996 0.850004 0.983536
0.224994 0.850004 0.983536
0.368795 0.850004 0.996918
0.699977 0.849912 0.988647
0.850004 0.848203 0.99585
0.925002 0.847181 0.996185
1 0.847562 0.99617
0 0.925002 0.983536
0.0749981 0.925002 0.983536
0.149996 0.925002 0.983536
0.224994 0.925002 0.983536
0.349264 0.925002 0.997345
0.686168 0.924544 0.987015
0.843412 0.924376 0.993866
0.925002 0.923339 0.996017
1 0.923339 0.996017
0 1 0.983536
0.0749981 1 0.983536
0.149996 1 0.983536
0.224994 1 0.983536
0.352163 1 0.99733
0.679744 0.999435 0.986465
0.831128 0.999908 0.992828
0.925002 0.998337 0.996017
1 0.998337 0.996017
