datas/cubes/TC - HERO_20.cube
TITLE "Generate by Resolve"
LUT_3D_SIZE 9
0 4.57771e-05 0.000122072
0.10547 0 3.0518e-05
0.227893 0 0
0.38497 0 0
0.537499 0 0
0.665293 0 0
0.779126 0 0
0.88716 0 0
0.988342 0 0
0 0.115633 3.0518e-05
0.104845 0.11223 1.5259e-05
0.244343 0.106142 0
0.412955 0.100023 0
0.547066 0.0999924 0
0.669871 0.0999924 0
0.785229 0.100893 0
0.893568 0.104952 0
0.996201 0.110552 3.0518e-05
0 0.249882 0
0.0999924 0.246738 0
0.228748 0.238132 0
0.409674 0.228977 0
0.578149 0.226566 0.000534066
0.699657 0.230274 0.00471504
0.799924 0.234668 0.00584421
0.899992 0.243305 0.00773632
1 0.253544 0.00936904
0 0.415579 0
0.0999924 0.42031 0
0.209583 0.403326 0
0.386954 0.395697 0
0.561715 0.392264 9.15541e-05
0.699245 0.397513 0.00624094
0.8 0.402075 0.00988785
0.899992 0.409598 0.00926223
1 0.419379 0.00814832
0.00393683 0.580697 0.00456245
0.106416 0.585138 0.00695811
0.205859 0.569085 0.00247196
0.375784 0.557946 0.00231937
0.547372 0.550927 0.000289921
0.68925 0.551904 0
0.8 0.556176 0.000717174
0.899992 0.560876 0.000213626
1 0.566094 0.000122072
0.0202792 0.699992 0.0210574
0.120607 0.699992 0.0213931
0.219715 0.699992 0.0191196
0.376547 0.698039 0.0154879
0.547723 0.687327 0.00657664
0.684428 0.68397 0.00175479
0.799832 0.684779 0
0.899992 0.686625 0
1 0.689006 0
0.0209964 0.8 0.0217746
0.120989 0.8 0.0217746
0.223682 0.8 0.0220493
0.381109 0.8 0.0201419
0.552926 0.799908 0.00972
0.685985 0.798993 0.00595102
0.799664 0.798825 0.00231937
0.899992 0.799161 0.000534066
1 0.799603 0.000717174
0.0209964 0.899992 0.0217746
0.120989 0.899992 0.0217746
0.233204 0.899992 0.0229801
0.398505 0.899992 0.0179294
0.561608 0.899992 0.00891127
0.688762 0.899992 0.00633249
0.799924 0.899992 0.00395209
0.899992 0.899992 0.00236515
1 0.899992 0.00239567
0.0209964 1 0.0217746
0.120989 1 0.0217746
0.242069 1 0.0233921
0.413214 1 0.0158236
0.567666 1 0.00823987
0.690959 1 0.00611887
0.799985 1 0.00387579
0.899992 1 0.00256352
1 1 0.00254826
0 1.5259e-05 0.125261
0.110277 3.0518e-05 0.120333
0.246571 0 0.111223
0.391333 0 0.101762
0.538048 0 0.0999924
0.665278 0 0.0999924
0.779202 0 0.100099
0.887266 0 0.101823
0.988327 0 0.10602
0 0.115267 0.113741
0.103288 0.111971 0.111727
0.233661 0.10811 0.10869
0.389761 0.100954 0.102144
0.543069 0.100008 0.100252
0.669764 0.100038 0.10045
0.784817 0.10219 0.103365
0.892195 0.108873 0.112261
0.993866 0.117952 0.120897
0 0.2486 0.100999
0.0999924 0.245212 0.100801
0.229038 0.237903 0.104234
0.413779 0.228 0.0999924
0.577615 0.227131 0.100664
0.699168 0.233295 0.10631
0.8 0.240375 0.110201
0.899992 0.250553 0.115511
1 0.260777 0.121523
0 0.417105 0.0999924
0.0999924 0.42063 0.0999924
0.208438 0.40473 0.0999924
0.388602 0.396567 0.0999924
0.563241 0.393301 0.100053
0.698894 0.398749 0.106523
0.8 0.401465 0.109911
0.899992 0.407141 0.10959
1 0.415763 0.109361
0.00471504 0.582559 0.105348
0.106844 0.586145 0.107347
0.206622 0.570108 0.102617
0.377859 0.559365 0.102388
0.549004 0.55227 0.100191
0.689921 0.553429 0.0999924
0.8 0.557122 0.100496
0.899992 0.560357 0.10042
1 0.564797 0.10071
0.0202792 0.699992 0.12105
0.12076 0.699992 0.121538
0.220554 0.699992 0.11931
0.37789 0.697704 0.115572
0.549264 0.687694 0.106538
0.685008 0.684489 0.101839
0.799771 0.685115 0.100008
0.899992 0.686687 0.0999924
1 0.688701 0.0999924
0.0209964 0.8 0.121767
0.120989 0.8 0.121767
0.222507 0.8 0.121935
0.377783 0.8 0.120653
0.552361 0.799908 0.109834
0.685985 0.799084 0.105943
0.79968 0.798856 0.102296
0.899992 0.799115 0.100465
1 0.79942 0.100587
0.0210117 0.899992 0.122087
0.120989 0.899992 0.121843
0.229648 0.899992 0.122683
0.389181 0.899992 0.119203
0.558938 0.899992 0.109361
0.68809 0.899992 0.106401
0.799847 0.899992 0.104005
0.899992 0.899992 0.102281
1 0.899992 0.102281
0.0212558 1 0.126879
0.12105 1 0.123064
0.237324 1 0.123293
0.402441 1 0.117357
0.564446 1 0.109133
0.689921 1 0.106218
0.799863 1 0.104021
0.899992 1 0.10251
1 1 0.10248
0 0 0.289876
0.106523 0 0.282078
0.262715 0 0.273533
0.429618 0 0.248798
0.554803 0 0.231205
0.672145 0 0.231357
0.783764 0 0.239094
0.885512 0 0.250004
0.98468 0 0.262043
0 0.111818 0.272435
0.101457 0.108934 0.265797
0.244404 0.102846 0.255695
0.412009 0.100206 0.237781
0.553185 0.0999924 0.233463
0.675349 0.100008 0.23917
0.787457 0.101991 0.249683
0.893004 0.10779 0.260304
0.997055 0.116548 0.270329
0 0.250156 0.235142
0.0999924 0.247486 0.231434
0.226825 0.238682 0.236515
0.392508 0.233845 0.234134
0.547906 0.234287 0.235843
0.681773 0.24181 0.244419
0.798779 0.253437 0.256596
0.899992 0.263203 0.266163
1 0.272709 0.275135
0 0.413886 0.216281
0.0999924 0.418082 0.219547
0.206592 0.404395 0.215457
0.390051 0.396582 0.224857
0.566674 0.391775 0.219944
0.699351 0.395911 0.226154
0.8 0.399847 0.230015
0.899992 0.407065 0.234592
1 0.416587 0.240467
0.00418097 0.578637 0.21677
0.106203 0.582635 0.223346
0.203693 0.566934 0.21117
0.371237 0.55996 0.216464
0.549172 0.550896 0.219272
0.690867 0.551385 0.215961
0.8 0.55404 0.217762
0.899992 0.557641 0.219348
1 0.56286 0.223239
0.0201419 0.699992 0.229664
0.121065 0.699992 0.233783
0.218387 0.699886 0.223972
0.365667 0.697932 0.220737
0.546349 0.686519 0.221302
0.68397 0.682582 0.217929
0.79968 0.682979 0.214343
0.899992 0.684459 0.215412
1 0.68661 0.218555
0.0216831 0.8 0.236713
0.121675 0.8 0.236973
0.222141 0.8 0.228717
0.364843 0.8 0.225635
0.546105 0.799878 0.221927
0.684153 0.797986 0.222004
0.799054 0.796902 0.217517
0.899992 0.796994 0.215763
1 0.797482 0.217105
0.0218814 0.899992 0.251835
0.121874 0.899992 0.244205
0.227985 0.899992 0.236728
0.37731 0.899992 0.229358
0.552239 0.899992 0.224674
0.685786 0.899992 0.224811
0.79913 0.899992 0.220722
0.899992 0.899992 0.217868
1 0.899992 0.217929
0.0217288 1 0.267002
0.121889 1 0.254597
0.23415 1 0.243992
0.389059 1 0.232197
0.558251 1 0.227893
0.687449 1 0.227283
0.799237 1 0.222431
0.899992 1 0.219028
1 1 0.218433
0 0 0.463676
0.102129 0 0.460166
0.25742 0 0.452995
0.439307 0 0.439887
0.577111 0 0.432456
0.681865 0 0.423163
0.781781 0 0.425574
0.881743 0 0.43473
0.981796 0 0.44651
0 0.106798 0.454841
0.100023 0.104112 0.451362
0.238865 0.100404 0.443259
0.432044 0.0999924 0.433616
0.576486 0.0999924 0.434272
0.68217 0.0999924 0.430549
0.78323 0.0999924 0.431601
0.886259 0.100328 0.435111
0.990585 0.103655 0.442588
0 0.242527 0.433799
0.0999924 0.24065 0.433005
0.223758 0.23415 0.427405
0.412665 0.22414 0.416449
0.565484 0.227054 0.405859
0.689754 0.238193 0.408011
0.799969 0.250355 0.41796
0.899992 0.259937 0.42678
1 0.269108 0.435477
0 0.418341 0.380804
0.0999924 0.4224 0.387137
0.202426 0.406119 0.38204
0.386084 0.395773 0.393576
0.552712 0.393423 0.391455
0.684672 0.399802 0.399573
0.799329 0.409339 0.410117
0.899992 0.418158 0.41915
1 0.425605 0.42562
0.00355535 0.576989 0.392325
0.105211 0.580865 0.39942
0.203143 0.565377 0.37821
0.364279 0.560143 0.374685
0.548257 0.548821 0.37847
0.691341 0.548638 0.370489
0.799985 0.550774 0.371466
0.899992 0.554253 0.374792
1 0.558923 0.381659
0.0189975 0.699992 0.402289
0.119677 0.699992 0.407279
0.217578 0.699474 0.38526
0.358602 0.697826 0.371359
0.539834 0.685618 0.367636
0.681712 0.679545 0.369497
0.799283 0.679927 0.360403
0.899992 0.681254 0.360464
1 0.683009 0.366476
0.0204013 0.8 0.409979
0.120439 0.8 0.40853
0.221637 0.8 0.386664
0.358129 0.8 0.371679
0.535897 0.799817 0.360647
0.680705 0.794705 0.37258
0.79707 0.793484 0.36434
0.899992 0.793637 0.359396
1 0.793927 0.361364
0.019501 0.899992 0.430259
0.120073 0.899992 0.418555
0.224964 0.899992 0.399908
0.36759 0.899992 0.380667
0.540093 0.899992 0.364141
0.681559 0.899931 0.374319
0.796185 0.899443 0.370489
0.899992 0.899367 0.363043
1 0.89929 0.362081
0.018204 1 0.448157
0.119554 1 0.4327
0.228763 1 0.413413
0.376669 1 0.389349
0.545785 1 0.371786
0.682765 1 0.379385
0.795926 1 0.374716
0.899992 1 0.367117
1 0.999985 0.36434
0 0 0.592065
0.101244 0 0.592035
0.254108 0 0.586603
0.438453 0 0.575982
0.581216 0 0.580133
0.683055 0 0.577356
0.783139 0 0.57847
0.883375 0 0.581994
0.983536 0 0.584298
0 0.104646 0.590005
0.100008 0.1028 0.588952
0.238758 0.100175 0.584512
0.434195 0.0999924 0.57467
0.581064 0.0999924 0.580438
0.683299 0.0999924 0.580743
0.783337 0.0999924 0.579889
0.88368 0.0999924 0.579217
0.986481 0.100389 0.582559
0 0.241489 0.582238
0.0999924 0.241062 0.582116
0.222126 0.233249 0.581277
0.411994 0.223209 0.575616
0.579431 0.22118 0.575769
0.699779 0.227863 0.576654
0.8 0.236408 0.576608
0.899992 0.245502 0.581872
1 0.254307 0.588327
0 0.411292 0.567346
0.0999924 0.417258 0.568414
0.204837 0.40087 0.564508
0.384863 0.393622 0.566445
0.56733 0.386542 0.563577
0.694163 0.395132 0.560464
0.799893 0.406043 0.563012
0.899992 0.41471 0.567422
1 0.422095 0.57145
0 0.581964 0.546365
0.100084 0.585534 0.551934
0.200168 0.570382 0.532815
0.347829 0.562127 0.543786
0.544686 0.546868 0.543313
0.681178 0.547372 0.543679
0.796063 0.551522 0.548638
0.899977 0.556054 0.553048
0.999924 0.560021 0.556756
0.00955215 0.699992 0.561456
0.109743 0.699992 0.56408
0.209949 0.699687 0.54902
0.352651 0.696376 0.546975
0.531075 0.68368 0.531456
0.678614 0.675669 0.532143
0.797955 0.67541 0.525826
0.899992 0.676432 0.52607
1 0.67808 0.530022
0.0119631 0.8 0.567208
0.112581 0.8 0.567285
0.217151 0.8 0.55613
0.352789 0.8 0.548074
0.525536 0.799481 0.527626
0.676066 0.790951 0.529656
0.793072 0.788922 0.526009
0.899931 0.788846 0.521798
1 0.789044 0.522377
0.00714122 0.899992 0.573343
0.110506 0.899992 0.569726
0.218112 0.899992 0.562448
0.360204 0.899992 0.553704
0.528435 0.899992 0.530129
0.675914 0.898146 0.528069
0.791852 0.894926 0.530846
0.899336 0.894621 0.523751
1 0.894469 0.521706
0.00187686 1 0.579217
0.107179 1 0.572839
0.219272 1 0.568246
0.36817 1 0.559258
0.533974 1 0.534936
0.676814 0.999649 0.530663
0.791516 0.998077 0.533593
0.89839 0.997909 0.527962
1 0.997864 0.523888
0 0 0.692195
0.100481 0 0.692241
0.252232 0 0.688441
0.437644 0 0.679774
0.581186 0 0.684825
0.683604 0 0.685328
0.783612 0 0.685328
0.883604 0 0.685328
0.983612 0 0.685328
0 0.103243 0.692378
0.100084 0.102632 0.692332
0.240208 0.100252 0.690181
0.436194 0.0999924 0.680201
0.581979 0.0999924 0.684993
0.683604 0.0999924 0.685328
0.783612 0.0999924 0.685344
0.883665 0.0999924 0.685389
0.985916 0.100267 0.687587
0 0.241245 0.693263
0.0999924 0.241733 0.693248
0.222339 0.233921 0.698192
0.412482 0.224582 0.696513
0.581445 0.222751 0.698344
0.699825 0.225238 0.699855
0.8 0.229572 0.699855
0.899992 0.238102 0.699931
1 0.247456 0.699992
0 0.412161 0.691722
0.0999924 0.417639 0.692531
0.205936 0.401984 0.69308
0.385199 0.395392 0.696635
0.569512 0.387457 0.696193
0.699947 0.390158 0.698894
0.8 0.395346 0.697963
0.899992 0.403677 0.69836
1 0.411582 0.69929
0 0.580407 0.6916
0.0999924 0.584039 0.694636
0.200671 0.56791 0.685008
0.356817 0.558968 0.689418
0.5449 0.546258 0.683116
0.689128 0.543969 0.682567
0.798505 0.548867 0.681086
0.899992 0.553826 0.68188
0.999969 0.557778 0.683391
4.57771e-05 0.699992 0.687388
0.0999924 0.699992 0.689845
0.200153 0.699992 0.679133
0.332372 0.698741 0.68011
0.518853 0.684779 0.674617
0.676295 0.674022 0.670008
0.792294 0.674144 0.669795
0.898451 0.675837 0.671733
0.999573 0.677501 0.673457
1.5259e-05 0.8 0.689265
0.0999924 0.8 0.689296
0.202029 0.8 0.679881
0.340444 0.8 0.684215
0.519905 0.798657 0.675135
0.672099 0.789166 0.665721
0.790875 0.78616 0.664897
0.899245 0.785733 0.662913
1 0.785779 0.662211
0 0.899992 0.69601
0.0999924 0.899992 0.691829
0.201831 0.899992 0.683146
0.346075 0.899992 0.686717
0.522637 0.899992 0.675502
0.670909 0.896529 0.664164
0.78938 0.892241 0.666392
0.897078 0.891585 0.662745
1 0.891264 0.661189
0 1 0.69894
0.0999924 1 0.694331
0.20293 1 0.686763
0.35169 1 0.68864
0.527733 1 0.6766
0.671229 0.999237 0.664118
0.789014 0.996124 0.666316
0.895766 0.995331 0.664576
0.999908 0.994995 0.661875
0 0 0.792203
0.100237 0 0.792248
0.252461 0 0.788418
0.438178 0 0.779873
0.581353 0 0.784863
0.683604 0 0.785336
0.783612 0 0.785336
0.883604 0 0.785336
0.983612 0 0.785336
0 0.10341 0.792386
0.10013 0.102922 0.792355
0.241733 0.100313 0.790051
0.437766 0.0999924 0.780194
0.582376 0.0999924 0.785077
0.683604 0.0999924 0.785336
0.783627 0.0999924 0.785351
0.883879 0.0999924 0.785595
0.986526 0.100526 0.788205
0 0.242222 0.793225
0.0999924 0.242908 0.79321
0.223316 0.23508 0.798383
0.414038 0.225788 0.797055
0.582574 0.224292 0.798962
0.699977 0.226474 0.799985
0.8 0.228946 0.8
0.899992 0.237263 0.8
1 0.247425 0.8
0 0.414054 0.792432
0.0999924 0.41886 0.792584
0.206485 0.403311 0.79588
0.386557 0.396963 0.8
0.570626 0.389364 0.8
0.699977 0.391608 0.8
0.8 0.393072 0.8
0.899992 0.400626 0.8
1 0.409461 0.8
0 0.58053 0.799161
0.0999924 0.584253 0.799237
0.201404 0.566934 0.797803
0.360769 0.55993 0.799985
0.545769 0.547768 0.798672
0.691661 0.54403 0.798581
0.8 0.545098 0.798566
0.899992 0.549249 0.797803
1 0.553735 0.798184
0 0.699992 0.799817
0.0999924 0.699992 0.799893
0.200015 0.699992 0.799054
0.332235 0.697948 0.799374
0.519646 0.684398 0.793866
0.676799 0.673671 0.78706
0.79382 0.673442 0.785245
0.898299 0.675639 0.785168
0.999741 0.677333 0.785855
0 0.8 0.799542
0.0999924 0.8 0.799527
0.199985 0.8 0.797131
0.327504 0.8 0.796506
0.500893 0.799863 0.789685
0.669581 0.788998 0.78204
0.789975 0.785397 0.780529
0.897139 0.785168 0.780392
0.999771 0.785443 0.78088
0 0.899992 0.799558
0.0999924 0.899992 0.799542
0.199985 0.899992 0.798444
0.331304 0.899992 0.797345
0.510094 0.899992 0.789807
0.669123 0.895659 0.781415
0.788449 0.891417 0.779995
0.896376 0.890455 0.778271
1 0.890013 0.777325
0 1 0.799558
0.0999924 1 0.799558
0.200336 1 0.799146
0.335698 1 0.798428
0.515709 1 0.789593
0.669108 0.99884 0.780652
0.787701 0.995483 0.77882
0.894911 0.994278 0.778836
0.999619 0.99382 0.777127
0 0 0.892195
0.100206 0 0.892256
0.254582 0 0.888151
0.44033 0 0.879911
0.581903 0 0.884978
0.683604 0 0.885328
0.783612 0 0.885328
0.883604 0 0.885328
0.983612 0 0.885328
0 0.104173 0.892454
0.10016 0.103487 0.892424
0.243091 0.100481 0.890043
0.439261 0.0999924 0.880339
0.582544 0.0999924 0.885115
0.683604 0.0999924 0.885328
0.783612 0.0999924 0.885328
0.884413 0.0999924 0.886122
0.988006 0.101366 0.889662
0 0.244846 0.893111
0.0999924 0.244984 0.893141
0.225803 0.237781 0.898817
0.417945 0.228656 0.897704
0.585077 0.227527 0.899626
0.699992 0.229343 0.899992
0.8 0.2318 0.899992
0.899992 0.240284 0.899992
1 0.250492 0.899992
0 0.417502 0.89247
0.0999924 0.421515 0.892699
0.208576 0.406378 0.896452
0.389654 0.399634 0.899992
0.572076 0.39234 0.899992
0.699962 0.394141 0.899992
0.8 0.395529 0.899992
0.899992 0.403098 0.899992
1 0.411658 0.899992
0 0.582864 0.899321
0.0999924 0.585687 0.899351
0.201755 0.568887 0.898222
0.363577 0.561593 0.899992
0.547539 0.549416 0.899992
0.69221 0.545647 0.899992
0.8 0.545876 0.899992
0.899992 0.549752 0.899992
1 0.554437 0.899413
0 0.699992 0.89984
0.0999924 0.699992 0.89984
0.200061 0.699992 0.899992
0.336538 0.69778 0.899992
0.525872 0.683574 0.899733
0.677424 0.674266 0.894987
0.796933 0.67277 0.893797
0.899779 0.67454 0.892042
1 0.676387 0.891463
0 0.8 0.89955
0.0999924 0.8 0.89955
0.199985 0.8 0.899565
0.326131 0.8 0.899992
0.494118 0.799878 0.897765
0.666224 0.790036 0.889052
0.789563 0.785443 0.887419
0.895232 0.785611 0.887083
0.998734 0.786053 0.887419
0 0.899992 0.89955
0.0999924 0.899992 0.89955
0.199985 0.899992 0.899351
0.32961 0.899992 0.899992
0.497307 0.899992 0.895064
0.666163 0.89633 0.887449
0.788113 0.891279 0.885878
0.89604 0.890181 0.884932
0.999878 0.88983 0.884535
0 1 0.89955
0.0999924 1 0.89955
0.200275 1 0.89929
0.333867 1 0.899992
0.503487 1 0.89427
0.667628 0.998749 0.887327
0.786954 0.995377 0.884459
0.894713 0.993973 0.884749
0.999588 0.993423 0.883467
0 0 0.992203
0.100374 0 0.992264
0.257511 0 0.987778
0.443336 0 0.979965
0.582513 0 0.985107
0.683604 0 0.985336
0.783612 0 0.985336
0.883604 0 0.985336
0.983612 0 0.985336
0 0.105379 0.992538
0.100175 0.10428 0.992508
0.244877 0.10071 0.990066
0.441093 0.0999924 0.980514
0.582712 0.0999924 0.985153
0.683604 0.0999924 0.985336
0.783612 0.0999924 0.985336
0.885191 0.100023 0.986893
0.989792 0.102739 0.991409
0 0.248234 0.992966
0.0999924 0.247456 0.993072
0.22884 0.241062 0.999237
0.422385 0.231998 0.998352
0.587793 0.231342 0.999893
0.699992 0.232685 1
0.8 0.235309 1
0.899992 0.243687 1
1 0.253941 1
0 0.421637 0.992554
0.0999924 0.424262 0.992859
0.210925 0.41004 0.997116
0.393332 0.402792 1
0.57409 0.395926 1
0.699947 0.397543 1
0.8 0.398917 1
0.899992 0.406119 1
1 0.414435 1
0 0.585626 0.999466
0.0999924 0.587762 0.999542
0.202426 0.571527 0.998917
0.367025 0.563714 1
0.549767 0.551324 1
0.692729 0.547677 1
0.8 0.547692 1
0.899992 0.551476 0.999954
1 0.555795 0.999115
0 0.699992 0.999847
0.0999924 0.699992 0.999771
0.200046 0.699992 1
0.337835 0.698238 1
0.528084 0.684138 0.999939
0.678218 0.675044 0.996262
0.797498 0.673335 0.995377
0.899992 0.674922 0.992813
1 0.676707 0.991806
0 0.8 0.999557
0.0999924 0.8 0.999557
0.199985 0.8 0.999557
0.327504 0.8 1
0.495964 0.799924 0.998093
0.667613 0.789837 0.992599
0.790509 0.785275 0.991684
0.896468 0.785336 0.990417
0.999191 0.785962 0.990127
0 0.899992 0.999557
0.0999924 0.899992 0.999557
0.199985 0.899992 0.999344
0.330327 0.899992 1
0.498009 0.899992 0.995132
0.663218 0.897108 0.989136
0.787823 0.89131 0.989715
0.89485 0.890379 0.989471
0.998566 0.890288 0.989487
0 1 0.999557
0.0999924 1 0.999557
0.200381 1 0.999298
0.333883 1 1
0.50309 1 0.994446
0.665904 0.999054 0.989425
0.786664 0.995285 0.988693
0.894713 0.993851 0.988556
0.999512 0.99324 0.987823
