datas/cubes/TC - EDITORIAL_40.cube
TITLE "Generate by Resolve"
LUT_3D_SIZE 9
0 0.00291447 0.0106508
0.0808881 0.000610361 0.00842298
0.190585 0.000198367 0.00177005
0.360311 0 0
0.580346 0 0
0.752987 0 0
0.830686 0 0
0.905684 0 0
0.980682 0 0
7.62951e-05 0.0914015 0.00454719
0.0761273 0.0903182 0.00369268
0.186542 0.0848859 0.000518807
0.360632 0.0749981 0
0.587442 0.0749981 0
0.754376 0.0749981 0
0.830686 0.0749981 0
0.905684 0.0749981 0
0.980682 0.0749981 0
0 0.190524 0
0.0749981 0.192386 0
0.179843 0.189349 0.000839246
0.359457 0.174228 0
0.602564 0.151736 0
0.756069 0.149996 0
0.830808 0.149996 0
0.905684 0.149996 0
0.980743 0.149996 0
0 0.322118 0
0.0749981 0.331701 0
0.1505 0.341039 0
0.350759 0.324971 0.00466926
0.598001 0.309422 0.000915541
0.77435 0.303471 0.000854505
0.847654 0.29369 6.10361e-05
0.923781 0.295613 0
0.999771 0.305089 0.000976577
0 0.520867 0
0.0749981 0.536889 0
0.149996 0.554971 0
0.282383 0.553368 0
0.597681 0.515709 0.016846
0.77499 0.523934 0.0296178
0.850004 0.521202 0.0279088
0.925002 0.526848 0.029221
1 0.537697 0.0314488
0.0103761 0.742763 0.00946059
0.0890059 0.757656 0.0130617
0.167041 0.769009 0.0160525
0.26482 0.766995 0.0165713
0.562127 0.740551 0.00505074
0.774334 0.719875 0.0286564
0.850004 0.714672 0.0391852
0.925002 0.717388 0.0390631
1 0.723445 0.0387579
0.0209506 0.850004 0.0198825
0.0959335 0.850004 0.0198825
0.170947 0.850004 0.0198825
0.252735 0.850004 0.0201419
0.518486 0.850004 0.00737011
0.759182 0.838834 0.0172885
0.850004 0.834791 0.0349737
0.925002 0.83473 0.0354009
1 0.83473 0.0354009
0.0209506 0.925002 0.0198825
0.0959335 0.925002 0.0198825
0.170947 0.925002 0.0198825
0.268971 0.925002 0.0205234
0.537606 0.925002 0.00610361
0.75761 0.913893 0.0169985
0.850004 0.909895 0.0343175
0.925002 0.909728 0.0354009
1 0.909728 0.0354009
0.0209506 1 0.0198825
0.0959335 1 0.0198825
0.170947 1 0.0198825
0.288014 1 0.0206302
0.562737 1 0.00479133
0.763653 0.988418 0.0185855
0.850004 0.984863 0.0345006
0.925002 0.984726 0.0354009
1 0.984726 0.0354009
0 0.00157168 0.10779
0.0795758 6.10361e-05 0.105638
0.189929 3.0518e-05 0.0975814
0.359915 0 0.0751049
0.580072 0 0.0749981
0.753002 0 0.0749981
0.830686 0 0.0749981
0.905684 0 0.0749981
0.980682 0 0.0749981
0 0.0912642 0.0991989
0.0752422 0.0902724 0.0985275
0.186419 0.084535 0.0942245
0.362051 0.0749981 0.0749981
0.589364 0.0749981 0.0749981
0.75462 0.0749981 0.0749981
0.830686 0.0749981 0.0749981
0.905684 0.0749981 0.0749981
0.980682 0.0749981 0.0749981
6.10361e-05 0.190967 0.0857404
0.0750286 0.193271 0.0865644
0.179217 0.191272 0.0859236
0.364248 0.175433 0.0749981
0.606836 0.152483 0.0749981
0.756222 0.149996 0.0749981
0.830854 0.149996 0.0749981
0.905684 0.149996 0.0749981
0.980819 0.149996 0.0749981
0 0.324956 0.0749981
0.0749981 0.335821 0.0749981
0.150713 0.345754 0.0749981
0.3579 0.329381 0.0798047
0.604639 0.314778 0.0765545
0.774639 0.308583 0.076463
0.848371 0.29868 0.0751507
0.924681 0.301137 0.0749981
1 0.311528 0.0767987
0 0.525917 0.0749981
0.0749981 0.543465 0.0749981
0.149996 0.561517 0.0749981
0.288655 0.558907 0.0749981
0.602686 0.5205 0.0924697
0.77499 0.529793 0.105669
0.850004 0.526864 0.104158
0.925002 0.53286 0.105562
1 0.543374 0.107515
0.0115663 0.747555 0.0856336
0.0901961 0.762249 0.0892195
0.167895 0.771252 0.0918898
0.269566 0.769528 0.0924544
0.569162 0.74377 0.080293
0.774487 0.723674 0.103807
0.850004 0.718288 0.113985
0.925002 0.720943 0.113878
1 0.72665 0.113512
0.0209506 0.850004 0.0948653
0.0959335 0.850004 0.0948653
0.170947 0.850004 0.0948653
0.253864 0.850004 0.0951705
0.525536 0.850004 0.0817273
0.761425 0.838682 0.0927596
0.850004 0.83476 0.110155
0.925002 0.83473 0.110399
1 0.83473 0.110399
0.0209506 0.925002 0.0948653
0.0959335 0.925002 0.0948653
0.170947 0.925002 0.0948653
0.272572 0.925002 0.0955825
0.543572 0.925002 0.0807355
0.759274 0.913756 0.0924086
0.850004 0.90988 0.109392
0.925002 0.909728 0.110399
1 0.909728 0.110399
0.0209506 1 0.0948653
0.0959335 1 0.0948653
0.170947 1 0.0948653
0.290333 1 0.0955825
0.564981 1 0.0796979
0.763943 0.988403 0.0936599
0.850004 0.984863 0.109514
0.925002 0.984726 0.110399
1 0.984726 0.110399
0 0 0.232822
0.0759747 0 0.23006
0.186023 0 0.218189
0.356222 0 0.185382
0.578302 0 0.150179
0.753201 0 0.149996
0.830686 0 0.149996
0.905684 0 0.149996
0.980682 0 0.149996
0 0.0879835 0.223316
0.0750286 0.0873274 0.222477
0.183612 0.082536 0.214893
0.360494 0.0749981 0.186252
0.590036 0.0749981 0.150637
0.755184 0.0749981 0.149996
0.831342 0.0749981 0.149996
0.90576 0.0749981 0.149996
0.981048 0.0749981 0.149996
0 0.190936 0.19733
0.0749981 0.193698 0.199802
0.174701 0.192294 0.203113
0.366583 0.175647 0.18526
0.610239 0.152972 0.155383
0.756985 0.149996 0.149996
0.831266 0.149996 0.149996
0.906249 0.149996 0.149996
0.981323 0.149996 0.149996
0 0.327352 0.164446
0.0749981 0.339254 0.1673
0.15111 0.349554 0.169924
0.355932 0.335622 0.17641
0.607843 0.319829 0.160647
0.774853 0.312398 0.154955
0.848829 0.302037 0.150683
0.925002 0.304829 0.151217
1 0.315328 0.153307
0 0.530663 0.149996
0.0749981 0.548867 0.149996
0.149996 0.566445 0.149996
0.293507 0.562829 0.149996
0.60589 0.524941 0.171237
0.77499 0.534035 0.181445
0.850004 0.5308 0.180026
0.925002 0.536461 0.181262
1 0.54641 0.183093
0.012604 0.751842 0.161654
0.0909895 0.764981 0.164996
0.168444 0.772488 0.167422
0.273381 0.771069 0.168063
0.575387 0.743648 0.155505
0.774731 0.726314 0.178943
0.850004 0.720531 0.188861
0.925002 0.722805 0.188785
1 0.728008 0.188403
0.0209506 0.850004 0.169879
0.0959335 0.850004 0.169879
0.170947 0.850004 0.169879
0.256031 0.850004 0.170245
0.530968 0.850004 0.156268
0.762844 0.83859 0.168078
0.850004 0.83476 0.185229
0.925002 0.83473 0.185397
1 0.83473 0.185397
0.0209506 0.925002 0.169879
0.0959335 0.925002 0.169879
0.170947 0.925002 0.169879
0.27364 0.925002 0.170596
0.544442 0.925002 0.155688
0.75903 0.913787 0.167346
0.850004 0.90988 0.184421
0.925002 0.909728 0.185397
1 0.909728 0.185397
0.0209506 1 0.169879
0.0959335 1 0.169879
0.170947 1 0.169879
0.289158 1 0.170611
0.561959 1 0.154818
0.7626 0.988525 0.168261
0.850004 0.984878 0.184451
0.925002 0.984726 0.185397
1 0.984726 0.185397
0 0 0.450797
0.0749981 0 0.447868
0.173632 0 0.43238
0.339239 0 0.38555
0.569192 0 0.313481
0.753338 0 0.267735
0.833005 0 0.248432
0.907652 0 0.239689
0.982605 0 0.238529
0 0.0784466 0.440894
0.0749981 0.0780804 0.440436
0.172671 0.0754406 0.430365
0.34548 0.0749981 0.390631
0.583612 0.0749981 0.325093
0.757198 0.0749981 0.283482
0.833646 0.0749981 0.266529
0.908583 0.0749981 0.264073
0.98378 0.0749981 0.27129
0 0.181979 0.410956
0.0749981 0.18497 0.418097
0.167834 0.18468 0.421088
0.358144 0.169894 0.396216
0.607858 0.150744 0.346822
0.759915 0.149996 0.314382
0.834348 0.149996 0.299153
0.909438 0.149996 0.299672
0.984436 0.149996 0.310994
0 0.32726 0.327825
0.0749981 0.33959 0.337591
0.149996 0.350423 0.347509
0.332052 0.341924 0.362951
0.605539 0.321569 0.334813
0.77499 0.313741 0.319036
0.849989 0.303853 0.306584
0.925002 0.306966 0.308461
1 0.317479 0.31957
0 0.532952 0.277989
0.0749981 0.550866 0.287251
0.149996 0.568429 0.298756
0.287984 0.568353 0.307012
0.589837 0.534661 0.316793
0.772824 0.541451 0.304189
0.850004 0.537438 0.296696
0.925002 0.543175 0.298573
1 0.552926 0.30518
0.013611 0.752728 0.267048
0.0919814 0.765423 0.277028
0.169574 0.772793 0.288899
0.274128 0.77142 0.287953
0.558434 0.732998 0.287282
0.762737 0.716335 0.298268
0.850004 0.721355 0.283467
0.925002 0.723293 0.282902
1 0.727962 0.28452
0.0211337 0.850004 0.256489
0.0962234 0.850004 0.262898
0.171389 0.850004 0.27071
0.256657 0.850004 0.267796
0.523339 0.850004 0.246372
0.759518 0.839368 0.251133
0.850004 0.835035 0.263508
0.925002 0.834928 0.263005
1 0.834852 0.262165
0.0213474 0.925002 0.26807
0.0965896 0.925002 0.280064
0.17171 0.925002 0.285054
0.271183 0.925002 0.276692
0.531395 0.925002 0.247471
0.754543 0.914427 0.246204
0.850004 0.909941 0.259571
0.925002 0.909728 0.260395
1 0.909728 0.260395
0.0218357 1 0.290959
0.0970321 1 0.301091
0.17203 1 0.300694
0.284169 1 0.28716
0.543694 1 0.252491
0.756954 0.989425 0.248951
0.850004 0.98497 0.259419
0.925002 0.984726 0.260395
1 0.984726 0.260395
0 0 0.676722
0.0749981 0 0.675151
0.159533 0 0.665278
0.317601 0 0.629328
0.549386 0 0.570748
0.744717 0 0.516777
0.833921 0 0.484291
0.909056 0 0.472923
0.984024 0 0.474418
0 0.0749981 0.672007
0.0749981 0.0749981 0.672511
0.159762 0.0749981 0.666468
0.325368 0.0749981 0.636835
0.566934 0.0749981 0.586328
0.753841 0.0749981 0.546365
0.833402 0.0749981 0.5234
0.908339 0.0749981 0.527184
0.983169 0.0749981 0.54609
0 0.170947 0.654322
0.0749981 0.174441 0.662486
0.158694 0.17528 0.666255
0.343282 0.162036 0.649302
0.596674 0.149996 0.614771
0.758358 0.149996 0.595056
0.832975 0.149996 0.582269
0.907958 0.149996 0.591058
0.983093 0.149996 0.606668
0 0.316014 0.603571
0.0749981 0.328832 0.617243
0.149996 0.34081 0.627253
0.324727 0.334371 0.634607
0.600549 0.313985 0.616617
0.77499 0.306355 0.605356
0.850004 0.297108 0.594995
0.925002 0.300175 0.604364
1 0.310399 0.621057
0 0.533867 0.510857
0.0749981 0.551507 0.529412
0.149996 0.568841 0.548424
0.274327 0.567605 0.560998
0.559136 0.547265 0.570214
0.76257 0.541146 0.557305
0.850004 0.536889 0.550713
0.925002 0.542229 0.557321
1 0.551644 0.570733
0.013962 0.750851 0.480034
0.0911727 0.763424 0.499016
0.167391 0.771313 0.519234
0.269688 0.769589 0.52343
0.519753 0.754513 0.522927
0.737408 0.719631 0.524025
0.850004 0.723339 0.517662
0.925002 0.725017 0.520485
1 0.729213 0.528374
0.0221561 0.850004 0.466392
0.0968032 0.850004 0.484886
0.171298 0.850004 0.500893
0.254688 0.850004 0.497307
0.487785 0.850004 0.49012
0.716976 0.848051 0.487785
0.850004 0.841184 0.509087
0.925002 0.839979 0.473503
1 0.839887 0.469795
0.021149 0.925002 0.501915
0.0950942 0.925002 0.522728
0.169635 0.925002 0.530358
0.264714 0.925002 0.518486
0.489921 0.925002 0.49929
0.713909 0.923171 0.46096
0.850004 0.916335 0.49691
0.925002 0.914885 0.469963
1 0.914321 0.440864
0.018616 1 0.544762
0.0923934 1 0.55903
0.167651 1 0.55639
0.274525 1 0.538781
0.497871 1 0.511742
0.714534 0.99826 0.466529
0.849973 0.99147 0.499626
0.925002 0.989837 0.467323
1 0.989197 0.434653
0 0 0.768475
0.0749981 0 0.768475
0.15082 0 0.76849
0.298741 0 0.76759
0.53077 0 0.756817
0.736416 0 0.756298
0.834455 0 0.749126
0.909316 0 0.74403
0.984421 0 0.747921
0 0.0749981 0.768475
0.0749981 0.0749981 0.768475
0.152148 0.0749981 0.76849
0.307698 0.0749981 0.767178
0.551568 0.0749981 0.755901
0.751278 0.0749981 0.760113
0.83473 0.0749981 0.759838
0.909758 0.0749981 0.760494
0.984771 0.0749981 0.76083
0 0.161196 0.768368
0.0749981 0.16495 0.768414
0.15288 0.16643 0.768536
0.328603 0.156054 0.766491
0.586007 0.149996 0.755779
0.759228 0.149996 0.7608
0.83476 0.149996 0.76083
0.909758 0.149996 0.76083
0.984771 0.149996 0.76083
0 0.305638 0.767742
0.0749981 0.317632 0.766812
0.149996 0.329595 0.76553
0.316442 0.3252 0.77499
0.592889 0.306325 0.774762
0.774853 0.30016 0.77499
0.850004 0.291875 0.77499
0.925002 0.295186 0.77499
1 0.304601 0.77499
0 0.529503 0.747997
0.0749981 0.546654 0.745861
0.149996 0.564034 0.744549
0.265476 0.562081 0.761517
0.554086 0.542458 0.77499
0.760845 0.534478 0.77499
0.850004 0.530358 0.77499
0.925002 0.535576 0.77499
1 0.544518 0.77499
1.5259e-05 0.750698 0.740291
0.0754406 0.763043 0.750225
0.151354 0.770764 0.751202
0.248661 0.769207 0.754025
0.497139 0.752972 0.761852
0.716274 0.730114 0.763012
0.849958 0.723323 0.759976
0.924971 0.724605 0.763806
1 0.728542 0.771572
0.00715648 0.850004 0.727489
0.0805066 0.850004 0.741085
0.154345 0.850004 0.750607
0.235157 0.850004 0.747402
0.467109 0.850004 0.74696
0.687617 0.850004 0.735744
0.846479 0.847456 0.733669
0.925002 0.846769 0.732189
1 0.846769 0.732296
0.00477607 0.925002 0.747097
0.0793317 0.925002 0.75079
0.154253 0.925002 0.751415
0.242985 0.925002 0.750668
0.46482 0.925002 0.748913
0.675639 0.925002 0.72842
0.838224 0.922438 0.718929
0.925002 0.921157 0.724117
1 0.920531 0.715175
0.00418097 1 0.752117
0.0791791 1 0.752117
0.154177 1 0.752117
0.250767 1 0.75407
0.470573 1 0.753017
0.676173 1 0.731106
0.836088 0.997497 0.716609
0.925002 0.995972 0.721614
1 0.995468 0.714305
0 0 0.843473
0.0749981 0 0.843473
0.149996 0 0.843473
0.284901 0 0.843107
0.51516 0 0.832731
0.72636 0 0.833127
0.83476 0 0.835828
0.909758 0 0.835828
0.984771 0 0.835828
0 0.0749981 0.843473
0.0749981 0.0749981 0.843473
0.149996 0.0749981 0.843473
0.295186 0.0749981 0.842771
0.5393 0.0749981 0.831403
0.744457 0.0749981 0.834562
0.83476 0.0749981 0.835828
0.909758 0.0749981 0.835828
0.984771 0.0749981 0.835828
0 0.153033 0.843366
0.0749981 0.157549 0.843366
0.149996 0.159777 0.843412
0.318914 0.152438 0.841733
0.578088 0.149996 0.830503
0.757244 0.149996 0.835615
0.83476 0.149996 0.835828
0.909758 0.149996 0.835828
0.984771 0.149996 0.835828
0 0.29659 0.843259
0.0749981 0.308827 0.842496
0.149996 0.321126 0.841382
0.309056 0.316747 0.849943
0.58468 0.298207 0.848844
0.772519 0.292866 0.850004
0.850004 0.28542 0.850004
0.925002 0.290181 0.850004
1 0.300877 0.850004
0 0.521309 0.824231
0.0749981 0.53875 0.821836
0.149996 0.556649 0.82005
0.260334 0.554543 0.83595
0.547982 0.535851 0.850004
0.757076 0.528038 0.850004
0.850004 0.524529 0.850004
0.925002 0.530541 0.850004
1 0.540169 0.850004
0 0.746059 0.824842
0.0751507 0.75935 0.825864
0.150927 0.768582 0.826596
0.244099 0.767437 0.829633
0.489586 0.749126 0.842313
0.711437 0.725322 0.84921
0.849928 0.718547 0.850004
0.925002 0.719326 0.850004
1 0.723201 0.850004
0.00418097 0.850004 0.827115
0.0791791 0.850004 0.827115
0.154177 0.850004 0.827115
0.231586 0.850004 0.827451
0.45623 0.850004 0.838712
0.678004 0.850004 0.839567
0.839963 0.850004 0.848798
0.925002 0.849989 0.850004
1 0.849836 0.850004
0.00418097 0.925002 0.827115
0.0791791 0.925002 0.827115
0.154177 0.925002 0.827115
0.239048 0.925002 0.828473
0.451514 0.925002 0.838804
0.661891 0.925002 0.838773
0.824521 0.925002 0.846799
0.925002 0.925002 0.850004
1 0.925002 0.850004
0.00418097 1 0.827115
0.0791791 1 0.827115
0.154177 1 0.827115
0.245258 1 0.829328
0.45658 1 0.838758
0.661265 1 0.838727
0.820569 1 0.846296
0.925002 1 0.850004
1 1 0.850004
0 0 0.918471
0.0749981 0 0.918471
0.149996 0 0.918471
0.281239 0 0.918212
0.509361 0 0.90811
0.721859 0 0.907805
0.83476 0 0.910826
0.909758 0 0.910826
0.984771 0 0.910826
0 0.0749981 0.918471
0.0749981 0.0749981 0.918471
0.149996 0.0749981 0.918471
0.295125 0.0749981 0.917784
0.539849 0.0749981 0.906355
0.744305 0.0749981 0.909545
0.83476 0.0749981 0.910826
0.909758 0.0749981 0.910826
0.984771 0.0749981 0.910826
0 0.153079 0.918364
0.0749981 0.158419 0.918379
0.149996 0.161059 0.918425
0.323323 0.152575 0.916503
0.582238 0.149996 0.905516
0.757763 0.149996 0.910658
0.83476 0.149996 0.910826
0.909758 0.149996 0.910826
0.984771 0.149996 0.910826
0 0.297536 0.918242
0.0749981 0.312184 0.917205
0.149996 0.325093 0.915999
0.313588 0.32079 0.924987
0.589593 0.301839 0.924239
0.77348 0.296559 0.925002
0.850004 0.28954 0.925002
0.925002 0.294835 0.925002
1 0.305715 0.925002
0 0.523598 0.898833
0.0749981 0.542748 0.896391
0.149996 0.561593 0.894652
0.263493 0.559442 0.911269
0.551827 0.539971 0.925002
0.758679 0.532357 0.925002
0.850004 0.529 0.925002
0.925002 0.534707 0.925002
1 0.544045 0.925002
0 0.748028 0.900038
0.0752117 0.762112 0.901061
0.151202 0.770642 0.901762
0.246876 0.769833 0.905089
0.493065 0.751202 0.917098
0.712352 0.727138 0.924178
0.849912 0.720027 0.925002
0.925002 0.720913 0.925002
1 0.724773 0.925002
0.00418097 0.850004 0.902129
0.0791791 0.850004 0.902129
0.154177 0.850004 0.902129
0.231983 0.850004 0.90251
0.457908 0.850004 0.913725
0.677913 0.850004 0.914565
0.83975 0.850004 0.923781
0.925002 0.849973 0.925002
1 0.84979 0.925002
0.00418097 0.925002 0.902129
0.0791791 0.925002 0.902129
0.154177 0.925002 0.902129
0.239628 0.925002 0.903563
0.451286 0.925002 0.913802
0.660533 0.925002 0.913725
0.822721 0.925002 0.921569
0.925002 0.925002 0.925002
1 0.925002 0.925002
0.00418097 1 0.902129
0.0791791 1 0.902129
0.154177 1 0.902129
0.244755 1 0.904265
0.454917 1 0.913771
0.659129 1 0.913664
0.818097 1 0.920989
0.924987 1 0.925002
1 1 0.925002
0 0 0.993469
0.0749981 0 0.993469
0.149996 0 0.993469
0.281544 0 0.993194
0.510887 0 0.983017
0.723598 0 0.982925
0.83476 0 0.985824
0.909758 0 0.985824
0.984771 0 0.985824
0 0.0749981 0.993469
0.0749981 0.0749981 0.993469
0.149996 0.0749981 0.993469
0.298116 0.0749981 0.992691
0.545754 0.0749981 0.981064
0.747372 0.0749981 0.984802
0.83476 0.0749981 0.985824
0.909758 0.0749981 0.985824
0.984771 0.0749981 0.985824
0 0.154543 0.993378
0.0749981 0.160357 0.993378
0.149996 0.163073 0.993454
0.329519 0.152972 0.991196
0.588083 0.149996 0.98056
0.75848 0.149996 0.985718
0.83476 0.149996 0.985824
0.909758 0.149996 0.985824
0.984771 0.149996 0.985824
0 0.301686 0.993027
0.0749981 0.317861 0.991699
0.149996 0.330465 0.990463
0.319173 0.325811 1
0.596124 0.306783 0.999664
0.774426 0.30161 1
0.850004 0.294453 1
0.925002 0.299794 1
1 0.310674 1
0 0.529839 0.972961
0.0749981 0.549874 0.970642
0.149996 0.568231 0.969177
0.267567 0.565972 0.986694
0.556802 0.545327 1
0.760891 0.537713 1
0.850004 0.533928 1
0.925002 0.538994 1
1 0.547997 1
0 0.753109 0.975418
0.0754864 0.766186 0.976364
0.151614 0.772885 0.976944
0.250294 0.772503 0.980606
0.497902 0.754147 0.99176
0.714397 0.73022 0.999176
0.849958 0.722713 1
0.925002 0.723278 1
0.999985 0.72668 1
0.00418097 0.850004 0.977127
0.0791791 0.850004 0.977127
0.154177 0.850004 0.977127
0.233661 0.850004 0.977737
0.461021 0.850004 0.988708
0.679271 0.850004 0.989639
0.840513 0.850004 0.998886
0.925002 0.849973 1
1 0.849821 1
0.00418097 0.925002 0.977127
0.0791791 0.925002 0.977127
0.154177 0.925002 0.977127
0.240482 0.925002 0.978668
0.452247 0.925002 0.9888
0.660655 0.925002 0.988724
0.822492 0.925002 0.996551
0.925002 0.925002 1
1 0.925002 1
0.00418097 1 0.977127
0.0791791 1 0.977127
0.154177 1 0.977127
0.244739 1 0.979248
0.454337 1 0.988769
0.658366 1 0.988632
0.817502 1 0.995911
0.924987 1 1
1 1 1
