datas/cubes/TC - CLARITY_40.cube
TITLE "Generate by Resolve"
LUT_3D_SIZE 5
0 0 0
0.174121 0 6.10361e-05
0.542275 4.57771e-05 0.0209659
0.850004 0 0.0161746
1 0 0.0157626
0 0.16968 0
0.169085 0.1691 0
0.570214 0.155261 0.0216068
0.850004 0.149996 0.0148165
1 0.151873 0.0198825
0.0342565 0.496193 0.0363928
0.196719 0.524773 0.0375219
0.532982 0.530571 0.0846571
0.811566 0.547097 0.0257572
0.967559 0.585473 0.043183
0 0.850004 0
0.149996 0.850004 0
0.55108 0.841398 0.0677501
0.807919 0.847135 0.0383307
0.970794 0.848661 0.0343175
0 1 0
0.173816 1 0
0.560204 1 0.0679179
0.807828 1 0.0324254
0.969421 1 0.0252842
0 0 0.200946
0.168078 0 0.195911
0.528115 0.000869764 0.182025
0.850004 0 0.173877
1 0 0.175891
0 0.169268 0.177935
0.169467 0.169116 0.181033
0.562753 0.15938 0.19173
0.850004 0.149996 0.197314
1 0.157671 0.239933
0.0356451 0.507027 0.19559
0.201465 0.534386 0.203479
0.538277 0.539849 0.251987
0.800443 0.559442 0.222827
0.957794 0.593744 0.245731
0 0.850004 0.149996
0.149996 0.850004 0.149996
0.553567 0.837369 0.258946
0.807019 0.843534 0.244083
0.970001 0.845808 0.238056
0 1 0.149996
0.164584 1 0.149996
0.559579 0.999847 0.2589
0.803555 1 0.23949
0.967071 1 0.229389
0 0 0.662821
0.157214 0 0.640192
0.49456 0.00332647 0.529732
0.850004 0 0.58265
1 0 0.600732
0 0.159335 0.605051
0.160525 0.161837 0.613886
0.541741 0.162432 0.570367
0.850004 0.149996 0.652705
1 0.159564 0.691981
0.0718395 0.501396 0.546532
0.246021 0.52459 0.578271
0.548501 0.538842 0.572702
0.816159 0.556542 0.604593
0.98323 0.585489 0.640269
0 0.844297 0.613321
0.194659 0.837613 0.646113
0.549355 0.831205 0.591699
0.801938 0.834928 0.590997
0.981781 0.83798 0.600198
0.0268254 0.998306 0.69955
0.219837 0.992493 0.697292
0.556176 0.992828 0.605127
0.80029 0.997101 0.590784
0.975479 0.998901 0.59472
0 0 0.850004
0.152605 0 0.850004
0.532235 0 0.850004
0.850004 0 0.850004
1 0 0.850004
0 0.153414 0.850004
0.154421 0.158053 0.850004
0.585916 0.149996 0.850004
0.850004 0.149996 0.850004
1 0.165637 0.850004
0.0247044 0.518517 0.850004
0.208881 0.538979 0.850004
0.540093 0.547967 0.813626
0.812696 0.564416 0.829297
0.978332 0.589395 0.842252
0.0255131 0.828916 0.850004
0.200763 0.832303 0.850004
0.567773 0.820127 0.850004
0.796384 0.831739 0.850004
0.987732 0.835691 0.850004
0.0346685 0.993744 0.850004
0.206455 0.992981 0.850004
0.573068 0.982498 0.850004
0.792523 0.996048 0.850004
0.978897 0.999573 0.850004
0 0 1
0.152361 0 1
0.53048 0 1
0.850004 0 1
1 0 1
0 0.154864 1
0.155261 0.163348 1
0.597147 0.150088 1
0.850004 0.149996 1
1 0.180545 1
0.0208438 0.53225 1
0.206394 0.552163 1
0.547478 0.560555 0.976471
0.816129 0.574975 0.990662
0.979843 0.596094 0.998871
0.0270848 0.830533 1
0.201907 0.833371 1
0.568811 0.820905 1
0.796841 0.83154 1
0.98558 0.835447 1
0.0348516 0.993667 1
0.206424 0.99292 1
0.572213 0.982406 1
0.792645 0.995148 1
0.978683 0.999268 1
