datas/cubes/TC - FORWARD_40.cube
TITLE "Generate by Resolve"
LUT_3D_SIZE 5
0 0.00337224 0.0112306
0.190692 0.00140383 0.00184634
0.670146 0 0
0.850004 0 0
1 0 0
0.017792 0.178424 0
0.178271 0.178271 0.00166323
0.660639 0.149996 0
0.850004 0.149996 0
1 0.149996 0
0.138491 0.476219 0
0.308476 0.502449 0
0.583215 0.523964 0.054551
0.850004 0.520668 0
1 0.563378 0
0.307393 0.808179 0
0.457389 0.808179 0
0.699992 0.803677 0
0.850004 0.832151 0
1 0.832151 0
0.307393 0.958175 0
0.457389 0.958175 0
0.699992 0.958694 0
0.850004 0.982147 0
1 0.982147 0
0.00271611 0.000259403 0.215381
0.184817 0.000289921 0.207294
0.664424 0 0.149996
0.850004 0 0.149996
1 0 0.149996
0.000244144 0.181201 0.186282
0.168719 0.179812 0.191623
0.668254 0.149996 0.149996
0.850004 0.149996 0.149996
1 0.149996 0.149996
0.143984 0.48307 0.149996
0.314778 0.511711 0.149996
0.593561 0.531823 0.20351
0.850004 0.528496 0.149996
1 0.569726 0.149996
0.307393 0.808179 0.149996
0.457389 0.808179 0.149996
0.699992 0.803662 0.149996
0.850004 0.832151 0.149996
1 0.832151 0.149996
0.307393 0.958175 0.149996
0.457389 0.958175 0.149996
0.699992 0.957275 0.149996
0.850004 0.982147 0.149996
1 0.982147 0.149996
0.00987259 0 0.699992
0.171771 0 0.699992
0.609766 0 0.632715
0.850004 0 0.572671
1 0 0.588296
0.00686656 0.149996 0.699992
0.160586 0.149996 0.699992
0.640085 0.149996 0.662791
0.850004 0.149996 0.644648
1 0.149996 0.687572
0.0227207 0.515404 0.520775
0.163546 0.546715 0.549279
0.534279 0.543893 0.581018
0.82884 0.538766 0.546883
0.984268 0.574945 0.583368
0.0496834 0.850004 0.302113
0.181003 0.850004 0.312718
0.626795 0.824918 0.39408
0.850004 0.837705 0.379843
1 0.837537 0.371786
0 1 0.419974
0.149996 1 0.394095
0.630335 0.97464 0.434348
0.850004 0.986389 0.341756
1 0.985031 0.31957
0.00987259 0 0.850004
0.161425 0 0.850004
0.603113 0 0.850004
0.850004 0 0.850004
1 0 0.850004
0.00927749 0.149996 0.850004
0.158846 0.149996 0.850004
0.635462 0.149996 0.850004
0.850004 0.149996 0.850004
1 0.149996 0.850004
0.0131685 0.500648 0.850004
0.156435 0.532479 0.850004
0.544488 0.537209 0.821286
0.835599 0.531136 0.831312
0.98764 0.566247 0.832944
0 0.850004 0.833524
0.149996 0.850004 0.833524
0.36347 0.850004 0.847044
0.850004 0.848386 0.845884
1 0.847532 0.846159
0 1 0.833524
0.149996 1 0.833524
0.360922 1 0.84741
0.842069 0.998795 0.832654
1 0.99678 0.825071
0.00987259 0 1
0.161089 0 1
0.601373 0 1
0.850004 0 1
1 0 1
0.00924697 0.149996 1
0.159472 0.149996 1
0.64799 0.149996 1
0.850004 0.149996 1
1 0.149996 1
0.010071 0.516472 1
0.152712 0.551812 1
0.559731 0.551873 0.973754
0.835843 0.543877 0.98146
0.988464 0.574563 0.983642
0 0.850004 0.983536
0.149996 0.850004 0.983536
0.368795 0.850004 0.996918
0.850004 0.848203 0.99585
1 0.847562 0.99617
0 1 0.983536
0.149996 1 0.983536
0.352163 1 0.99733
0.831128 0.999908 0.992828
1 0.998337 0.996017
