datas/cubes/TC - FLOURISH_20.cube
TITLE "Generate by Resolve"
LUT_3D_SIZE 33
0 0.00172427 0.00972
0.0249943 0.00170901 0.00965896
0.0499886 0.00170901 0.00961318
0.0749828 0.00172427 0.00956741
0.0999924 0.00170901 0.00949111
0.124987 0.00170901 0.00941482
0.150362 0.00128176 0.00881971
0.178225 0.00077821 0.00805676
0.20943 0.000274662 0.00694286
0.243915 0 0.0052491
0.281559 0 0.00291447
0.322423 0 0.000350958
0.369329 0 0
0.419654 0 0
0.467445 0 0
0.512322 0 0
0.557961 0 0
0.603159 0 0
0.644724 0 0
0.674571 0 0
0.699992 0 0
0.725002 0 0
0.749996 0 0
0.77499 0 0
0.8 0 0
0.824994 0 0
0.850004 0 0
0.874998 0 0
0.899992 0 0
0.925002 0 0
0.949996 0 0
0.975006 0 0
1 0 0
4.57771e-05 0.0281071 0.00932326
0.0250248 0.0280766 0.00926223
0.0500343 0.0280766 0.00921645
0.0750439 0.0280766 0.00915541
0.100038 0.0280613 0.00909438
0.125032 0.0280156 0.0090486
0.150362 0.0276036 0.00851453
0.17792 0.0270237 0.00772107
0.208957 0.0261845 0.00663767
0.24361 0.0253147 0.00509651
0.281361 0.0250095 0.00289921
0.322316 0.0249943 0.000366217
0.369253 0.0249943 0
0.41973 0.0249943 0
0.467521 0.0249943 0
0.512505 0.0249943 0
0.558267 0.0249943 0
0.603571 0.0249943 0
0.644907 0.0249943 0
0.674586 0.0249943 0
0.699992 0.0249943 0
0.725002 0.0249943 0
0.749996 0.0249943 0
0.77499 0.0249943 0
0.8 0.0249943 0
0.824994 0.0249943 0
0.850004 0.0249943 0
0.874998 0.0249943 0
0.899992 0.0249943 0
0.925002 0.0249943 0
0.949996 0.0249943 0
0.975006 0.0249943 0
1 0.0249943 0
6.10361e-05 0.0545968 0.0089723
0.0250553 0.0545968 0.00891127
0.0500496 0.0545663 0.00883497
0.0750591 0.0545663 0.0087892
0.100053 0.0545357 0.00872816
0.125063 0.0544747 0.00868238
0.150332 0.054139 0.00819409
0.1776 0.0535897 0.00729381
0.208423 0.0525826 0.00611887
0.243259 0.0510414 0.00469978
0.281285 0.0500954 0.00262455
0.322423 0.0499886 0.00030518
0.369787 0.0499886 0
0.42034 0.0499886 0
0.468162 0.0499886 0
0.513237 0.0499886 0
0.559182 0.0499886 0
0.604547 0.0499886 0
0.645304 0.0499886 0
0.674647 0.0499886 0
0.699992 0.0499886 0
0.725002 0.0499886 0
0.749996 0.0499886 0
0.77499 0.0499886 0
0.8 0.0499886 0
0.824994 0.0499886 0
0.850004 0.0499886 0
0.874998 0.0499886 0
0.899992 0.0499886 0
0.925002 0.0499886 0
0.949996 0.0499886 0
0.975006 0.0499886 0
1 0.0499886 0
1.5259e-05 0.0814679 0.00866712
0.0250095 0.0814374 0.00859083
0.0500038 0.0814374 0.00852979
0.0750134 0.0814374 0.00846876
0.100008 0.0814221 0.00840772
0.125017 0.0813764 0.00834669
0.150103 0.0810712 0.00796521
0.177081 0.0806134 0.00691234
0.207721 0.0796674 0.00547799
0.242786 0.0778515 0.0040589
0.281147 0.0759594 0.00215152
0.322774 0.0750286 0.000198367
0.370794 0.0749828 0
0.421607 0.0749828 0
0.469581 0.0749828 0
0.514763 0.0749828 0
0.560845 0.0749828 0
0.606226 0.0749828 0
0.64593 0.0749828 0
0.674739 0.0749828 0
0.699992 0.0749828 0
0.725002 0.0749828 0
0.749996 0.0749828 0
0.77499 0.0749828 0
0.8 0.0749828 0
0.824994 0.0749828 0
0.850004 0.0749828 0
0.874998 0.0749828 0
0.899992 0.0749828 0
0.925002 0.0749828 0
0.949996 0.0749828 0
0.975006 0.0749828 0
1 0.0749828 0
0 0.108659 0.0077821
0.0249943 0.108659 0.00770581
0.0499886 0.108644 0.00764477
0.0749828 0.108675 0.00755322
0.0999924 0.108675 0.00747692
0.124987 0.108659 0.00743114
0.149996 0.1084 0.00717174
0.176562 0.107958 0.00614939
0.207004 0.106996 0.00482185
0.242222 0.105241 0.00337224
0.280934 0.102754 0.00144961
0.32285 0.100114 7.62951e-05
0.371603 0.0999924 0
0.423041 0.0999924 0
0.471229 0.0999924 0
0.516732 0.0999924 0
0.563241 0.0999924 0
0.608606 0.0999924 0
0.646876 0.0999924 0
0.674861 0.0999924 0
0.699992 0.0999924 0
0.725002 0.0999924 0
0.749996 0.0999924 0
0.77499 0.0999924 0
0.8 0.0999924 0
0.824994 0.0999924 0
0.850004 0.0999924 0
0.874998 0.0999924 0
0.899992 0.0999924 0
0.925002 0.0999924 0
0.949996 0.0999924 0
0.975006 0.0999924 0
1 0.0999924 0
0 0.136217 0.00639353
0.0249943 0.136233 0.00630198
0.0499886 0.136278 0.0061799
0.0749828 0.136324 0.00607309
0.0999924 0.136355 0.00598154
0.124987 0.136355 0.00588998
0.149996 0.136233 0.00570687
0.176028 0.135851 0.00479133
0.206043 0.134829 0.00425727
0.24123 0.13315 0.00335698
0.28011 0.130739 0.000885023
0.322545 0.127321 0
0.372229 0.125338 0
0.424369 0.124987 0
0.472755 0.124987 0
0.518685 0.124987 0
0.565606 0.124987 0
0.610864 0.124987 0
0.647807 0.124987 0
0.674998 0.124987 0
0.699992 0.124987 0
0.725002 0.124987 0
0.749996 0.124987 0
0.77499 0.124987 0
0.8 0.124987 0
0.824994 0.124987 0
0.850004 0.124987 0
0.874998 0.124987 0
0.899992 0.124987 0
0.925002 0.124987 0
0.949996 0.124987 0
0.975006 0.124987 0
1 0.124987 0
0 0.164218 0.00456245
0.0249943 0.164263 0.00447089
0.0499886 0.16434 0.00433356
0.0749828 0.164431 0.00419623
0.0999924 0.164523 0.0040589
0.124987 0.164553 0.00395209
0.149996 0.164538 0.0037995
0.175402 0.164233 0.00317388
0.205051 0.16318 0.00299077
0.240177 0.161517 0.00320439
0.278737 0.159365 0.000823987
0.321813 0.155978 0
0.372244 0.151614 0
0.425238 0.150011 0
0.473915 0.149996 0
0.520516 0.149996 0
0.567956 0.149996 0
0.612985 0.149996 0
0.648753 0.149996 0
0.674998 0.149996 0
0.699992 0.149996 0
0.725002 0.149996 0
0.749996 0.149996 0
0.77499 0.149996 0
0.8 0.149996 0
0.824994 0.149996 0
0.850004 0.149996 0
0.874998 0.149996 0
0.899992 0.149996 0
0.925002 0.149996 0
0.949996 0.149996 0
0.975006 0.149996 0
1 0.149996 0
0 0.192599 0.00256352
0.0249943 0.192706 0.00247196
0.0499886 0.192844 0.00231937
0.0749828 0.192996 0.00215152
0.0999924 0.193164 0.00199893
0.124987 0.193286 0.00184634
0.149996 0.193408 0.00173953
0.175051 0.193256 0.00138857
0.203891 0.192325 0.00123598
0.238941 0.190585 0.00256352
0.276783 0.188708 0.00155642
0.319921 0.185611 0
0.371023 0.180591 0
0.424994 0.175235 0
0.474205 0.17499 0
0.521645 0.17499 0
0.569635 0.17499 0
0.614908 0.17499 0
0.649653 0.17499 0
0.674998 0.17499 0
0.699992 0.17499 0
0.725002 0.17499 0
0.749996 0.17499 0
0.77499 0.17499 0
0.8 0.17499 0
0.824994 0.17499 0
0.850004 0.17499 0
0.874998 0.17499 0
0.899992 0.17499 0
0.925002 0.17499 0
0.949996 0.17499 0
0.975006 0.17499 0
1 0.17499 0
0 0.221576 0.000640879
0.0249943 0.221775 0.000595102
0.0499886 0.222004 0.000503548
0.0749828 0.222278 0.000427253
0.0999924 0.222522 0.000350958
0.124987 0.222766 0.000274662
0.149996 0.223041 0.000259403
0.17499 0.223117 0.00015259
0.202457 0.222477 0
0.237125 0.2206 0.00125124
0.27509 0.218677 0.00268559
0.316808 0.216266 0.000411994
0.368093 0.211612 0
0.423285 0.205936 0
0.473213 0.201373 0
0.521584 0.199985 0
0.570443 0.199985 0
0.616602 0.199985 0
0.649958 0.199985 0
0.674998 0.199985 0
0.699992 0.199985 0
0.725002 0.199985 0
0.749996 0.199985 0
0.77499 0.199985 0
0.8 0.199985 0
0.824994 0.199985 0
0.850004 0.199985 0
0.874998 0.199985 0
0.899992 0.199985 0
0.925002 0.199985 0
0.949996 0.199985 0
0.975006 0.199985 0
1 0.199985 0
0 0.251362 0
0.0249943 0.251698 0
0.0499886 0.252049 0
0.0749828 0.252461 0
0.0999924 0.252872 0
0.124987 0.253239 0
0.149996 0.253681 0
0.17499 0.254017 0
0.200961 0.253712 0
0.23386 0.252003 0.000274662
0.273579 0.249683 0.00260929
0.313756 0.247807 0.00254826
0.36318 0.244114 0.000228885
0.419348 0.238743 0
0.470481 0.233982 0
0.520073 0.229526 0
0.570108 0.226139 0
0.617365 0.225315 0
0.649989 0.225177 0
0.674998 0.225223 0
0.699992 0.225238 0
0.725002 0.225193 0
0.749996 0.225055 0
0.77499 0.224994 0
0.8 0.224994 0
0.824994 0.224994 0
0.850004 0.224994 0
0.874998 0.224994 0
0.899992 0.224994 0
0.925002 0.224994 0
0.949996 0.224994 0
0.975006 0.224994 0
1 0.22504 0
0 0.282231 0
0.0249943 0.282734 0
0.0499886 0.283268 0
0.0749828 0.283864 0
0.0999924 0.284443 0
0.124987 0.284993 0
0.149996 0.285588 0
0.17499 0.286259 0
0.200076 0.286351 0
0.229557 0.285161 0
0.270604 0.282536 0.00114443
0.311666 0.280446 0.00399786
0.357809 0.277928 0.00180056
0.413123 0.273503 0
0.46569 0.269032 0
0.516655 0.264744 0
0.5682 0.261006 0
0.616373 0.258305 0
0.649989 0.257496 0
0.674998 0.258412 0
0.699992 0.257145 0
0.725002 0.255818 0
0.749996 0.254948 0
0.77499 0.254475 0
0.8 0.253849 0
0.824994 0.253574 0
0.850004 0.253758 0
0.874998 0.2542 0
0.899992 0.254734 0
0.925002 0.25507 0
0.949996 0.255253 0
0.975006 0.256779 0
1 0.258442 0
0 0.314549 0
0.0249943 0.315312 0
0.0499886 0.316121 0
0.0749828 0.31696 0
0.0999924 0.31783 0
0.124987 0.318685 0
0.149996 0.319478 0
0.17499 0.320684 0
0.199985 0.321218 0
0.226551 0.320577 0
0.264866 0.318196 0
0.309453 0.315145 0.00288396
0.35404 0.3131 0.00430304
0.405737 0.31017 0.000503548
0.45861 0.306477 0
0.510918 0.302556 0
0.56437 0.29897 0
0.614084 0.296513 0
0.649989 0.295338 0
0.674998 0.296101 0
0.699992 0.29485 0
0.725002 0.293523 0
0.749996 0.292576 0
0.77499 0.291951 0
0.8 0.291661 0
0.824994 0.291676 0
0.850004 0.291814 0
0.874998 0.292134 0
0.899992 0.292714 0
0.925002 0.293294 0
0.949996 0.293935 0
0.975006 0.295705 0
1 0.297658 0
0 0.349264 0
0.0249943 0.350408 0
0.0499886 0.351659 0
0.0749828 0.352941 0
0.0999924 0.354208 0
0.124987 0.355535 0
0.149996 0.356893 0
0.17499 0.358755 0
0.199985 0.359991 0
0.225071 0.359945 0
0.257145 0.358358 0
0.30399 0.355047 0
0.351354 0.352087 0.00354009
0.401251 0.34966 0.00434882
0.451331 0.347097 0.00157168
0.50277 0.344015 0
0.557717 0.34052 0
0.609583 0.337972 0
0.649332 0.336538 0
0.674998 0.336568 0
0.699992 0.335378 0
0.725002 0.333944 0
0.749996 0.332921 0
0.77499 0.33228 0
0.8 0.331991 0
0.824994 0.332052 0
0.850004 0.332341 0
0.874998 0.332937 0
0.899992 0.333639 0
0.925002 0.334386 0
0.949996 0.335256 0
0.975006 0.337591 0
1 0.340093 0
0 0.387213 0
0.0249943 0.388769 0
0.0499886 0.390509 0
0.0749828 0.392432 0
0.0999924 0.394308 0
0.124987 0.396201 0
0.149996 0.397894 0
0.17499 0.400259 0
0.199985 0.401999 0
0.224994 0.402365 0
0.251987 0.401511 0
0.295079 0.399039 0
0.347112 0.394949 0.000961318
0.398657 0.392004 0.00471504
0.446983 0.390234 0.00492866
0.495415 0.388357 0.00262455
0.54902 0.385702 1.5259e-05
0.601831 0.383124 0
0.646479 0.381292 0
0.674998 0.38027 0
0.699992 0.379095 0
0.725002 0.377478 0
0.749996 0.376349 0
0.77499 0.375647 0
0.8 0.375433 0
0.824994 0.375692 0
0.850004 0.376196 0
0.874998 0.376928 0
0.899992 0.378073 0
0.925002 0.379324 0
0.949996 0.38056 0
0.975006 0.383246 0
1 0.38613 0
0 0.428122 0
0.0249943 0.430274 0
0.0499886 0.432563 0
0.0749828 0.434821 0
0.0999924 0.437034 0
0.124987 0.439185 0
0.149996 0.441184 0
0.17499 0.443824 0
0.199985 0.445823 0
0.224994 0.446494 0
0.249989 0.446113 0
0.286687 0.444602 0
0.340505 0.440482 0
0.395956 0.436484 0.0016022
0.445487 0.434699 0.00505074
0.493095 0.433143 0.00550851
0.542733 0.43125 0.00335698
0.593088 0.429358 0.000976577
0.640146 0.427817 0
0.674998 0.426734 0
0.699992 0.425605 0
0.725002 0.424079 0
0.749996 0.422995 0
0.77499 0.4224 0
0.8 0.422293 0
0.824994 0.422766 0
0.850004 0.423575 0
0.874998 0.424659 0
0.899992 0.425925 0
0.925002 0.427298 0
0.949996 0.428687 0
0.975006 0.431632 0
1 0.43473 0
0 0.471168 0
0.0249943 0.473503 0
0.0499886 0.475929 0
0.0749828 0.478355 0
0.0999924 0.480659 0
0.124987 0.482811 0
0.149996 0.484779 0
0.17499 0.487449 0
0.199985 0.489464 0
0.224994 0.490196 0
0.249989 0.489937 0
0.278599 0.489097 0
0.331914 0.485969 0
0.390723 0.48098 4.57771e-05
0.442817 0.478004 0.00283818
0.490684 0.475822 0.00579843
0.538735 0.474739 0.00631724
0.586954 0.473884 0.00512703
0.632242 0.473335 0.00291447
0.674861 0.472953 0.000839246
0.699992 0.472419 0.000762951
0.725002 0.47126 0.000732433
0.749996 0.470375 0.000701915
0.77499 0.469963 0.000869764
0.8 0.470039 0.0010071
0.824994 0.470619 0.00108339
0.850004 0.471519 0.00106813
0.874998 0.472663 0.00102235
0.899992 0.473747 0.00128176
0.925002 0.475029 0.0016022
0.949996 0.476356 0.00192264
0.975006 0.479072 0.00250248
1 0.481788 0.00308232
0 0.514443 0
0.0249943 0.516777 0
0.0499886 0.519158 0
0.0749828 0.521508 0
0.0999924 0.523766 0
0.124987 0.525902 0
0.149996 0.528084 0
0.17499 0.530968 0
0.199985 0.533211 0
0.224994 0.534066 0
0.249989 0.533715 0
0.274998 0.532952 0
0.322255 0.530312 0
0.381353 0.524544 0
0.436835 0.518349 0.000549325
0.485054 0.513619 0.00416571
0.533761 0.51429 0.00653086
0.582986 0.516197 0.00770581
0.626902 0.516274 0.00709544
0.668498 0.516472 0.00569161
0.699992 0.516564 0.00521859
0.725002 0.515953 0.0053254
0.749996 0.515435 0.00521859
0.77499 0.515282 0.00517281
0.8 0.51545 0.00520333
0.824994 0.515862 0.0053254
0.850004 0.516487 0.00549325
0.874998 0.517327 0.00570687
0.899992 0.518318 0.00596628
0.925002 0.519493 0.00624094
0.949996 0.520531 0.0065156
0.975006 0.522469 0.00703441
1 0.524529 0.00759899
0 0.557946 0
0.0249943 0.56054 0
0.0499886 0.563134 0
0.0749828 0.565744 0
0.0999924 0.56817 0
0.124987 0.570474 0
0.149996 0.572519 0
0.17499 0.575372 0
0.199985 0.577417 0
0.224994 0.578241 0
0.249989 0.577859 0
0.274998 0.577203 0
0.315114 0.574243 0
0.373877 0.566003 0
0.431495 0.556939 0
0.481178 0.550805 0.00180056
0.528237 0.55111 0.00550851
0.579339 0.55726 0.00848402
0.623392 0.558373 0.00976577
0.663752 0.558373 0.00953689
0.699306 0.558434 0.00944533
0.725002 0.558083 0.00991836
0.749996 0.557565 0.00987259
0.77499 0.557366 0.00982681
0.8 0.557504 0.00987259
0.824994 0.557885 0.0099794
0.850004 0.558495 0.010132
0.874998 0.559258 0.0103609
0.899992 0.560143 0.0106661
0.925002 0.561105 0.0109865
0.949996 0.562066 0.0112764
0.975006 0.563897 0.011841
1 0.56585 0.0124514
0 0.602426 0
0.0249943 0.604868 0
0.0499886 0.607324 0
0.0749828 0.609751 0
0.0999924 0.612024 0
0.124987 0.614145 0
0.149996 0.615961 0
0.17499 0.618555 0
0.199985 0.620584 0
0.224994 0.621439 0
0.249989 0.62118 0
0.274998 0.620462 0
0.31136 0.616709 0
0.370779 0.604807 0
0.428595 0.597162 0
0.480964 0.595529 4.57771e-05
0.531182 0.598047 0.00383001
0.579309 0.600015 0.00842298
0.621698 0.599512 0.0110323
0.661128 0.599313 0.0122377
0.697215 0.599298 0.0136873
0.725002 0.599115 0.0153353
0.749996 0.598657 0.0154269
0.77499 0.598489 0.0153201
0.8 0.598566 0.0153506
0.824994 0.598764 0.0154726
0.850004 0.599161 0.0156558
0.874998 0.599725 0.0158999
0.899992 0.600381 0.0161593
0.925002 0.601129 0.0164187
0.949996 0.60177 0.0166781
0.975006 0.602975 0.0172732
1 0.60441 0.0179446
0 0.645579 0
0.0249943 0.647868 0
0.0499886 0.650156 0
0.0749828 0.652308 0
0.0999924 0.654292 0
0.124987 0.65626 0
0.149996 0.658015 0
0.17499 0.66041 0
0.199985 0.662135 0
0.224994 0.662867 0
0.249989 0.662623 0
0.274998 0.661967 0
0.30808 0.66096 0
0.360403 0.657801 0
0.419577 0.652277 0
0.479484 0.646586 0
0.53257 0.64213 0.00184634
0.579095 0.639521 0.00746166
0.621027 0.638315 0.0113985
0.659953 0.637705 0.0139315
0.696345 0.63743 0.0175479
0.725002 0.637095 0.0210269
0.749996 0.636667 0.0215915
0.77499 0.636393 0.0214847
0.8 0.636362 0.0214847
0.824994 0.636576 0.0215915
0.850004 0.636896 0.0217288
0.874998 0.637385 0.0219577
0.899992 0.637873 0.0222477
0.925002 0.638361 0.0225834
0.949996 0.638819 0.0228885
0.975006 0.639704 0.0234073
1 0.640864 0.0241093
0 0.686763 0
0.0249943 0.688518 0
0.0499886 0.690364 0
0.0749828 0.692195 0
0.0999924 0.69395 0
0.124987 0.695659 0
0.149996 0.696452 0
0.17499 0.697597 0
0.199985 0.698207 0
0.224994 0.698405 0
0.249989 0.698283 0
0.274998 0.698161 0
0.308125 0.697948 0
0.357794 0.69662 0
0.415152 0.692805 0
0.476265 0.686244 0
0.531823 0.6804 0.000274662
0.578943 0.677104 0.00547799
0.620966 0.675532 0.0110018
0.659602 0.674495 0.0154574
0.696101 0.673793 0.0215305
0.72491 0.673228 0.0273289
0.749996 0.67277 0.0287785
0.77499 0.672511 0.0285954
0.8 0.672435 0.0285191
0.824994 0.672572 0.0285649
0.850004 0.67277 0.028748
0.874998 0.67306 0.0290074
0.899992 0.673396 0.0292821
0.925002 0.673762 0.029572
0.949996 0.674098 0.0298161
0.975006 0.674754 0.0302892
1 0.675685 0.0309758
0 0.722667 0
0.0249943 0.723491 0
0.0499886 0.7243 0
0.0749828 0.725002 0
0.0999924 0.725002 0
0.124987 0.725002 0
0.149996 0.725002 0
0.17499 0.725002 0
0.199985 0.725002 0
0.224994 0.725002 0
0.249989 0.725002 0
0.276783 0.725002 0
0.312963 0.725002 0
0.358587 0.725002 0
0.412924 0.724895 0
0.474235 0.723201 0
0.531548 0.717342 0
0.579034 0.713451 0.00321965
0.621317 0.711482 0.0107881
0.659648 0.710063 0.0179294
0.695918 0.708904 0.0267185
0.72488 0.70808 0.0347906
0.749996 0.70753 0.0366217
0.77499 0.707195 0.0363317
0.8 0.706996 0.0361791
0.824994 0.706981 0.0361791
0.850004 0.707088 0.0362707
0.874998 0.707286 0.0364385
0.899992 0.7075 0.0366369
0.925002 0.707744 0.0368353
0.949996 0.708003 0.0370336
0.975006 0.708415 0.0373846
1 0.709163 0.0380102
0 0.749996 0
0.0250706 0.749996 6.10361e-05
0.0506447 0.749996 0.000503548
0.0762341 0.749996 0.000946059
0.101778 0.749996 0.00137331
0.127306 0.749996 0.00177005
0.152773 0.749996 0.00213626
0.177798 0.749996 0.00215152
0.202792 0.749996 0.00215152
0.227802 0.749996 0.00215152
0.252796 0.749996 0.00215152
0.280797 0.749996 0.000854505
0.318944 0.749996 0
0.363165 0.749996 0
0.414878 0.749996 0
0.474693 0.749996 0
0.53164 0.749767 0
0.579538 0.747631 0.00320439
0.62179 0.745724 0.0123598
0.660014 0.743999 0.0225223
0.696132 0.742672 0.0333867
0.725002 0.741726 0.0422827
0.749996 0.74107 0.0441444
0.77499 0.740627 0.0437781
0.8 0.740353 0.043534
0.824994 0.740246 0.0434119
0.850004 0.74023 0.0434119
0.874998 0.740322 0.0434882
0.899992 0.740475 0.0436408
0.925002 0.740612 0.0437629
0.949996 0.740764 0.0439155
0.975006 0.74107 0.0441901
1 0.741634 0.0446784
0.00280766 0.77499 0.00215152
0.0278019 0.77499 0.00215152
0.0527962 0.77499 0.00215152
0.0777905 0.77499 0.00215152
0.1028 0.77499 0.00215152
0.127794 0.77499 0.00215152
0.152804 0.77499 0.00215152
0.177798 0.77499 0.00215152
0.202792 0.77499 0.00215152
0.227802 0.77499 0.00215152
0.252796 0.77499 0.00215152
0.279866 0.77499 0.0012665
0.319509 0.77499 0
0.363012 0.77499 0
0.415686 0.77499 0
0.475471 0.77499 0
0.531792 0.77499 0
0.579934 0.77499 0.00337224
0.62179 0.774548 0.013962
0.660151 0.773541 0.0258183
0.696117 0.772931 0.0378271
0.725002 0.772351 0.0467079
0.749996 0.771817 0.049012
0.77499 0.771374 0.0488441
0.8 0.771054 0.0485695
0.824994 0.770886 0.0484169
0.850004 0.77084 0.0483711
0.874998 0.770932 0.0484474
0.899992 0.77113 0.0486152
0.925002 0.77142 0.0488594
0.949996 0.771771 0.0491646
0.975006 0.772183 0.0495308
1 0.77258 0.0498817
0.00280766 0.8 0.00215152
0.0278019 0.8 0.00215152
0.0527962 0.8 0.00215152
0.0777905 0.8 0.00215152
0.1028 0.8 0.00215152
0.127794 0.8 0.00215152
0.152804 0.8 0.00215152
0.177798 0.8 0.00215152
0.202792 0.8 0.00215152
0.227802 0.8 0.00215152
0.252796 0.8 0.00215152
0.281331 0.8 0.00120546
0.320302 0.8 0
0.364126 0.8 0
0.416388 0.8 0
0.476158 0.8 0
0.532357 0.8 0
0.579843 0.8 0.00309758
0.621515 0.799527 0.0137789
0.659922 0.798535 0.0254673
0.695445 0.797955 0.0374456
0.725002 0.797726 0.0462806
0.749996 0.797681 0.049485
0.77499 0.797681 0.0499733
0.8 0.797681 0.0499733
0.824994 0.797681 0.0499733
0.850004 0.797681 0.0499733
0.874998 0.797681 0.0499733
0.899992 0.797681 0.0499733
0.925002 0.797681 0.0499733
0.949996 0.797681 0.0499733
0.975006 0.797681 0.0499733
1 0.797681 0.0499733
0.00280766 0.824994 0.00215152
0.0278019 0.824994 0.00215152
0.0527962 0.824994 0.00215152
0.0777905 0.824994 0.00215152
0.1028 0.824994 0.00215152
0.127794 0.824994 0.00215152
0.152804 0.824994 0.00215152
0.177798 0.824994 0.00215152
0.202792 0.824994 0.00215152
0.227802 0.824994 0.00215152
0.252872 0.824994 0.002121
0.282506 0.824994 0.000503548
0.32137 0.824994 0
0.365103 0.824994 0
0.417838 0.824994 0
0.477821 0.824994 0
0.5337 0.824994 0
0.579934 0.824994 0.00335698
0.621592 0.824506 0.0137484
0.659831 0.82356 0.0254368
0.695537 0.82298 0.0372778
0.724895 0.822736 0.0460365
0.749996 0.82269 0.0494392
0.77499 0.82269 0.0499733
0.8 0.82269 0.0499733
0.824994 0.82269 0.0499733
0.850004 0.82269 0.0499733
0.874998 0.82269 0.0499733
0.899992 0.82269 0.0499733
0.925002 0.82269 0.0499733
0.949996 0.82269 0.0499733
0.975006 0.82269 0.0499733
1 0.82269 0.0499733
0.00280766 0.850004 0.00215152
0.0278019 0.850004 0.00215152
0.0527962 0.850004 0.00215152
0.0777905 0.850004 0.00215152
0.1028 0.850004 0.00215152
0.127794 0.850004 0.00215152
0.152804 0.850004 0.00215152
0.177798 0.850004 0.00215152
0.202792 0.850004 0.00215152
0.227802 0.850004 0.00215152
0.252857 0.850004 0.002121
0.282933 0.850004 0.000274662
0.322438 0.850004 0
0.365896 0.850004 0
0.419944 0.850004 0
0.47985 0.850004 0
0.534264 0.850004 0
0.58027 0.850004 0.00375372
0.621714 0.849546 0.0137636
0.6598 0.848569 0.0254826
0.695766 0.847974 0.0372168
0.724743 0.84773 0.0462348
0.749996 0.847684 0.0495918
0.77499 0.847684 0.0499733
0.8 0.847684 0.0499733
0.824994 0.847684 0.0499733
0.850004 0.847684 0.0499733
0.874998 0.847684 0.0499733
0.899992 0.847684 0.0499733
0.925002 0.847684 0.0499733
0.949996 0.847684 0.0499733
0.975006 0.847684 0.0499733
1 0.847684 0.0499733
0.00280766 0.874998 0.00215152
0.0278019 0.874998 0.00215152
0.0527962 0.874998 0.00215152
0.0777905 0.874998 0.00215152
0.1028 0.874998 0.00215152
0.127794 0.874998 0.00215152
0.152804 0.874998 0.00215152
0.177798 0.874998 0.00215152
0.202792 0.874998 0.00215152
