datas/cubes/TC - FLOURISH_40.cube
TITLE "Generate by Resolve"
LUT_3D_SIZE 33
0 0.00343328 0.01944
0.0187381 0.00341802 0.0193179
0.0374914 0.00341802 0.0192264
0.0562448 0.00344854 0.0191348
0.0749981 0.00341802 0.0189822
0.0937362 0.00341802 0.0188296
0.113222 0.00254826 0.0176394
0.137728 0.00155642 0.0161135
0.168872 0.000549325 0.013901
0.206592 0 0.0105135
0.250614 0 0.00582895
0.301091 0 0.000701915
0.363653 0 0
0.433066 0 0
0.497414 0 0
0.555901 0 0
0.61593 0 0
0.675074 0 0
0.72697 0 0
0.755383 0 0
0.77499 0 0
0.793744 0 0
0.812497 0 0
0.83125 0 0
0.850004 0 0
0.868742 0 0
0.887495 0 0
0.906249 0 0
0.925002 0 0
0.943755 0 0
0.962493 0 0
0.981247 0 0
1 0 0
9.15541e-05 0.0249638 0.0186313
0.0188296 0.024918 0.0185245
0.037583 0.0249332 0.0184329
0.0563363 0.024918 0.0183261
0.0750896 0.0248722 0.0181888
0.093843 0.0247959 0.0180972
0.113222 0.0239719 0.0170291
0.137102 0.0228122 0.0154269
0.167926 0.0211337 0.0132601
0.205966 0.0193942 0.0102083
0.250248 0.0187686 0.00579843
0.300893 0.0187381 0.000732433
0.3635 0.0187381 0
0.433204 0.0187381 0
0.497536 0.0187381 0
0.556268 0.0187381 0
0.616541 0.0187381 0
0.675883 0.0187381 0
0.727321 0.0187381 0
0.755444 0.0187381 0
0.77499 0.0187381 0
0.793744 0.0187381 0
0.812497 0.0187381 0
0.83125 0.0187381 0
0.850004 0.0187381 0
0.868742 0.0187381 0
0.887495 0.0187381 0
0.906249 0.0187381 0
0.925002 0.0187381 0
0.943755 0.0187381 0
0.962493 0.0187381 0
0.981247 0.0187381 0
1 0.0187381 0
0.000122072 0.0467079 0.0179446
0.0188602 0.0466926 0.0178225
0.0376135 0.0466468 0.0176699
0.0563821 0.0466468 0.0175631
0.0751354 0.0465858 0.0174716
0.0938888 0.0464637 0.0173648
0.113161 0.0457771 0.0163882
0.136477 0.0446937 0.0145724
0.166857 0.0426795 0.0122377
0.205295 0.0395972 0.00941482
0.250065 0.0376898 0.0052491
0.301106 0.0374914 0.000610361
0.364584 0.0374914 0
0.43444 0.0374914 0
0.498817 0.0374914 0
0.557717 0.0374914 0
0.618357 0.0374914 0
0.677852 0.0374914 0
0.728115 0.0374914 0
0.75555 0.0374914 0
0.77499 0.0374914 0
0.793744 0.0374914 0
0.812497 0.0374914 0
0.83125 0.0374914 0
0.850004 0.0374914 0
0.868742 0.0374914 0
0.887495 0.0374914 0
0.906249 0.0374914 0
0.925002 0.0374914 0
0.943755 0.0374914 0
0.962493 0.0374914 0
0.981247 0.0374914 0
1 0.0374914 0
3.0518e-05 0.0691997 0.0173495
0.0187839 0.0691539 0.0171817
0.0375372 0.0691386 0.0170596
0.0562905 0.0691386 0.0169375
0.0750286 0.0691081 0.0168154
0.0937972 0.0690166 0.0167086
0.112734 0.0684062 0.0159304
0.135439 0.0674754 0.0138247
0.165454 0.0655985 0.010956
0.204318 0.0619821 0.0081178
0.249805 0.0581979 0.0043183
0.301808 0.0563211 0.000396735
0.366583 0.0562448 0
0.436957 0.0562448 0
0.501686 0.0562448 0
0.560784 0.0562448 0
0.621698 0.0562448 0
0.681208 0.0562448 0
0.729351 0.0562448 0
0.755734 0.0562448 0
0.77499 0.0562448 0
0.793744 0.0562448 0
0.812497 0.0562448 0
0.83125 0.0562448 0
0.850004 0.0562448 0
0.868742 0.0562448 0
0.887495 0.0562448 0
0.906249 0.0562448 0
0.925002 0.0562448 0
0.943755 0.0562448 0
0.962493 0.0562448 0
0.981247 0.0562448 0
1 0.0562448 0
0 0.0923323 0.0155795
0.0187381 0.0923323 0.0154269
0.0374914 0.0923171 0.0152743
0.0562448 0.0923781 0.0151064
0.0749981 0.0923781 0.0149691
0.0937362 0.0923171 0.014847
0.11249 0.0918135 0.0143435
0.134386 0.0909438 0.0122988
0.164004 0.0890211 0.0096437
0.20322 0.085481 0.00674449
0.249378 0.0805066 0.00289921
0.301946 0.0752575 0.000137331
0.368231 0.0749981 0
0.439841 0.0749981 0
0.504952 0.0749981 0
0.564706 0.0749981 0
0.626505 0.0749981 0
0.685969 0.0749981 0
0.731273 0.0749981 0
0.755978 0.0749981 0
0.77499 0.0749981 0
0.793744 0.0749981 0
0.812497 0.0749981 0
0.83125 0.0749981 0
0.850004 0.0749981 0
0.868742 0.0749981 0
0.887495 0.0749981 0
0.906249 0.0749981 0
0.925002 0.0749981 0
0.943755 0.0749981 0
0.962493 0.0749981 0
0.981247 0.0749981 0
1 0.0749981 0
0 0.116213 0.0128023
0.0187381 0.116243 0.012604
0.0374914 0.116335 0.0123751
0.0562448 0.116426 0.0121614
0.0749981 0.116487 0.0119631
0.0937362 0.116472 0.01178
0.11249 0.116213 0.0113985
0.133303 0.11545 0.00956741
0.162081 0.11342 0.00851453
0.201221 0.110063 0.00671397
0.247745 0.105241 0.00177005
0.301366 0.0983902 0
0.369467 0.0944381 0
0.442512 0.0937362 0
0.508019 0.0937362 0
0.568627 0.0937362 0
0.631235 0.0937362 0
0.690501 0.0937362 0
0.733135 0.0937362 0
0.756237 0.0937362 0
0.77499 0.0937362 0
0.793744 0.0937362 0
0.812497 0.0937362 0
0.83125 0.0937362 0
0.850004 0.0937362 0
0.868742 0.0937362 0
0.887495 0.0937362 0
0.906249 0.0937362 0
0.925002 0.0937362 0
0.943755 0.0937362 0
0.962493 0.0937362 0
0.981247 0.0937362 0
1 0.0937362 0
0 0.140932 0.0091249
0.0187381 0.141024 0.00894179
0.0374914 0.141176 0.00866712
0.0562448 0.141375 0.00839246
0.0749981 0.141543 0.00813306
0.0937362 0.141634 0.00790417
0.11249 0.141604 0.00759899
0.132067 0.140978 0.00636301
0.160128 0.138888 0.00598154
0.199115 0.135546 0.00640879
0.244984 0.131258 0.00164797
0.299901 0.124453 0
0.369497 0.11574 0
0.444236 0.112535 0
0.510338 0.11249 0
0.572305 0.11249 0
0.63592 0.11249 0
0.694728 0.11249 0
0.734997 0.11249 0
0.756252 0.11249 0
0.77499 0.11249 0
0.793744 0.11249 0
0.812497 0.11249 0
0.83125 0.11249 0
0.850004 0.11249 0
0.868742 0.11249 0
0.887495 0.11249 0
0.906249 0.11249 0
0.925002 0.11249 0
0.943755 0.11249 0
0.962493 0.11249 0
0.981247 0.11249 0
1 0.11249 0
0 0.166476 0.00514229
0.0187381 0.166674 0.00494392
0.0374914 0.166949 0.00462348
0.0562448 0.167269 0.00430304
0.0749981 0.16759 0.0039826
0.0937362 0.167849 0.00369268
0.11249 0.168063 0.00347906
0.13135 0.167773 0.0027924
0.157794 0.165911 0.00247196
0.196643 0.162417 0.00512703
0.241077 0.158679 0.00311284
0.296117 0.152483 0
0.367041 0.142458 0
0.443732 0.131731 0
0.510903 0.131243 0
0.574533 0.131243 0
0.639292 0.131243 0
0.698589 0.131243 0
0.736812 0.131243 0
0.756252 0.131243 0
0.77499 0.131243 0
0.793744 0.131243 0
0.812497 0.131243 0
0.83125 0.131243 0
0.850004 0.131243 0
0.868742 0.131243 0
0.887495 0.131243 0
0.906249 0.131243 0
0.925002 0.131243 0
0.943755 0.131243 0
0.962493 0.131243 0
0.981247 0.131243 0
1 0.131243 0
0 0.193149 0.00128176
0.0187381 0.193561 0.0011902
0.0374914 0.194003 0.00102235
0.0562448 0.194553 0.000854505
0.0749981 0.195071 0.000701915
0.0937362 0.19556 0.000549325
0.11249 0.196094 0.000503548
0.131243 0.196262 0.00030518
0.154925 0.194949 0
0.193011 0.191211 0.00250248
0.237705 0.187381 0.00535592
0.289891 0.182559 0.000823987
0.361196 0.173236 0
0.44033 0.161898 0
0.508934 0.152758 0
0.574426 0.149996 0
0.640894 0.149996 0
0.701946 0.149996 0
0.737438 0.149996 0
0.756252 0.149996 0
0.77499 0.149996 0
0.793744 0.149996 0
0.812497 0.149996 0
0.83125 0.149996 0
0.850004 0.149996 0
0.868742 0.149996 0
0.887495 0.149996 0
0.906249 0.149996 0
0.925002 0.149996 0
0.943755 0.149996 0
0.962493 0.149996 0
0.981247 0.149996 0
1 0.149996 0
0 0.221485 0
0.0187381 0.222156 0
0.0374914 0.222873 0
0.0562448 0.223682 0
0.0749981 0.224506 0
0.0937362 0.225238 0
0.11249 0.226108 0
0.131243 0.226795 0
0.151934 0.226169 0
0.186481 0.222782 0.000564584
0.234668 0.218128 0.00521859
0.283757 0.214374 0.00509651
0.351354 0.206989 0.000457771
0.432456 0.196246 0
0.503456 0.186725 0
0.571405 0.177813 0
0.640223 0.171038 0
0.703502 0.16939 0
0.737499 0.169131 0
0.756252 0.169207 0
0.77499 0.169238 0
0.793744 0.169146 0
0.812497 0.168872 0
0.83125 0.16875 0
0.850004 0.16875 0
0.868742 0.16875 0
0.887495 0.16875 0
0.906249 0.16875 0
0.925002 0.16875 0
0.943755 0.16875 0
0.962493 0.16875 0
0.981247 0.16875 0
1 0.168841 0
0 0.251987 0
0.0187381 0.252979 0
0.0374914 0.254047 0
0.0562448 0.255222 0
0.0749981 0.256382 0
0.0937362 0.257496 0
0.11249 0.258686 0
0.131243 0.260029 0
0.150179 0.260212 0
0.177874 0.257832 0
0.228717 0.252598 0.00228885
0.279591 0.248402 0.00801099
0.340627 0.243381 0.00360113
0.420005 0.234501 0
0.493889 0.225574 0
0.564569 0.216999 0
0.636408 0.209537 0
0.701503 0.20412 0
0.737499 0.202487 0
0.756252 0.204334 0
0.77499 0.201801 0
0.793744 0.199145 0
0.812497 0.197391 0
0.83125 0.19646 0
0.850004 0.195224 0
0.868742 0.194659 0
0.887495 0.195026 0
0.906249 0.195926 0
0.925002 0.196979 0
0.943755 0.19765 0
0.962493 0.198016 0
0.981247 0.201068 0
1 0.20441 0
0 0.285359 0
0.0187381 0.286885 0
0.0374914 0.288518 0
0.0562448 0.290181 0
0.0749981 0.291936 0
0.0937362 0.293629 0
0.11249 0.295216 0
0.131243 0.297642 0
0.149996 0.298695 0
0.171862 0.297414 0
0.217243 0.292653 0
0.275166 0.286549 0.00575265
0.333089 0.282475 0.00860609
0.405234 0.2766 0.000991836
0.479744 0.269215 0
0.553079 0.261357 0
0.628748 0.254185 0
0.696925 0.249271 0
0.737499 0.246937 0
0.756252 0.248478 0
0.77499 0.245975 0
0.793744 0.243305 0
0.812497 0.241413 0
0.83125 0.240162 0
0.850004 0.239582 0
0.868742 0.239597 0
0.887495 0.239887 0
0.906249 0.240528 0
0.925002 0.241688 0
0.943755 0.242832 0
0.962493 0.244129 0
0.981247 0.247669 0
1 0.251591 0
0 0.323537 0
0.0187381 0.325826 0
0.0374914 0.328313 0
0.0562448 0.330877 0
0.0749981 0.333425 0
0.0937362 0.336065 0
0.11249 0.338796 0
0.131243 0.342519 0
0.149996 0.344991 0
0.168902 0.344884 0
0.201816 0.341711 0
0.26424 0.335103 0
0.327733 0.329198 0.00708019
0.396262 0.324331 0.00869764
0.465187 0.319188 0.00314336
0.536782 0.313039 0
0.615442 0.306065 0
0.687922 0.300938 0
0.736171 0.298085 0
0.756252 0.298161 0
0.77499 0.295781 0
0.793744 0.292897 0
0.812497 0.290852 0
0.83125 0.28957 0
0.850004 0.288991 0
0.868742 0.289113 0
0.887495 0.289708 0
0.906249 0.290883 0
0.925002 0.292287 0
0.943755 0.293782 0
0.962493 0.295537 0
0.981247 0.300191 0
1 0.30518 0
0 0.36817 0
0.0187381 0.371298 0
0.0374914 0.374777 0
0.0562448 0.378622 0
0.0749981 0.382361 0
0.0937362 0.386145 0
0.11249 0.389548 0
0.131243 0.394263 0
0.149996 0.397757 0
0.16875 0.398474 0
0.19147 0.396796 0
0.246418 0.391852 0
0.319234 0.383673 0.00192264
0.391089 0.377752 0.00943008
0.456474 0.374212 0.00985733
0.522087 0.370489 0.00526436
0.598062 0.365164 4.57771e-05
0.672404 0.360006 0
0.730449 0.356344 0
0.756252 0.354314 0
0.77499 0.351949 0
0.793744 0.348714 0
0.812497 0.346441 0
0.83125 0.345037 0
0.850004 0.344625 0
0.868742 0.345144 0
0.887495 0.346151 0
0.906249 0.347616 0
0.925002 0.34992 0
0.943755 0.352407 0
0.962493 0.354879 0
0.981247 0.36025 0
1 0.366018 0
0 0.418769 0
0.0187381 0.423056 0
0.0374914 0.427634 0
0.0562448 0.432151 0
0.0749981 0.436576 0
0.0937362 0.440879 0
0.11249 0.444877 0
0.131243 0.450156 0
0.149996 0.454139 0
0.16875 0.455497 0
0.187488 0.454734 0
0.229633 0.451713 0
0.306004 0.443458 0
0.385687 0.435477 0.00321965
0.453483 0.431922 0.0100862
0.517464 0.428794 0.011017
0.585458 0.42501 0.00671397
0.654932 0.421225 0.0019379
0.7178 0.418143 0
0.756252 0.415976 0
0.77499 0.413718 0
0.793744 0.410666 0
0.812497 0.408499 0
0.83125 0.407309 0
0.850004 0.40708 0
0.868742 0.408026 0
0.887495 0.409674 0
0.906249 0.411826 0
0.925002 0.414374 0
0.943755 0.417105 0
0.962493 0.419867 0
0.981247 0.425772 0
1 0.431968 0
0 0.47361 0
0.0187381 0.478264 0
0.0374914 0.483131 0
0.0562448 0.487968 0
0.0749981 0.492576 0
0.0937362 0.49688 0
0.11249 0.500816 0
0.131243 0.506157 0
0.149996 0.510185 0
0.16875 0.51165 0
0.187488 0.511147 0
0.213443 0.509453 0
0.288853 0.503197 0
0.375204 0.493233 9.15541e-05
0.448127 0.487266 0.0056611
0.512642 0.482887 0.0115969
0.577478 0.480735 0.0126192
0.64268 0.479026 0.0102541
0.702007 0.477943 0.00584421
0.755978 0.477165 0.00169375
0.77499 0.476081 0.0015259
0.793744 0.473762 0.00146487
0.812497 0.472007 0.00138857
0.83125 0.471183 0.00173953
0.850004 0.471336 0.00201419
0.868742 0.472511 0.00218204
0.887495 0.474281 0.00213626
0.906249 0.4766 0.00204471
0.925002 0.478752 0.00257877
0.943755 0.481315 0.00318914
0.962493 0.48397 0.00386053
0.981247 0.489418 0.00500496
1 0.494835 0.00616464
0 0.528893 0
0.0187381 0.533562 0
0.0374914 0.538323 0
0.0562448 0.543023 0
0.0749981 0.547524 0
0.0937362 0.551812 0
0.11249 0.556191 0
0.131243 0.561929 0
0.149996 0.56643 0
0.16875 0.568154 0
0.187488 0.567422 0
0.206241 0.565927 0
0.26952 0.560632 0
0.356466 0.549111 0
0.436164 0.536706 0.00109865
0.50135 0.527245 0.00834669
0.567514 0.528572 0.0130617
0.63473 0.532403 0.0154116
0.691325 0.532555 0.0142061
0.743267 0.532952 0.0113985
0.77499 0.53315 0.0104372
0.793744 0.531914 0.0106508
0.812497 0.530877 0.0104372
0.83125 0.530571 0.0103304
0.850004 0.530907 0.0103914
0.868742 0.531731 0.0106355
0.887495 0.532982 0.0109865
0.906249 0.534676 0.0114137
0.925002 0.53666 0.0119173
0.943755 0.538994 0.0124819
0.962493 0.54107 0.0130465
0.981247 0.54493 0.0140841
1 0.549081 0.015198
0 0.584649 0
0.0187381 0.589837 0
0.0374914 0.595026 0
0.0562448 0.600259 0
0.0749981 0.605097 0
0.0937362 0.609689 0
0.11249 0.613794 0
0.131243 0.619501 0
0.149996 0.62359 0
0.16875 0.625223 0
0.187488 0.624475 0
0.206241 0.623163 0
0.255238 0.617243 0
0.341497 0.600763 0
0.425498 0.58265 0
0.493614 0.570367 0.00361639
0.556481 0.570962 0.011017
0.627451 0.583276 0.016968
0.684306 0.585504 0.0195468
0.733776 0.585504 0.0190738
0.773617 0.585626 0.0188754
0.793744 0.584924 0.019852
0.812497 0.583871 0.0197604
0.83125 0.583474 0.0196536
0.850004 0.583764 0.0197452
0.868742 0.584527 0.0199435
0.887495 0.585763 0.0202487
0.906249 0.587274 0.0207065
0.925002 0.589044 0.0213321
0.943755 0.590967 0.021973
0.962493 0.592889 0.0225528
0.981247 0.596536 0.0236973
1 0.600458 0.024918
0 0.642359 0
0.0187381 0.647257 0
0.0374914 0.652155 0
0.0562448 0.656992 0
0.0749981 0.661555 0
0.0937362 0.665782 0
0.11249 0.669429 0
0.131243 0.674601 0
0.149996 0.678676 0
0.16875 0.680385 0
0.187488 0.679866 0
0.206241 0.678447 0
0.247745 0.670939 0
0.335317 0.64712 0
0.419699 0.63183 0
0.493187 0.62858 9.15541e-05
0.562387 0.6336 0.00766003
0.62739 0.637522 0.016846
0.680888 0.63653 0.0220645
0.728527 0.636133 0.0244755
0.769436 0.636103 0.0273747
0.793744 0.635752 0.0306859
0.812497 0.634821 0.0308537
0.83125 0.634485 0.0306401
0.850004 0.634653 0.0307012
0.868742 0.635035 0.0309453
0.887495 0.635828 0.0313115
0.906249 0.636957 0.0317998
0.925002 0.63827 0.0323186
0.943755 0.63975 0.0328527
0.962493 0.641047 0.0333715
0.981247 0.643458 0.0345464
1 0.646311 0.0358892
0 0.697414 0
0.0187381 0.701991 0
0.0374914 0.706569 0
0.0562448 0.710887 0
0.0749981 0.714839 0
0.0937362 0.718776 0
0.11249 0.722286 0
0.131243 0.727062 0
0.149996 0.73051 0
0.16875 0.731991 0
0.187488 0.731487 0
0.206241 0.730205 0
0.241169 0.728176 0
0.314565 0.721874 0
0.401663 0.710811 0
0.490242 0.699428 0
0.565164 0.690517 0.00369268
0.626963 0.685298 0.0149081
0.679576 0.682887 0.022797
0.726162 0.681666 0.027863
0.767697 0.681117 0.035111
0.793744 0.680461 0.0420691
0.812497 0.679591 0.0431983
0.83125 0.679042 0.0429694
0.850004 0.678996 0.0429541
0.868742 0.679393 0.0431678
0.887495 0.680049 0.043473
0.906249 0.681025 0.0439002
0.925002 0.682002 0.04448
0.943755 0.682979 0.0451667
0.962493 0.683879 0.0457618
0.981247 0.685664 0.0468299
1 0.687968 0.0482185
0 0.748516 0
0.0187381 0.752041 0
0.0374914 0.755718 0
0.0562448 0.759396 0
0.0749981 0.762905 0
0.0937362 0.766323 0
0.11249 0.76791 0
0.131243 0.770214 0
0.149996 0.771435 0
0.16875 0.771817 0
0.187488 0.771557 0
0.206241 0.771328 0
0.241245 0.770901 0
0.309346 0.768246 0
0.392828 0.760616 0
0.483772 0.747478 0
0.563653 0.73579 0.000564584
0.626642 0.729213 0.010956
0.679423 0.72607 0.0220035
0.725475 0.723995 0.0308995
0.767208 0.722606 0.0430457
0.793576 0.721462 0.0546578
0.812497 0.720546 0.0575418
0.83125 0.720043 0.0572061
0.850004 0.719875 0.057023
0.868742 0.720165 0.0571298
0.887495 0.720546 0.057496
0.906249 0.721126 0.0580148
0.925002 0.721798 0.0585641
0.943755 0.72253 0.0591287
0.962493 0.723201 0.0596323
0.981247 0.724514 0.0605783
1 0.72639 0.0619516
0 0.789105 0
0.0187381 0.790738 0
0.0374914 0.79237 0
0.0562448 0.793744 0
0.0749981 0.793744 0
0.0937362 0.793744 0
0.11249 0.793744 0
0.131243 0.793744 0
0.149996 0.793744 0
0.16875 0.793744 0
0.187488 0.793744 0
0.209812 0.793744 0
0.250935 0.793744 0
0.310933 0.793744 0
0.388373 0.793545 0
0.479744 0.790173 0
0.563104 0.778424 0
0.626841 0.770657 0.00643931
0.68014 0.766705 0.0215763
0.725567 0.763882 0.0358434
0.766842 0.761563 0.0534524
0.79353 0.759915 0.0695659
0.812497 0.758816 0.0732586
0.83125 0.758144 0.0726635
0.850004 0.757763 0.0723735
0.868742 0.757717 0.0723583
0.887495 0.757931 0.0725414
0.906249 0.758328 0.0728923
0.925002 0.75877 0.0732738
0.943755 0.759243 0.0736706
0.962493 0.759747 0.0740673
0.981247 0.760586 0.0747539
1 0.762066 0.0760204
0 0.812497 0
0.0189212 0.812497 0.000137331
0.0388037 0.812497 0.0010071
0.0587167 0.812497 0.00190738
0.0785687 0.812497 0.00274662
0.0983749 0.812497 0.00355535
0.118059 0.812497 0.00427253
0.136858 0.812497 0.00430304
0.155612 0.812497 0.00430304
0.174365 0.812497 0.00430304
0.193103 0.812497 0.00430304
0.217838 0.812497 0.00170901
0.262898 0.812497 0
0.320073 0.812497 0
0.392264 0.812497 0
0.480629 0.812497 0
0.563302 0.812039 0
0.627817 0.807767 0.00640879
0.681086 0.803967 0.0247349
0.726299 0.800504 0.0450446
0.767254 0.797833 0.0667887
0.793744 0.795956 0.0845655
0.812497 0.794659 0.0882887
0.83125 0.793759 0.087541
0.850004 0.79321 0.087068
0.868742 0.792981 0.0868238
0.887495 0.792966 0.0868238
0.906249 0.793149 0.0869764
0.925002 0.793439 0.0872663
0.943755 0.793729 0.0875257
0.962493 0.794049 0.0878309
0.981247 0.794644 0.088365
1 0.795758 0.0893568
0.00561532 0.83125 0.00430304
0.0243534 0.83125 0.00430304
0.0431067 0.83125 0.00430304
0.0618601 0.83125 0.00430304
0.0806134 0.83125 0.00430304
0.0993515 0.83125 0.00430304
0.118105 0.83125 0.00430304
0.136858 0.83125 0.00430304
0.155612 0.83125 0.00430304
0.174365 0.83125 0.00430304
0.193103 0.83125 0.00430304
0.215991 0.83125 0.00254826
0.264027 0.83125 0
0.319783 0.83125 0
0.393881 0.83125 0
0.4822 0.83125 0
0.563607 0.83125 0
0.628611 0.83125 0.00672923
0.681071 0.830365 0.027924
0.726558 0.828336 0.0516365
0.767239 0.8271 0.075639
0.793744 0.825956 0.0934157
0.812497 0.824903 0.098024
0.83125 0.824018 0.0976883
0.850004 0.823362 0.0971237
0.868742 0.823026 0.0968338
0.887495 0.822934 0.0967269
0.906249 0.823117 0.0968948
0.925002 0.823514 0.0972305
0.943755 0.824094 0.0977188
0.962493 0.824781 0.0983291
0.981247 0.82562 0.0990616
1 0.826429 0.0997635
0.00561532 0.850004 0.00430304
0.0243534 0.850004 0.00430304
0.0431067 0.850004 0.00430304
0.0618601 0.850004 0.00430304
0.0806134 0.850004 0.00430304
0.0993515 0.850004 0.00430304
0.118105 0.850004 0.00430304
0.136858 0.850004 0.00430304
0.155612 0.850004 0.00430304
0.174365 0.850004 0.00430304
0.193103 0.850004 0.00430304
0.218906 0.850004 0.00241093
0.265599 0.850004 0
0.321996 0.850004 0
0.395285 0.850004 0
0.483574 0.850004 0
0.564721 0.850004 0
0.628443 0.850004 0.00619516
0.680552 0.849058 0.0275578
0.726116 0.847089 0.0509499
0.765911 0.84593 0.0748913
0.793744 0.845457 0.092546
0.812497 0.84538 0.09897
0.83125 0.84538 0.0999313
0.850004 0.84538 0.0999313
0.868742 0.84538 0.0999313
0.887495 0.84538 0.0999313
0.906249 0.84538 0.0999313
0.925002 0.84538 0.0999313
0.943755 0.84538 0.0999313
0.962493 0.84538 0.0999313
0.981247 0.84538 0.0999313
1 0.84538 0.0999313
0.00561532 0.868742 0.00430304
0.0243534 0.868742 0.00430304
0.0431067 0.868742 0.00430304
0.0618601 0.868742 0.00430304
0.0806134 0.868742 0.00430304
0.0993515 0.868742 0.00430304
0.118105 0.868742 0.00430304
0.136858 0.868742 0.00430304
0.155612 0.868742 0.00430304
0.174365 0.868742 0.00430304
0.193256 0.868742 0.00424201
0.221271 0.868742 0.000991836
0.26775 0.868742 0
0.32398 0.868742 0
0.398184 0.868742 0
0.486885 0.868742 0
0.567391 0.868742 0
0.628641 0.868742 0.00671397
0.68069 0.86775 0.0274968
0.725917 0.865873 0.0508888
0.766064 0.864698 0.0745556
0.793545 0.86421 0.0920729
0.812497 0.864134 0.0988785
0.83125 0.864134 0.0999313
0.850004 0.864134 0.0999313
0.868742 0.864134 0.0999313
0.887495 0.864134 0.0999313
0.906249 0.864134 0.0999313
0.925002 0.864134 0.0999313
0.943755 0.864134 0.0999313
0.962493 0.864134 0.0999313
0.981247 0.864134 0.0999313
1 0.864134 0.0999313
0.00561532 0.887495 0.00430304
0.0243534 0.887495 0.00430304
0.0431067 0.887495 0.00430304
0.0618601 0.887495 0.00430304
0.0806134 0.887495 0.00430304
0.0993515 0.887495 0.00430304
0.118105 0.887495 0.00430304
0.136858 0.887495 0.00430304
0.155612 0.887495 0.00430304
0.174365 0.887495 0.00430304
0.19324 0.887495 0.00425727
0.222141 0.887495 0.000564584
0.269871 0.887495 0
0.325551 0.887495 0
0.402411 0.887495 0
0.490944 0.887495 0
0.568551 0.887495 0
0.629297 0.887495 0.00750744
0.680934 0.88661 0.027512
0.725856 0.884642 0.0509651
0.766522 0.883452 0.0744335
0.793256 0.882948 0.0924697
0.812497 0.882872 0.0991836
0.83125 0.882872 0.0999313
0.850004 0.882872 0.0999313
0.868742 0.882872 0.0999313
0.887495 0.882872 0.0999313
0.906249 0.882872 0.0999313
0.925002 0.882872 0.0999313
0.943755 0.882872 0.0999313
0.962493 0.882872 0.0999313
0.981247 0.882872 0.0999313
1 0.882872 0.0999313
0.00561532 0.906249 0.00430304
0.0243534 0.906249 0.00430304
0.0431067 0.906249 0.00430304
0.0618601 0.906249 0.00430304
0.0806134 0.906249 0.00430304
0.0993515 0.906249 0.00430304
0.118105 0.906249 0.00430304
0.136858 0.906249 0.00430304
0.155612 0.906249 0.00430304
