datas/cubes/TC - EDITORIAL_20.cube
TITLE "Generate by Resolve"
LUT_3D_SIZE 5
0 0.00144961 0.0053254
0.220295 9.15541e-05 0.000885023
0.540169 0 0
0.790341 0 0
0.990341 0 0
0 0.220264 0
0.214908 0.219669 0.000411994
0.551278 0.20087 0
0.790402 0.199985 0
0.990372 0.199985 0
0 0.51043 0
0.199985 0.527474 0
0.548836 0.507851 0.00842298
0.8 0.510597 0.013962
1 0.518853 0.0157168
0.0104677 0.8 0.00993362
0.210468 0.8 0.00993362
0.509239 0.8 0.00367742
0.8 0.792401 0.0174868
1 0.792355 0.0177005
0.0104677 1 0.00993362
0.210468 1 0.00993362
0.531365 1 0.00239567
0.8 0.992432 0.0172427
1 0.99237 0.0177005
0 0 0.241413
0.218006 0 0.234089
0.539147 0 0.200076
0.790341 0 0.199985
0.990341 0 0.199985
0 0.220462 0.223651
0.212345 0.221149 0.226551
0.555108 0.20148 0.202686
0.790631 0.199985 0.199985
0.990662 0.199985 0.199985
0 0.515328 0.199985
0.199985 0.533211 0.199985
0.552941 0.512459 0.21062
0.8 0.515389 0.215015
1 0.523201 0.216541
0.0104677 0.8 0.209934
0.210468 0.8 0.209934
0.51548 0.8 0.203128
0.8 0.79237 0.217609
1 0.792355 0.2177
0.0104677 1 0.209934
0.210468 1 0.209934
0.530968 1 0.202396
0.8 0.992432 0.217227
1 0.99237 0.2177
0 0 0.588357
0.204761 0 0.582635
0.524681 0 0.535363
0.791959 0 0.492134
0.99202 0 0.487205
0 0.210468 0.577157
0.204334 0.212634 0.583124
0.548333 0.199985 0.557382
0.791485 0.199985 0.541131
0.991547 0.199985 0.553323
0 0.51693 0.505425
0.199985 0.534417 0.524208
0.529564 0.523629 0.535103
0.8 0.518441 0.525353
1 0.525811 0.535363
0.0110781 0.8 0.483192
0.210636 0.8 0.50045
0.493889 0.8 0.495048
0.8 0.79559 0.50454
1 0.794949 0.484886
0.009308 1 0.522377
0.20882 1 0.528191
0.498939 1 0.505867
0.799985 0.995727 0.499809
1 0.994598 0.467323
0 0 0.796735
0.199985 0 0.796735
0.507576 0 0.791363
0.792386 0 0.792905
0.992386 0 0.792905
0 0.201511 0.796674
0.199985 0.204883 0.796704
0.53904 0.199985 0.790249
0.792386 0.199985 0.792905
0.992386 0.199985 0.792905
0 0.510658 0.787106
0.199985 0.528328 0.785031
0.52398 0.517922 0.8
0.8 0.512261 0.8
1 0.520073 0.8
0.00209049 0.8 0.788556
0.202075 0.8 0.788556
0.478111 0.8 0.794354
0.79498 0.8 0.799405
1 0.799908 0.8
0.00209049 1 0.788556
0.202075 1 0.788556
0.478294 1 0.794385
0.78529 1 0.798138
1 1 0.8
0 0 0.996735
0.199985 0 0.996735
0.50544 0 0.991501
0.792386 0 0.99292
0.992386 0 0.99292
0 0.202258 0.996689
0.199985 0.206531 0.996719
0.544045 0.199985 0.99028
0.792386 0.199985 0.99292
0.992386 0.199985 0.99292
0 0.514916 0.986481
0.199985 0.534112 0.984588
0.528389 0.522667 1
0.8 0.51696 1
1 0.523995 1
0.00209049 0.8 0.988556
0.202075 0.8 0.988556
0.480507 0.8 0.994354
0.795254 0.8 0.999435
1 0.799908 1
0.00209049 1 0.988556
0.202075 1 0.988556
0.477165 1 0.994385
0.783749 1 0.997955
1 1 1
