datas/cubes/TC - RESOLUTE_60.cube
TITLE "Generate by Resolve"
LUT_3D_SIZE 33
0 1.5259e-05 0.00115969
0.0124971 1.5259e-05 0.000640879
0.0249943 0 0.000549325
0.0375067 0 0.0012665
0.0502327 0 0.00386053
0.0690318 0 0.0041352
0.0925612 4.57771e-05 0.00343328
0.119326 7.62951e-05 0.00239567
0.148302 6.10361e-05 0.00143435
0.180514 0 0.000564584
0.218601 0 0.000122072
0.263951 0 1.5259e-05
0.316777 0 0
0.373922 0 0
0.432532 0 0
0.492256 0 0
0.550942 0 0
0.604334 0 0
0.64979 0 0
0.689189 0 0
0.723796 0 0
0.754452 0 0
0.782483 0 0
0.80882 0 0
0.834043 0 0
0.857069 0 0
0.875273 0 0
0.889982 0 0
0.902754 0 0
0.915251 0 0
0.927764 0 0
0.940261 0 0
0.952773 0 0
0 0.0128939 0.00215152
0.0124971 0.0128176 0.00151064
0.0249943 0.012726 0.00125124
0.0375219 0.0126345 0.00158694
0.05037 0.0125582 0.00331121
0.0692607 0.0125124 0.00381476
0.0930495 0.0125429 0.00344854
0.120287 0.0125734 0.00263981
0.14992 0.0125582 0.00170901
0.182864 0.0124971 0.000747692
0.222202 0.0124971 0.000183108
0.269383 0.0124971 3.0518e-05
0.32401 0.0124971 0
0.383062 0.0124971 0
0.442588 0.0124971 0
0.502022 0.0124971 0
0.560327 0.0124971 0
0.612924 0.0124971 0
0.657679 0.0124971 0
0.696513 0.0124971 0
0.730205 0.0124971 0
0.760494 0.0124971 0
0.788495 0.0124971 0
0.814893 0.0124971 0
0.839887 0.0124971 0
0.861524 0.0124971 0
0.877073 0.0124971 0
0.890257 0.0124971 0
0.902754 0.0124971 0
0.915251 0.0124971 0
0.927764 0.0124971 0
0.940276 0.0124971 0
0.952819 0.0124971 0
3.0518e-05 0.0267338 0.00317388
0.0125277 0.026566 0.00276188
0.0250248 0.0263371 0.00247196
0.0375677 0.0260624 0.0024567
0.0505226 0.025742 0.00294499
0.0695354 0.0254673 0.00349432
0.0937667 0.0253147 0.00341802
0.12134 0.0252079 0.00285344
0.151537 0.0250553 0.00201419
0.185306 0.0249943 0.000976577
0.226429 0.0249943 0.000213626
0.275776 0.0249943 3.0518e-05
0.332326 0.0249943 0
0.39173 0.0249943 0
0.452064 0.0249943 0
0.512261 0.0249943 0
0.569909 0.0249943 0
0.621592 0.0249943 0
0.665843 0.0249943 0
0.703441 0.0249943 0
0.736538 0.0249943 0
0.766491 0.0249943 0
0.79443 0.0249943 0
0.820844 0.0249943 0
0.844236 0.0249943 0
0.863279 0.0249943 0
0.877699 0.0249943 0
0.890257 0.0249943 0
0.90277 0.0249943 0
0.915282 0.0249943 0
0.927901 0.0249943 0
0.940597 0.0249943 0
0.95317 0.0249943 0
0.000137331 0.0424811 0.00361639
0.0126497 0.042359 0.00361639
0.0251469 0.0420539 0.00352483
0.0376898 0.0416114 0.00329595
0.05066 0.0409094 0.00267033
0.0697642 0.0400702 0.00315862
0.0943923 0.0393683 0.00328069
0.122713 0.0386969 0.00296025
0.153429 0.038117 0.00225834
0.187778 0.0378119 0.00114443
0.230137 0.0375677 0.000228885
0.281651 0.0375067 1.5259e-05
0.339223 0.0374914 0
0.399695 0.0374914 0
0.460502 0.0374914 0
0.521233 0.0374914 0
0.579065 0.0374914 0
0.629831 0.0374914 0
0.672618 0.0374914 0
0.7093 0.0374914 0
0.741817 0.0374914 0
0.771679 0.0374914 0
0.799771 0.0374914 0
0.825528 0.0374914 0
0.847349 0.0374914 0
0.86424 0.0374914 0
0.87776 0.0374914 0
0.890257 0.0374914 0
0.90277 0.0374914 0
0.915267 0.0374914 0
0.927825 0.0374914 0
0.940459 0.0374914 0
0.953063 0.0374914 0
0.000534066 0.0633707 0.0016022
0.0130617 0.0637522 0.00167849
0.0255589 0.06392 0.00173953
0.0380713 0.0638132 0.00175479
0.0508431 0.062974 0.00172427
0.0692302 0.0612039 0.00239567
0.094316 0.0595254 0.00251774
0.123629 0.0580453 0.00221256
0.155398 0.0563668 0.00169375
0.190784 0.0541695 0.000747692
0.23357 0.0510567 0.000122072
0.285801 0.0501564 0
0.343984 0.0499886 0
0.404425 0.0499886 0
0.465492 0.0499886 0
0.526925 0.0499886 0
0.584329 0.0499886 0
0.634928 0.0499886 0
0.676722 0.0499886 0
0.712963 0.0499886 0
0.745418 0.0499886 0
0.775326 0.0499886 0
0.803189 0.0499886 0
0.829038 0.0499886 0
0.850065 0.0499886 0
0.864881 0.0499886 0
0.877775 0.0499886 0
0.890379 0.0499886 0
0.903304 0.0499886 0
0.916289 0.0499886 0
0.929244 0.0499886 0
0.942245 0.0499886 0
0.955245 0.0499886 0
0.000320439 0.0870832 0.00183108
0.0128176 0.0876478 0.00199893
0.0252995 0.0881361 0.00209049
0.0377966 0.0881971 0.00204471
0.0504158 0.0874647 0.00175479
0.0672618 0.0855879 0.00143435
0.0926986 0.0833448 0.00175479
0.123354 0.081117 0.00181582
0.156756 0.0789807 0.00105287
0.194354 0.0757 0.000259403
0.239292 0.0707256 4.57771e-05
0.292821 0.0659648 0
0.350698 0.0632792 0
0.410925 0.062501 0
0.472023 0.062501 0
0.532586 0.062501 0
0.589456 0.062501 0
0.639338 0.062501 0
0.68069 0.062501 0
0.71693 0.062501 0
0.749294 0.062501 0
0.779049 0.062501 0
0.807126 0.062501 0
0.833143 0.062501 0
0.853727 0.062501 0
0.867521 0.062501 0
0.880583 0.062501 0
0.893675 0.062501 0
0.907164 0.062501 0
0.920775 0.062501 0
0.934386 0.062501 0
0.948089 0.062501 0
0.961685 0.0629435 0
0.000106813 0.112108 0.00131228
0.0125887 0.113054 0.00137331
0.0250858 0.113603 0.00134279
0.037583 0.113756 0.00120546
0.0501106 0.113146 0.000869764
0.0648051 0.111406 0.000518807
0.0896468 0.109056 0.000793469
0.121172 0.106569 0.00125124
0.155871 0.103807 0.0012665
0.195193 0.100389 0.000320439
0.244419 0.094316 4.57771e-05
0.301808 0.0866255 0
0.361929 0.0801251 0
0.422736 0.0762493 0
0.482902 0.0749981 0
0.542473 0.0749981 0
0.598108 0.0749981 0
0.646418 0.0749981 0
0.687327 0.0749981 0
0.723339 0.0749981 0
0.755688 0.0749981 0
0.785794 0.0750744 0
0.814389 0.0753033 0
0.840314 0.0756695 0
0.860365 0.0761425 0
0.874128 0.0766155 0
0.887953 0.0771496 0
0.901946 0.0777295 0
0.916045 0.0783093 0
0.930312 0.0789502 0
0.944671 0.0796674 0
0.958938 0.0801862 0
0.972976 0.0817273 0
0 0.13872 0.000442512
0.0124971 0.139788 0.000411994
0.0249943 0.140627 0.000335698
0.0374914 0.140978 0.000213626
0.0499886 0.140475 3.0518e-05
0.063035 0.138811 0
0.0858778 0.136751 0.000106813
0.116945 0.134142 0.00062562
0.152895 0.130999 0.00128176
0.192782 0.127626 0.00077821
0.244968 0.121614 0.000122072
0.308217 0.112779 0
0.372961 0.10338 0
0.436957 0.0958572 0
0.498894 0.0913863 0
0.558114 0.0895399 0
0.61236 0.088838 0
0.659144 0.088777 0
0.699092 0.0888991 0
0.734661 0.089128 0
0.76733 0.0897993 0
0.798154 0.0907607 0
0.827543 0.092134 0
0.852689 0.0935988 0
0.871382 0.0951705 0
0.885649 0.0969711 0
0.899962 0.0993515 0
0.914382 0.102052 1.5259e-05
0.92903 0.105531 9.15541e-05
0.943755 0.109346 0.00015259
0.958618 0.114076 0.000167849
0.973434 0.118929 0.000167849
0.9879 0.122972 0.000122072
0 0.167452 0
0.0124971 0.16878 0
0.0249943 0.169955 0
0.0374914 0.170657 0
0.0499886 0.170443 0
0.062501 0.168811 0
0.0818036 0.166934 0
0.110674 0.164584 0.000137331
0.148028 0.161486 0.000518807
0.188235 0.157763 0.00105287
0.239841 0.152956 0.00015259
0.306935 0.144335 0
0.378408 0.134615 0
0.449226 0.125154 0
0.51635 0.116899 0
0.578164 0.110887 0
0.632212 0.108309 0
0.677531 0.107958 0
0.716777 0.108492 0
0.75227 0.10959 0
0.785443 0.112917 0
0.817151 0.117678 3.0518e-05
0.846098 0.122835 4.57771e-05
0.869047 0.127275 0
0.88603 0.131487 0
0.900511 0.135683 0
0.915145 0.140276 3.0518e-05
0.929946 0.145663 0.000289921
0.943893 0.151019 0.00134279
0.957656 0.156603 0.00270085
0.971237 0.162295 0.00428778
0.984527 0.167269 0.00585946
0.997711 0.171862 0.0074464
0 0.19939 0
0.0124971 0.201312 0
0.0249943 0.202838 0
0.0374914 0.204181 0
0.0499886 0.204135 0
0.062501 0.202548 0
0.0771191 0.200702 0
0.101686 0.198795 0
0.139849 0.196292 4.57771e-05
0.183886 0.19202 0.000259403
0.233143 0.187625 4.57771e-05
0.298985 0.180758 0
0.374426 0.172198 0
0.452018 0.163104 0
0.527016 0.155123 0
0.594873 0.149111 0
0.652323 0.146136 0
0.69894 0.146563 0
0.739025 0.14931 0
0.775555 0.153719 0
0.80975 0.159304 1.5259e-05
0.841352 0.165286 0.000717174
0.866377 0.170611 0.00227359
0.884108 0.17496 0.00369268
0.897719 0.17911 0.00495918
0.910552 0.184024 0.00662242
0.923384 0.189471 0.00843824
0.936217 0.19498 0.0102388
0.949004 0.200961 0.0122377
0.961746 0.206867 0.0142824
0.974487 0.213275 0.0164797
0.987152 0.218677 0.0183871
0.999771 0.22359 0.019913
0 0.237507 0
0.0124971 0.240269 0
0.0249943 0.24271 0
0.0374914 0.244358 0
0.0499886 0.244617 0
0.062501 0.24303 0
0.0753948 0.241077 0
0.0949264 0.239796 0
0.127062 0.23859 0
0.173617 0.235325 4.57771e-05
0.228031 0.229099 0
0.290806 0.223423 0
0.364019 0.217029 0
0.445258 0.210193 0
0.526452 0.203265 0
0.60116 0.197803 0
0.665003 0.195438 1.5259e-05
0.716091 0.196689 6.10361e-05
0.759411 0.200458 0.000366217
0.798123 0.205966 0.00364691
0.831846 0.212039 0.00825513
0.856428 0.218051 0.0122683
0.873549 0.222461 0.0146334
0.887266 0.226276 0.0160067
0.899962 0.230533 0.0172732
0.912505 0.235721 0.0188907
0.925002 0.241276 0.0205844
0.937499 0.247257 0.0223545
0.949996 0.253468 0.0241245
0.962493 0.259968 0.0257877
0.975006 0.267063 0.0272984
0.987503 0.272755 0.0284581
1 0.277653 0.0293126
0 0.282368 0
0.0124971 0.286 0
0.0249943 0.289204 0
0.0374914 0.291844 0
0.0499886 0.292851 0
0.062501 0.291554 0
0.0750286 0.28986 0
0.0905013 0.288487 0
0.114672 0.288716 0
0.157214 0.287785 0
0.216449 0.282063 0
0.283497 0.275074 0
0.356329 0.269169 0
0.434363 0.264042 0
0.516808 0.25922 0
0.597604 0.255009 1.5259e-05
0.668009 0.252949 0.000366217
0.724437 0.254978 0.00262455
0.771054 0.258686 0.00691234
0.811948 0.263798 0.0129091
0.843168 0.269734 0.0192874
0.861708 0.274998 0.024155
0.874998 0.278462 0.0263218
0.887495 0.281987 0.0272984
0.899992 0.285893 0.0281529
0.912505 0.290898 0.0291752
0.925002 0.296483 0.0301823
0.937499 0.302647 0.0311284
0.949996 0.309422 0.0321202
0.962493 0.31664 0.0330358
0.975006 0.323491 0.0337072
0.987503 0.329503 0.0342565
1 0.33489 0.0347143
0 0.333898 0
0.0124971 0.338552 0
0.0249943 0.342641 0
0.0374914 0.346288 0
0.0499886 0.348058 0
0.062501 0.347204 0
0.0749981 0.345296 0
0.0883192 0.344015 0
0.1066 0.345037 0
0.141756 0.346624 0
0.201434 0.343938 0
0.27425 0.335805 0
0.350027 0.327977 0
0.425879 0.322591 0
0.504952 0.319188 0
0.586679 0.316152 0.000167849
0.662409 0.315175 0.00140383
0.72311 0.316518 0.00588998
0.772793 0.320073 0.0125277
0.815946 0.325002 0.0197147
0.846189 0.330648 0.0265354
0.862501 0.335775 0.0315251
0.874998 0.339239 0.0335851
0.887495 0.342092 0.0341497
0.899992 0.345769 0.0345464
0.912505 0.350698 0.03505
0.925002 0.356268 0.035523
0.937499 0.362737 0.035935
0.949996 0.369787 0.0363775
0.962493 0.37673 0.0367742
0.975006 0.383886 0.0372015
0.987503 0.390143 0.0376135
1 0.395727 0.0379644
0 0.391684 0
0.0124971 0.39733 0
0.0249943 0.402426 0
0.0374914 0.406897 0
0.0499886 0.40911 0
0.062501 0.408423 0
0.0749981 0.406455 0
0.087602 0.405097 0
0.102785 0.406073 0
0.131441 0.409735 0
0.187198 0.409628 0
0.261997 0.402304 0
0.343008 0.392218 0
0.421012 0.384543 0
0.496513 0.380407 0
0.574502 0.378424 0.000213626
0.649958 0.377249 0.00170901
0.714168 0.379034 0.00729381
0.767178 0.382773 0.0144045
0.812528 0.387915 0.0219425
0.845457 0.394491 0.02916
0.862425 0.400046 0.0346838
0.874998 0.403632 0.0372473
0.887495 0.406241 0.0379034
0.899992 0.409934 0.038117
0.912505 0.414771 0.0383917
0.925002 0.420951 0.0387427
0.937499 0.426871 0.0390478
0.949996 0.43328 0.0393683
0.962493 0.439994 0.0396887
0.975006 0.447135 0.0400397
0.987503 0.453696 0.0404212
1 0.459815 0.0407874
0 0.454719 0
0.0124971 0.460914 0
0.0249943 0.467094 0
0.0374914 0.471931 0
0.0499886 0.474372 0
0.062501 0.473762 0
0.0749981 0.472023 0
0.0874952 0.470436 0
0.101488 0.471031 0
0.125551 0.474708 0
0.175418 0.476417 0
0.247044 0.471107 0
0.33193 0.460349 0
0.41619 0.449836 0
0.492988 0.443076 0
0.566506 0.439704 7.62951e-05
0.637781 0.438727 0.00105287
0.702419 0.44097 0.0065919
0.757656 0.44567 0.0141299
0.805371 0.45211 0.0222629
0.842466 0.458778 0.0298772
0.86186 0.465126 0.0361028
0.874998 0.469627 0.0396124
0.887495 0.472816 0.0407874
0.899992 0.476234 0.0410773
0.912505 0.481147 0.0413367
0.925002 0.486305 0.0415961
0.937499 0.491951 0.0418555
0.949996 0.497993 0.0420844
0.962493 0.504356 0.0422827
0.975006 0.511513 0.0424964
0.987503 0.518181 0.0426642
1 0.523705 0.0427863
0 0.521004 0
0.0124971 0.52781 0
0.0249943 0.533761 0
0.0374914 0.538491 0
0.0499886 0.540887 0
0.062501 0.540795 0
0.0749981 0.538979 0
0.0874952 0.537118 0
0.100832 0.536416 0
0.120806 0.539879 0
0.165148 0.54226 0
0.231312 0.53959 0
0.316228 0.530587 0
0.406607 0.517937 0
0.489616 0.507485 0
0.563714 0.502098 0
0.631693 0.500572 0.000656138
0.692988 0.502861 0.0056611
0.747753 0.508293 0.0132601
0.795987 0.514687 0.0215915
0.835966 0.521965 0.0294652
0.860166 0.528878 0.0361791
0.874968 0.534371 0.0406195
0.887495 0.538689 0.0425422
0.899992 0.542275 0.0429694
0.912505 0.546181 0.0429694
0.925002 0.550805 0.0428931
0.937499 0.556069 0.0428168
0.949996 0.561776 0.0427405
0.962493 0.568475 0.0426032
0.975006 0.574929 0.0424811
0.987503 0.580758 0.0423438
1 0.585687 0.0421302
0 0.586816 0
0.0124971 0.59324 0
0.0249943 0.598764 0
0.0374914 0.603326 0
0.0499886 0.605524 0
0.062501 0.605844 0
0.0749981 0.604273 0
0.0874952 0.601938 0
0.100465 0.600443 0
0.118181 0.603403 0
0.159136 0.606806 0
0.220081 0.606821 3.0518e-05
0.300572 0.600412 4.57771e-05
0.393179 0.588556 3.0518e-05
0.483726 0.575433 0
0.562783 0.566262 0
0.631098 0.563272 0.000534066
0.688884 0.564736 0.00454719
0.739788 0.568948 0.011368
0.785779 0.575067 0.0190433
0.826902 0.581903 0.026627
0.857084 0.588876 0.0332494
0.874662 0.595193 0.0381628
0.887495 0.59997 0.0408331
0.899992 0.603632 0.0416266
0.912505 0.607538 0.0415351
0.925002 0.611887 0.0412909
0.937499 0.616922 0.041001
0.949996 0.622278 0.0406653
0.962493 0.62771 0.0403143
0.975006 0.633097 0.0398566
0.987503 0.637797 0.0394446
1 0.641825 0.0390784
0 0.649363 0
0.0124971 0.65539 0
0.0249943 0.660975 0
0.0374914 0.665537 0
0.0499886 0.66833 0
0.062501 0.668177 0
0.0749981 0.666621 0
0.0874952 0.664515 0
0.100572 0.662745 0
0.120424 0.665492 0
0.161395 0.669703 1.5259e-05
0.218143 0.670741 0.000320439
0.292805 0.666651 0.000503548
0.382666 0.656855 0.000366217
0.476814 0.643275 9.15541e-05
0.562402 0.631067 7.62951e-05
0.633433 0.62446 0.000595102
0.689662 0.623697 0.00445563
0.737636 0.626398 0.0103304
0.779995 0.631251 0.0167391
0.818708 0.636866 0.0231479
0.851331 0.643183 0.0289006
0.873014 0.648951 0.0334783
0.887495 0.654093 0.0365606
0.899992 0.658732 0.0380102
0.912505 0.662699 0.0382544
0.925002 0.666972 0.0379492
0.937499 0.671214 0.037583
0.949996 0.675105 0.0372473
0.962493 0.679362 0.0368963
0.975006 0.683635 0.0365301
0.987503 0.687404 0.0362249
1 0.690806 0.035935
0.000381476 0.709804 0.000320439
0.0133822 0.715389 0.000747692
0.0263828 0.720714 0.00117494
0.0393072 0.725231 0.0015259
0.0518349 0.727565 0.00149538
0.0638437 0.727626 0.000946059
0.0755779 0.726207 0.00030518
0.087541 0.724269 0
0.101152 0.722789 6.10361e-05
0.12723 0.724681 0.0009308
0.170184 0.728527 0.00434882
0.224338 0.729976 0.00747692
0.293553 0.727016 0.00840772
0.378805 0.718669 0.00679026
0.473594 0.706096 0.00411994
0.562631 0.691997 0.00244144
0.637385 0.681559 0.00270085
0.693751 0.678141 0.00616464
0.739559 0.678889 0.0108949
0.779171 0.681849 0.016083
0.814649 0.686091 0.0211643
0.846769 0.6907 0.0256809
0.871412 0.695552 0.0294041
0.887465 0.700282 0.0322271
0.899992 0.704479 0.0341039
0.912505 0.708553 0.0350042
0.925002 0.712291 0.0351873
0.937499 0.715709 0.0349889
0.949996 0.719036 0.0347601
0.962493 0.722545 0.0345006
0.975006 0.726024 0.0342565
0.987503 0.729351 0.0340124
1 0.731945 0.0338445
0.00807202 0.766476 0.00750744
0.0225071 0.772305 0.00939956
0.0367285 0.777234 0.0110781
0.0505226 0.78088 0.0123293
0.0637064 0.783032 0.0129854
0.0759899 0.782971 0.0127565
0.0878004 0.78172 0.0120851
0.099794 0.780194 0.0114595
0.113237 0.778317 0.0109407
0.141482 0.779355 0.0132906
0.183581 0.782345 0.0180362
0.235477 0.783551 0.0216068
0.300526 0.780743 0.0219425
0.381949 0.772961 0.0186923
0.473289 0.760159 0.0133516
0.563851 0.745541 0.00892653
0.642084 0.732799 0.00715648
0.699214 0.726558 0.0090486
0.743709 0.725185 0.0126345
0.781155 0.726619 0.0167391
0.813962 0.729198 0.0207065
0.843915 0.732418 0.0242618
0.868681 0.735943 0.0272526
0.886473 0.739544 0.0296025
0.899992 0.743389 0.0313115
0.912505 0.746914 0.0324712
0.925002 0.750271 0.0331273
0.937499 0.753384 0.0333104
0.949996 0.756298 0.0331426
0.962493 0.759182 0.0329747
0.975006 0.762097 0.0328222
0.987503 0.76437 0.0327001
1 0.765957 0.032639
0.0233158 0.819272 0.0224613
0.0382086 0.824262 0.0248417
0.052781 0.828244 0.0269017
0.0667582 0.830106 0.0283665
0.0799725 0.830747 0.0290837
0.092256 0.829999 0.0288701
0.104234 0.829007 0.0283513
0.116197 0.827741 0.0275578
0.12958 0.82652 0.0268711
0.157397 0.827253 0.0290684
0.198169 0.828901 0.0330663
0.248356 0.829633 0.0357671
0.31043 0.826795 0.0348516
0.3879 0.81886 0.0300145
0.476219 0.806226 0.0229191
0.566339 0.791379 0.0162814
0.64564 0.777447 0.0122683
0.704829 0.769146 0.0125124
0.748379 0.765881 0.0149386
0.783871 0.76582 0.0180667
0.814862 0.767147 0.0211795
0.843076 0.769207 0.0240024
0.867414 0.771634 0.0263828
0.885985 0.774441 0.0282597
0.899992 0.777173 0.0296941
0.912505 0.779995 0.0307927
0.925002 0.782879 0.0315862
0.937499 0.78555 0.0320592
0.949996 0.788052 0.032166
0.962493 0.79057 0.0321355
0.975006 0.792645 0.0320897
0.987503 0.794415 0.0320287
1 0.795575 0.0319982
0.0397192 0.856016 0.0387732
0.0540017 0.858198 0.0405737
0.0680858 0.859739 0.0421454
0.0816358 0.859907 0.0431983
0.0946517 0.859709 0.0437018
0.106905 0.859129 0.0434577
0.118791 0.858534 0.0428473
0.130877 0.858091 0.0421454
0.144396 0.857771 0.0415351
0.172137 0.857984 0.0431983
0.212238 0.858518 0.0461738
0.260334 0.85861 0.0475319
0.320958 0.857191 0.0453346
0.395941 0.853056 0.039292
0.481376 0.844541 0.0309606
0.569253 0.830961 0.0228275
0.648646 0.816739 0.0172274
0.708827 0.80676 0.0158236
0.752239 0.801999 0.0172732
0.786587 0.800626 0.0196231
0.816312 0.800916 0.022034
0.843229 0.801953 0.0242618
0.867247 0.803647 0.0261845
0.885893 0.805432 0.0277104
0.899992 0.807507 0.0288853
0.912505 0.809644 0.0298314
0.925002 0.81181 0.0305943
0.937499 0.814115 0.0311742
0.949996 0.816205 0.0315404
0.962493 0.818173 0.0316472
0.975006 0.819821 0.0316777
0.987503 0.821241 0.0316625
1 0.822187 0.0316472
0.0521706 0.874998 0.0511788
0.0658732 0.874998 0.0523842
0.0793774 0.874998 0.0533761
0.092607 0.874998 0.0540932
0.105272 0.874998 0.0542611
0.117525 0.874998 0.0540169
0.12958 0.874998 0.0535744
0.141894 0.874998 0.0531014
0.155566 0.874998 0.0525978
0.185122 0.874998 0.0541695
0.224506 0.874998 0.0561532
0.271931 0.874998 0.0563821
0.331716 0.874693 0.0530404
0.405341 0.873671 0.0459754
0.488136 0.870604 0.0368811
0.572503 0.863066 0.027985
0.65008 0.851331 0.0213016
0.711208 0.840574 0.0186007
0.754574 0.834684 0.0192416
0.788556 0.832074 0.0209506
0.817746 0.831388 0.0228885
0.843885 0.831632 0.0246891
0.867506 0.832456 0.0262455
0.886 0.8336 0.027512
0.899992 0.835004 0.0285191
0.912505 0.836622 0.0293126
0.925002 0.838376 0.029984
0.937499 0.84007 0.0305638
0.949996 0.841733 0.0310063
0.962493 0.84332 0.0312505
0.975006 0.844663 0.0313725
0.987503 0.845808 0.0314031
1 0.846616 0.0313725
0.0596475 0.887495 0.0586099
0.0727245 0.887495 0.0591897
0.0856947 0.887495 0.0596475
0.0984207 0.887495 0.0598764
0.110903 0.887495 0.0598611
0.123247 0.887495 0.0596933
0.135515 0.887495 0.0594644
0.148302 0.887495 0.0592966
0.163622 0.887495 0.0593271
0.195178 0.887495 0.0609445
0.234531 0.887495 0.0624552
0.28246 0.887495 0.0618448
0.342489 0.887495 0.0576791
0.414893 0.88748 0.0500496
0.494255 0.887068 0.0406806
0.575082 0.885039 0.0315099
0.651118 0.879545 0.0241398
0.712291 0.870893 0.0205692
0.755611 0.864424 0.020676
0.789837 0.860853 0.0219425
0.818723 0.859174 0.0234989
0.844373 0.858686 0.0250095
0.867842 0.858885 0.0263371
0.886076 0.859495 0.0274205
0.899931 0.860441 0.028275
0.912505 0.861631 0.0289769
0.925002 0.862852 0.029572
0.937499 0.864179 0.0300908
0.949996 0.865476 0.0305333
0.962493 0.866667 0.030869
0.975006 0.867826 0.0310521
0.987503 0.868681 0.0310826
1 0.8692 0.0310521
0.0621042 0.899992 0.0610361
0.0746624 0.899992 0.0610971
0.0871595 0.899992 0.0610971
0.0996414 0.899992 0.0610971
0.112154 0.899992 0.0610971
0.124666 0.899992 0.0610971
0.137163 0.899992 0.0610971
0.150607 0.899992 0.0612039
0.168872 0.899992 0.061799
0.202457 0.899992 0.0637522
0.242679 0.899992 0.0651255
0.291737 0.899992 0.0640269
0.352499 0.899992 0.0594339
0.423331 0.899992 0.0517128
0.499977 0.899977 0.0424506
0.577783 0.89984 0.0333257
0.651789 0.898985 0.0257267
0.711864 0.895018 0.0218662
0.755688 0.89073 0.0215305
0.790265 0.887297 0.0224613
0.819272 0.884978 0.0237888
0.844739 0.883787 0.0251316
0.867948 0.883452 0.0263066
0.886061 0.883696 0.0272831
0.899855 0.884199 0.0280308
0.912505 0.884932 0.0286412
0.925002 0.885771 0.0291752
0.937499 0.886748 0.0296635
0.949996 0.887694 0.0300755
0.962493 0.88864 0.0304417
0.975006 0.889418 0.0306249
0.987503 0.890028 0.0306401
1 0.89041 0.0306096
0.0621653 0.912505 0.0610971
0.0746624 0.912505 0.0610971
0.0871595 0.912505 0.0610971
0.0996567 0.912505 0.0610971
0.112154 0.912505 0.0610971
0.124666 0.912505 0.0610971
0.137179 0.912505 0.0611124
0.15108 0.912505 0.0612497
0.172854 0.912505 0.0622416
0.208331 0.912505 0.0644388
0.249851 0.912505 0.065568
0.299611 0.912505 0.0641642
0.360204 0.912505 0.0593576
0.430228 0.912505 0.0516518
0.504952 0.912505 0.042649
0.580224 0.912505 0.033814
0.652094 0.912459 0.0263371
0.710567 0.911864 0.0225223
0.754757 0.910796 0.0217746
0.789914 0.908843 0.0224918
0.819211 0.906996 0.0237125
0.844694 0.905852 0.0249638
0.867811 0.905348 0.0260777
0.885893 0.905287 0.0269627
0.89984 0.90544 0.0276646
0.912505 0.905791 0.0282292
0.925002 0.906264 0.0287175
0.937499 0.906828 0.02916
0.949996 0.907423 0.029572
0.962493 0.907958 0.0299077
0.975006 0.9084 0.0300755
0.987503 0.908766 0.0300908
1 0.908965 0.0300603
0.0621653 0.925002 0.0610971
0.0746624 0.925002 0.0610971
0.0871595 0.925002 0.0610971
0.0996567 0.925002 0.0610971
0.112154 0.925002 0.0610971
0.124666 0.925002 0.0610971
0.137285 0.925002 0.0611124
0.151949 0.925002 0.0613413
0.177523 0.925002 0.0627298
0.21416 0.925002 0.0648203
0.256245 0.925002 0.065568
0.306203 0.925002 0.0637369
0.366796 0.925002 0.0586099
0.436225 0.925002 0.0508278
0.509285 0.925002 0.0420996
0.582849 0.925002 0.0335699
0.651621 0.925002 0.0265507
0.708492 0.925002 0.0227359
0.753094 0.924971 0.0216831
0.788754 0.924483 0.0222171
0.818387 0.923888 0.0233616
0.844022 0.923445 0.024567
0.866972 0.923201 0.0256504
0.885542 0.92311 0.0265202
0.899901 0.923125 0.0271916
0.912505 0.923217 0.0277409
0.925002 0.923369 0.0282139
0.937499 0.923552 0.0286412
0.949996 0.92372 0.0290379
0.962493 0.923873 0.0293889
0.975006 0.923995 0.0295262
0.987503 0.924102 0.0295415
1 0.924163 0.0295109
0.0621653 0.937499 0.0610971
0.0746624 0.937499 0.0610971
0.0871595 0.937499 0.0610971
0.0996567 0.937499 0.0610971
0.112154 0.937499 0.0610971
0.124681 0.937499 0.0611124
0.137758 0.937499 0.0611734
0.154025 0.937499 0.0615549
0.183124 0.937499 0.0632944
