datas/cubes/TC - FLOURISH_60.cube
TITLE "Generate by Resolve"
LUT_3D_SIZE 5
0 0.00515755 0.02916
0.128313 0.000839246 0.0208438
0.673899 0 0
0.899992 0 0
1 0 0
0 0.164736 0.00190738
0.107408 0.167437 0
0.711345 0.0999924 0
0.899992 0.0999924 0
1 0.0999924 0
0 0.543328 0
0.0999924 0.599664 0
0.601282 0.54287 0.0196078
0.899992 0.546349 0.0155947
1 0.573617 0.022797
0.00842298 0.899992 0.00646983
0.108415 0.899992 0.00646983
0.597101 0.899992 0
0.899992 0.893065 0.149905
1 0.893065 0.149905
0.00842298 1 0.00646983
0.108415 1 0.00646983
0.621836 1 0.000839246
0.899992 0.993072 0.149905
1 0.993072 0.149905
0 3.0518e-05 0.239094
0.121386 0 0.222095
0.67274 0 0.0999924
0.899992 0 0.0999924
1 0 0.0999924
0.00112917 0.156939 0.210712
0.112856 0.162722 0.211048
0.728756 0.100084 0.105089
0.899992 0.0999924 0.0999924
1 0.0999924 0.0999924
0 0.561227 0.0999924
0.0999924 0.619471 0.0999924
0.625772 0.561624 0.13135
0.899992 0.561135 0.119509
1 0.587777 0.126909
0.00842298 0.899992 0.106462
0.108415 0.899992 0.106462
0.61561 0.899992 0.0999924
0.899992 0.893065 0.249897
1 0.893065 0.249897
0.00842298 1 0.106462
0.108324 1 0.106645
0.624704 1 0.100969
0.899992 0.993072 0.249897
1 0.993072 0.249897
0 0 0.795392
0.0999924 0 0.787884
0.62858 0 0.611551
0.899992 0 0.463432
1 0 0.43621
0 0.128161 0.776318
0.0999924 0.13579 0.792874
0.708446 0.0999924 0.681102
0.899992 0.0999924 0.608423
1 0.0999924 0.644572
0 0.527535 0.679149
0.0999924 0.580346 0.732341
0.625727 0.569986 0.578973
0.899992 0.550118 0.545388
1 0.573343 0.568246
0 0.899992 0.61767
0.0999924 0.899992 0.679362
0.538491 0.899992 0.460868
0.899992 0.896178 0.517052
1 0.89601 0.502037
0 1 0.705928
0.0999924 1 0.714611
0.535637 1 0.446876
0.899992 0.996094 0.530617
1 0.996963 0.451942
0 0 0.899992
0.0999924 0 0.899992
0.582681 0 0.899992
0.899992 0 0.899992
1 0 0.899992
0 0.112764 0.899992
0.0999924 0.122683 0.899992
0.686809 0.0999924 0.899992
0.899992 0.0999924 0.899992
1 0.0999924 0.899992
0 0.519081 0.899992
0.100084 0.568002 0.899992
0.627649 0.561044 0.899992
0.899992 0.538033 0.899992
1 0.55993 0.899992
0.0584726 0.899992 0.899992
0.158465 0.899992 0.899992
0.555367 0.899992 0.899992
0.899992 0.899672 0.896498
1 0.893568 0.890364
0.0584726 1 0.899992
0.158465 1 0.899992
0.540841 1 0.899992
0.899992 0.999481 0.879515
1 0.998871 0.860273
0 0 1
0.0999924 0 1
0.575006 0 1
0.899992 0 1
1 0 1
0 0.108019 1
0.0999924 0.119783 1
0.698833 0.0999924 1
0.899992 0.0999924 1
1 0.0999924 1
0 0.52488 1
0.0999924 0.575998 1
0.643259 0.566964 1
0.899992 0.544259 1
1 0.566384 1
0.0584726 0.899992 1
0.158465 0.899992 1
0.558953 0.899992 1
0.899992 0.89984 1
1 0.889464 1
0.0584726 1 1
0.158465 1 1
0.537102 1 1
0.899992 1 1
1 1 1
