datas/cubes/TC - FLOURISH_60.cube
TITLE "Generate by Resolve"
LUT_3D_SIZE 9
0 0.00515755 0.02916
0.0499886 0.00514229 0.0284886
0.128313 0.000839246 0.0208438
0.357992 0 0
0.673899 0 0
0.850004 0 0
0.899992 0 0
0.949996 0 0
1 0 0
0 0.0760204 0.0233616
0.0499886 0.0760662 0.022446
0.121019 0.0710307 0.0144808
0.364843 0.0499886 0
0.689754 0.0499886 0
0.850004 0.0499886 0
0.899992 0.0499886 0
0.949996 0.0499886 0
1 0.0499886 0
0 0.164736 0.00190738
0.0499886 0.167605 0.00105287
0.107408 0.167437 0
0.354314 0.134874 0
0.711345 0.0999924 0
0.850004 0.0999924 0
0.899992 0.0999924 0
0.949996 0.0999924 0
1 0.0999924 0
0 0.29781 0
0.0499886 0.312627 0
0.0999924 0.329992 0
0.304097 0.306294 0.0106203
0.673182 0.271595 0
0.850004 0.256168 0
0.899992 0.245991 0
0.949996 0.250935 0
1 0.270283 0
0 0.543328 0
0.0499886 0.571298 0
0.0999924 0.599664 0
0.216785 0.590951 0
0.601282 0.54287 0.0196078
0.850004 0.549722 0.0156558
0.899992 0.546349 0.0155947
0.949996 0.554986 0.0178836
1 0.573617 0.022797
0 0.810285 0
0.0499886 0.831876 0
0.0999924 0.844648 0
0.17438 0.843839 0
0.595468 0.791196 0.000839246
0.838315 0.771405 0.0645762
0.899992 0.767315 0.0855421
0.949996 0.770184 0.0878309
1 0.777081 0.0929427
0.00842298 0.899992 0.00646983
0.0584115 0.899992 0.00646983
0.108415 0.899992 0.00646983
0.21091 0.899992 0
0.597101 0.899992 0
0.836362 0.893889 0.112322
0.899992 0.893065 0.149905
0.949996 0.893065 0.149905
1 0.893065 0.149905
0.00842298 0.949996 0.00646983
0.0584115 0.949996 0.00646983
0.108415 0.949996 0.00646983
0.222339 0.949996 0
0.605936 0.949996 0
0.836744 0.943908 0.11107
0.899992 0.943069 0.149905
0.949996 0.943069 0.149905
1 0.943069 0.149905
0.00842298 1 0.00646983
0.0584115 1 0.00646983
0.108415 1 0.00646983
0.245563 1 0
0.621836 1 0.000839246
0.836103 0.993912 0.112032
0.899992 0.993072 0.149905
0.949996 0.993072 0.149905
1 0.993072 0.149905
0 0.0030518 0.116289
0.0499886 0.0030518 0.115434
0.126864 0.000259403 0.103944
0.357885 0 0.0576181
0.674601 0 0.0499886
0.850004 0 0.0499886
0.899992 0 0.0499886
0.949996 0 0.0499886
1 0 0.0499886
0.000244144 0.0737926 0.108751
0.0502327 0.0738384 0.108171
0.121569 0.06981 0.0978561
0.367727 0.0499886 0.0579385
0.693843 0.0499886 0.0499886
0.850004 0.0499886 0.0499886
0.899992 0.0499886 0.0499886
0.949996 0.0499886 0.0499886
1 0.0499886 0.0499886
0 0.163684 0.0880751
0.0499886 0.166934 0.0895552
0.107637 0.168109 0.084062
0.365988 0.135546 0.0522621
0.720989 0.100038 0.0499886
0.850004 0.0999924 0.0499886
0.899992 0.0999924 0.0499886
0.949996 0.0999924 0.0499886
1 0.0999924 0.0499886
0 0.302739 0.0499886
0.0499886 0.319219 0.0499886
0.0999924 0.33817 0.0499886
0.316747 0.313756 0.0623789
0.6869 0.280262 0.0499886
0.850004 0.264027 0.0499886
0.899992 0.253819 0.0499886
0.949996 0.258656 0.0499886
1 0.280766 0.0499886
0 0.553017 0.0499886
0.0499886 0.581598 0.0499886
0.0999924 0.610651 0.0499886
0.230442 0.598993 0.0499886
0.614374 0.552438 0.070634
0.850004 0.559121 0.0682689
0.899992 0.554971 0.0678569
0.949996 0.563653 0.0700694
1 0.582055 0.0750591
0 0.817685 0.0499886
0.0499886 0.838514 0.0499886
0.0999924 0.847166 0.0499886
0.185397 0.847501 0.0499886
0.609689 0.795178 0.0508278
0.844419 0.776776 0.121981
0.899992 0.772107 0.139025
0.949996 0.774227 0.140917
1 0.780789 0.1458
0.00842298 0.899992 0.0564584
0.0584115 0.899992 0.0564584
0.108415 0.899992 0.0564584
0.217945 0.899992 0.0499886
0.608103 0.899992 0.0499886
0.839216 0.893751 0.166659
0.899992 0.893065 0.199893
0.949996 0.893065 0.199893
1 0.893065 0.199893
0.00842298 0.949996 0.0564584
0.0584115 0.949996 0.0564584
0.108415 0.949996 0.0564584
0.22707 0.949996 0.0499886
0.611337 0.949996 0.0499886
0.83859 0.943816 0.163516
0.899992 0.943069 0.199893
0.949996 0.943069 0.199893
1 0.943069 0.199893
0.00842298 1 0.0564584
0.0584115 1 0.0564584
0.108415 1 0.0564584
0.248798 1 0.0499886
0.624369 1 0.0510872
0.83711 0.993851 0.163561
0.899992 0.993072 0.199893
0.949996 0.993072 0.199893
1 0.993072 0.199893
0 3.0518e-05 0.239094
0.0499886 0 0.237598
0.121386 0 0.222095
0.351659 0 0.165515
0.67274 0 0.0999924
0.850004 0 0.0999924
0.899992 0 0.0999924
0.949996 0 0.0999924
1 0 0.0999924
0 0.0703899 0.226719
0.0499886 0.0705882 0.225971
0.117815 0.0662852 0.216403
0.36527 0.0499886 0.167163
0.695659 0.0499886 0.103685
0.850004 0.0499886 0.0999924
0.899992 0.0499886 0.0999924
0.949996 0.0499886 0.0999924
1 0.0499886 0.0999924
0.00112917 0.156939 0.210712
0.050782 0.160449 0.215076
0.112856 0.162722 0.211048
0.374502 0.133867 0.159442
0.728756 0.100084 0.105089
0.850004 0.0999924 0.10042
0.899992 0.0999924 0.0999924
0.949996 0.0999924 0.0999924
1 0.0999924 0.0999924
0 0.304891 0.133852
0.0499886 0.322942 0.138552
0.0999924 0.342428 0.143877
0.324926 0.321859 0.155627
0.705364 0.287037 0.106325
0.850004 0.268345 0.100114
0.899992 0.258961 0.0999924
0.949996 0.264424 0.0999924
1 0.287556 0.0999924
0 0.561227 0.0999924
0.0499886 0.590509 0.0999924
0.0999924 0.619471 0.0999924
0.2392 0.606516 0.0999924
0.625772 0.561624 0.13135
0.850004 0.566278 0.12076
0.899992 0.561135 0.119509
0.949996 0.569223 0.121614
1 0.587777 0.126909
0 0.823209 0.0999924
0.0499886 0.84097 0.0999924
0.0999924 0.849088 0.0999924
0.197024 0.850004 0.0999924
0.611811 0.767651 0.124987
0.849241 0.780301 0.178042
0.899992 0.774731 0.191165
0.949996 0.776242 0.192447
1 0.782315 0.197086
0.00842298 0.899992 0.106462
0.0584115 0.899992 0.106462
0.108415 0.899992 0.106462
0.223728 0.899992 0.0999924
0.61561 0.899992 0.0999924
0.840848 0.893675 0.219394
0.899992 0.893065 0.249897
0.949996 0.893065 0.249897
1 0.893065 0.249897
0.00842298 0.949996 0.106462
0.0584115 0.949996 0.106462
0.108385 0.949996 0.106538
0.230335 0.949996 0.0999924
0.614511 0.949996 0.0999924
0.839765 0.943771 0.214603
0.899992 0.943069 0.249897
0.949996 0.943069 0.249897
1 0.943069 0.249897
0.00842298 1 0.106462
0.0582284 1 0.106828
0.108324 1 0.106645
0.250034 1 0.0999924
0.624704 1 0.100969
0.836988 0.993851 0.213291
0.899992 0.993072 0.249897
0.949996 0.993072 0.249897
1 0.993072 0.249897
0 0 0.504219
0.0499886 0 0.501854
0.103212 0 0.482368
0.329015 0 0.395148
0.657664 0 0.278492
0.850004 0 0.211414
0.899992 0 0.185031
0.949996 0 0.173434
1 0 0.166629
0 0.0548867 0.491951
0.0499886 0.0552834 0.491478
0.105135 0.0523079 0.480308
0.345251 0.0499886 0.404746
0.684031 0.0499886 0.296452
0.850004 0.0499886 0.230396
0.899992 0.0499886 0.20708
0.949996 0.0499886 0.202289
1 0.0499886 0.20351
0 0.14667 0.454215
0.0499886 0.150347 0.462898
0.103273 0.152789 0.464607
0.363867 0.124224 0.405829
0.724437 0.0999924 0.322332
0.850004 0.0999924 0.268299
0.899992 0.0999924 0.246418
0.949996 0.0999924 0.246845
1 0.0999924 0.265003
0 0.284459 0.399069
0.0499886 0.301564 0.422614
0.0999924 0.320439 0.445106
0.319234 0.324865 0.350545
0.72166 0.283925 0.300877
0.850004 0.264561 0.27335
0.899992 0.254063 0.256397
0.949996 0.260533 0.256321
1 0.284291 0.276051
0 0.559853 0.25742
0.0499886 0.587457 0.280522
0.0999924 0.614542 0.307134
0.221546 0.617594 0.243824
0.624506 0.568215 0.295308
0.850004 0.568826 0.242496
0.899992 0.56321 0.233204
0.949996 0.571008 0.235462
1 0.588968 0.250584
0 0.827314 0.180011
0.0499886 0.844373 0.200763
0.0999924 0.849729 0.225422
0.186999 0.850004 0.198581
0.604166 0.769543 0.268757
0.849058 0.78056 0.271046
0.899992 0.775174 0.261494
0.949996 0.776089 0.259556
1 0.781445 0.263264
0 0.899992 0.208698
0.0499886 0.899992 0.219455
0.0999924 0.899992 0.234241
0.186038 0.899992 0.18204
0.602838 0.899992 0.203082
0.836606 0.896239 0.282261
0.899992 0.895033 0.300908
0.949996 0.894652 0.301198
1 0.894469 0.301442
0 0.949996 0.216434
0.0499886 0.949996 0.231174
0.0999924 0.949996 0.237644
0.191409 0.949996 0.176226
0.599084 0.949996 0.16791
0.838911 0.947143 0.259663
0.899992 0.944137 0.30135
0.949996 0.94374 0.301137
1 0.943603 0.301091
0 1 0.249668
0.0499886 1 0.266255
0.0999924 1 0.261372
0.20618 1 0.185092
0.606317 1 0.170153
0.835538 0.996902 0.256413
0.899992 0.993713 0.30132
0.949996 0.993393 0.300816
1 0.993255 0.300496
0 0 0.795392
0.0499886 0 0.794537
0.0999924 0 0.787884
0.296254 0 0.724819
0.62858 0 0.611551
0.850004 0 0.516396
0.899992 0 0.463432
0.949996 0 0.444968
1 0 0.43621
0 0.0499886 0.792721
0.0499886 0.0499886 0.792767
0.100023 0.0499886 0.789364
0.314641 0.0499886 0.739025
0.659129 0.0499886 0.638483
0.850004 0.0499886 0.552392
0.899992 0.0499886 0.519799
0.949996 0.0499886 0.524178
1 0.0499886 0.53724
0 0.128161 0.776318
0.0499886 0.13254 0.785763
0.0999924 0.13579 0.792874
0.343282 0.108156 0.751842
0.708446 0.0999924 0.681102
0.850004 0.0999924 0.626627
0.899992 0.0999924 0.608423
0.949996 0.0999924 0.616693
1 0.0999924 0.644572
0 0.272297 0.710872
0.0499886 0.290349 0.735546
0.0999924 0.310414 0.757092
0.310018 0.310704 0.720821
0.713603 0.270329 0.678553
0.850004 0.25211 0.650248
0.899992 0.242451 0.633371
0.949996 0.24889 0.642283
1 0.271458 0.672908
0 0.527535 0.679149
0.0499886 0.554086 0.7066
0.0999924 0.580346 0.732341
0.25391 0.586679 0.688838
0.625727 0.569986 0.578973
0.850004 0.555505 0.555169
0.899992 0.550118 0.545388
0.949996 0.557137 0.550332
1 0.573343 0.568246
0 0.803052 0.62211
0.0499886 0.824399 0.659327
0.0999924 0.8439 0.695766
0.177661 0.843931 0.645502
0.563928 0.807889 0.500786
0.834257 0.772839 0.548989
0.899992 0.768475 0.529915
0.949996 0.768719 0.528191
1 0.772839 0.535775
0 0.899992 0.61767
0.0499886 0.899992 0.649897
0.0999924 0.899992 0.679362
0.162402 0.899992 0.611475
0.538491 0.899992 0.460868
0.809003 0.89102 0.557733
0.899992 0.896178 0.517052
0.949996 0.896284 0.50692
1 0.89601 0.502037
0 0.949996 0.65304
0.0499886 0.949996 0.677867
0.0999924 0.949996 0.683986
0.164706 0.949996 0.602716
0.533837 0.949996 0.447288
0.809171 0.946883 0.55787
0.899992 0.946014 0.53463
0.949996 0.946609 0.481056
1 0.946715 0.471839
0 1 0.705928
0.0499886 1 0.722255
0.0999924 1 0.714611
0.176883 1 0.614176
0.535637 1 0.446876
0.808026 0.996918 0.554345
0.899992 0.996094 0.530617
0.949996 0.996826 0.463767
1 0.996963 0.451942
0 0 0.850004
0.0499886 0 0.850004
0.0999924 0 0.850004
0.265812 0 0.850004
0.598489 0 0.850004
0.847822 0 0.821225
0.899992 0 0.78117
0.949996 0 0.7738
1 0 0.772915
0 0.0499886 0.850004
0.0499886 0.0499886 0.850004
0.0999924 0.0499886 0.850004
0.287495 0.0499886 0.850004
0.630518 0.0499886 0.850004
0.849165 0.0499886 0.832609
0.899992 0.0499886 0.814145
0.949996 0.0499886 0.818708
1 0.0499886 0.825528
0 0.119326 0.850004
0.0499886 0.124041 0.850004
0.0999924 0.128145 0.850004
0.328832 0.103441 0.850004
0.688106 0.0999924 0.850004
0.850004 0.0999924 0.848676
0.899992 0.0999924 0.846128
0.949996 0.0999924 0.846799
1 0.0999924 0.849439
0 0.264729 0.850004
0.0499886 0.283497 0.850004
0.0999924 0.304585 0.850004
0.306889 0.3019 0.850004
0.712062 0.262409 0.850004
0.850004 0.245243 0.850004
0.899992 0.236179 0.850004
0.949996 0.242924 0.850004
1 0.266285 0.850004
0 0.52105 0.850004
0.0499886 0.546349 0.850004
0.0999924 0.571099 0.850004
0.257221 0.583062 0.850004
0.62472 0.563516 0.849638
0.850004 0.54638 0.849195
0.899992 0.540566 0.844831
0.949996 0.547311 0.848554
1 0.563165 0.846693
0 0.77612 0.850004
0.0568399 0.79559 0.850004
0.123278 0.812421 0.850004
0.230228 0.816419 0.850004
0.578378 0.785733 0.845151
0.834424 0.765515 0.774075
0.899992 0.757778 0.761578
0.949996 0.757595 0.758602
1 0.761212 0.759777
0.017731 0.899992 0.850004
0.0761425 0.899992 0.850004
0.133684 0.899992 0.850004
0.20528 0.899992 0.850004
0.528161 0.899992 0.822446
0.809186 0.899275 0.745647
0.899992 0.897047 0.748898
0.949996 0.896864 0.742153
1 0.893904 0.737392
0.0243381 0.949996 0.850004
0.0816968 0.949996 0.850004
0.132662 0.949996 0.850004
0.203586 0.949996 0.850004
0.515801 0.949996 0.809873
0.794079 0.949447 0.729183
0.899992 0.946929 0.74403
0.949996 0.946456 0.72311
1 0.946319 0.716014
0.0401312 1 0.850004
0.0956436 1 0.850004
0.14229 1 0.850004
0.212451 1 0.850004
0.511849 1 0.80441
0.78735 0.999222 0.713466
0.899992 0.996948 0.744778
0.949996 0.996277 0.712963
1 0.996063 0.699687
0 0 0.899992
0.0499886 0 0.899992
0.0999924 0 0.899992
0.253239 0 0.899992
0.582681 0 0.899992
0.826307 0 0.899992
0.899992 0 0.899992
0.949996 0 0.899931
1 0 0.899992
0 0.0499886 0.899992
0.0499886 0.0499886 0.899992
0.0999924 0.0499886 0.899992
0.278096 0.0499886 0.899992
0.622141 0.0499886 0.899992
0.848127 0.0499886 0.899992
0.899992 0.0499886 0.899992
0.949996 0.0499886 0.899992
1 0.0499886 0.899992
0 0.112764 0.899992
0.0499886 0.117952 0.899992
0.0999924 0.122683 0.899992
0.325521 0.102144 0.899992
0.686809 0.0999924 0.899992
0.850004 0.0999924 0.899992
0.899992 0.0999924 0.899992
0.949996 0.0999924 0.899992
1 0.0999924 0.899992
0 0.259602 0.899992
0.0499886 0.278859 0.899992
0.0999924 0.299779 0.899992
0.308904 0.297017 0.899992
0.712581 0.258061 0.899992
0.850004 0.241535 0.899992
0.899992 0.233188 0.899992
0.949996 0.240131 0.899992
1 0.264591 0.899992
0 0.519081 0.899992
0.0499886 0.543267 0.899992
0.100084 0.568002 0.899992
0.258305 0.580804 0.899992
0.627649 0.561044 0.899992
0.850004 0.543969 0.899992
0.899992 0.538033 0.899992
0.949996 0.544228 0.899992
1 0.55993 0.899992
0.0275425 0.767132 0.899992
0.0843519 0.787533 0.899992
0.141039 0.806439 0.899992
0.241032 0.811124 0.899992
0.585672 0.780804 0.899992
0.835081 0.762371 0.899992
0.899992 0.752468 0.899992
0.949996 0.751629 0.899992
1 0.754635 0.899992
0.0584726 0.899992 0.899992
0.108461 0.899992 0.899992
0.158465 0.899992 0.899992
0.225864 0.899992 0.899992
0.555367 0.899992 0.899992
0.801907 0.898665 0.899992
0.899992 0.899672 0.896498
0.949996 0.898619 0.893889
1 0.893568 0.890364
0.0584726 0.949996 0.899992
0.108461 0.949996 0.899992
0.158465 0.949996 0.899992
0.227054 0.949996 0.899992
0.546258 0.949966 0.899992
0.788602 0.948684 0.899962
0.899992 0.949798 0.889891
0.949996 0.949569 0.882383
1 0.94934 0.875349
0.0584726 1 0.899992
0.108461 1 0.899992
0.158465 1 0.899992
0.227985 1 0.899992
0.540841 1 0.899992
0.775631 0.999008 0.897765
0.899992 0.999481 0.879515
0.949996 0.99913 0.868681
1 0.998871 0.860273
0 0 0.949996
0.0499886 0 0.949996
0.0999924 0 0.949996
0.247974 0 0.949996
0.577874 0 0.949996
0.824933 0 0.949996
0.899992 0 0.949996
0.949996 0 0.949996
1 0 0.949996
0 0.0499886 0.949996
0.0499886 0.0499886 0.949996
0.0999924 0.0499886 0.949996
0.275944 0.0499886 0.949996
0.623224 0.0499886 0.949996
0.847593 0.0499886 0.949996
0.899992 0.0499886 0.949996
0.949996 0.0499886 0.949996
1 0.0499886 0.949996
0 0.109987 0.949996
0.0499886 0.115404 0.949996
0.0999924 0.120562 0.949996
0.329854 0.100237 0.949996
0.693462 0.0999924 0.949996
0.850004 0.0999924 0.949996
0.899992 0.0999924 0.949996
0.949996 0.0999924 0.949996
1 0.0999924 0.949996
0 0.259144 0.949996
0.0499886 0.279652 0.949996
0.0999924 0.301488 0.949996
0.317052 0.297826 0.949996
0.718105 0.259281 0.949996
0.850004 0.242695 0.949996
0.899992 0.234531 0.949996
0.949996 0.242084 0.949996
1 0.268635 0.949996
0 0.521385 0.949996
0.0499886 0.545159 0.949996
0.100084 0.570809 0.949996
0.265187 0.583276 0.949996
0.634546 0.562814 0.949996
0.850004 0.545647 0.949996
0.899992 0.539757 0.949996
0.949996 0.544839 0.949996
1 0.560708 0.949996
0.0282597 0.769741 0.949996
0.0851759 0.789914 0.949996
0.141711 0.808209 0.949996
0.246311 0.812146 0.949996
0.589288 0.78143 0.949996
0.835752 0.762402 0.949996
0.899992 0.751873 0.949996
0.949996 0.750484 0.949996
1 0.753201 0.949996
0.0584726 0.899992 0.949996
0.108461 0.899992 0.949996
0.158465 0.899992 0.949996
0.227787 0.899992 0.949996
0.556497 0.899992 0.949996
0.802106 0.898619 0.949996
0.899992 0.899992 0.949996
0.949996 0.896193 0.949996
1 0.891173 0.949996
0.0584726 0.949996 0.949996
0.108461 0.949996 0.949996
0.158465 0.949996 0.949996
0.226474 0.949996 0.949996
0.544656 0.949981 0.949996
0.788357 0.948226 0.949996
0.899992 0.949996 0.949996
0.949996 0.949996 0.949996
1 0.949996 0.949996
0.0584726 1 0.949996
0.108461 1 0.949996
0.158465 1 0.949996
0.22652 1 0.949996
0.537911 1 0.949996
0.776287 0.997925 0.949996
0.899992 1 0.949996
0.949996 1 0.949996
1 1 0.949722
0 0 1
0.0499886 0 1
0.0999924 0 1
0.244358 0 1
0.575006 0 1
0.824521 0 1
0.899992 0 1
0.949996 0 1
1 0 1
0 0.0499886 1
0.0499886 0.0499886 1
0.0999924 0.0499886 1
0.275883 0.0499886 1
0.627039 0.0499886 1
0.846769 0.0499886 1
0.899992 0.0499886 1
0.949996 0.0499886 1
1 0.0499886 1
0 0.108019 1
0.0499886 0.113924 1
0.0999924 0.119783 1
0.338888 0.0999924 1
0.698833 0.0999924 1
0.850004 0.0999924 1
0.899992 0.0999924 1
0.949996 0.0999924 1
1 0.0999924 1
0 0.260731 1
0.0499886 0.281804 1
0.0999924 0.305791 1
0.327672 0.301946 1
0.726665 0.263478 1
0.850004 0.246754 1
0.899992 0.24007 1
0.949996 0.249409 1
1 0.279561 1
0 0.52488 1
0.0499886 0.548608 1
0.0999924 0.575998 1
0.273991 0.588678 1
0.643259 0.566964 1
0.850004 0.549676 1
0.899992 0.544259 1
0.949996 0.549767 1
1 0.566384 1
0.0294194 0.773083 1
0.0863661 0.793484 1
0.143038 0.81181 1
0.252674 0.81532 1
0.594354 0.783307 1
0.836362 0.763546 1
0.899992 0.75259 1
0.949996 0.750942 1
1 0.753918 1
0.0584726 0.899992 1
0.108461 0.899992 1
0.158465 0.899992 1
0.2309 0.899992 1
0.558953 0.899992 1
0.802945 0.89865 1
0.899992 0.89984 1
0.949996 0.893996 1
1 0.889464 1
0.0584726 0.949996 1
0.108461 0.949996 1
0.158465 0.949996 1
0.226688 0.949996 1
0.544732 0.949981 1
0.787671 0.948211 1
0.899992 0.949996 1
0.949996 0.949996 1
1 0.949996 1
0.0584726 1 1
0.108461 1 1
0.158465 1 1
0.226459 1 1
0.537102 1 1
0.775219 0.997894 1
0.899992 1 1
0.949996 1 1
1 1 1
