datas/cubes/TC - HERO_20.cube
TITLE "Generate by Resolve"
LUT_3D_SIZE 5
0 4.57771e-05 0.000122072
0.227893 0 0
0.537499 0 0
0.779126 0 0
0.988342 0 0
0 0.249882 0
0.228748 0.238132 0
0.578149 0.226566 0.000534066
0.799924 0.234668 0.00584421
1 0.253544 0.00936904
0.00393683 0.580697 0.00456245
0.205859 0.569085 0.00247196
0.547372 0.550927 0.000289921
0.8 0.556176 0.000717174
1 0.566094 0.000122072
0.0209964 0.8 0.0217746
0.223682 0.8 0.0220493
0.552926 0.799908 0.00972
0.799664 0.798825 0.00231937
1 0.799603 0.000717174
0.0209964 1 0.0217746
0.242069 1 0.0233921
0.567666 1 0.00823987
0.799985 1 0.00387579
1 1 0.00254826
0 0 0.289876
0.262715 0 0.273533
0.554803 0 0.231205
0.783764 0 0.239094
0.98468 0 0.262043
0 0.250156 0.235142
0.226825 0.238682 0.236515
0.547906 0.234287 0.235843
0.798779 0.253437 0.256596
1 0.272709 0.275135
0.00418097 0.578637 0.21677
0.203693 0.566934 0.21117
0.549172 0.550896 0.219272
0.8 0.55404 0.217762
1 0.56286 0.223239
0.0216831 0.8 0.236713
0.222141 0.8 0.228717
0.546105 0.799878 0.221927
0.799054 0.796902 0.217517
1 0.797482 0.217105
0.0217288 1 0.267002
0.23415 1 0.243992
0.558251 1 0.227893
0.799237 1 0.222431
1 1 0.218433
0 0 0.592065
0.254108 0 0.586603
0.581216 0 0.580133
0.783139 0 0.57847
0.983536 0 0.584298
0 0.241489 0.582238
0.222126 0.233249 0.581277
0.579431 0.22118 0.575769
0.8 0.236408 0.576608
1 0.254307 0.588327
0 0.581964 0.546365
0.200168 0.570382 0.532815
0.544686 0.546868 0.543313
0.796063 0.551522 0.548638
0.999924 0.560021 0.556756
0.0119631 0.8 0.567208
0.217151 0.8 0.55613
0.525536 0.799481 0.527626
0.793072 0.788922 0.526009
1 0.789044 0.522377
0.00187686 1 0.579217
0.219272 1 0.568246
0.533974 1 0.534936
0.791516 0.998077 0.533593
1 0.997864 0.523888
0 0 0.792203
0.252461 0 0.788418
0.581353 0 0.784863
0.783612 0 0.785336
0.983612 0 0.785336
0 0.242222 0.793225
0.223316 0.23508 0.798383
0.582574 0.224292 0.798962
0.8 0.228946 0.8
1 0.247425 0.8
0 0.58053 0.799161
0.201404 0.566934 0.797803
0.545769 0.547768 0.798672
0.8 0.545098 0.798566
1 0.553735 0.798184
0 0.8 0.799542
0.199985 0.8 0.797131
0.500893 0.799863 0.789685
0.789975 0.785397 0.780529
0.999771 0.785443 0.78088
0 1 0.799558
0.200336 1 0.799146
0.515709 1 0.789593
0.787701 0.995483 0.77882
0.999619 0.99382 0.777127
0 0 0.992203
0.257511 0 0.987778
0.582513 0 0.985107
0.783612 0 0.985336
0.983612 0 0.985336
0 0.248234 0.992966
0.22884 0.241062 0.999237
0.587793 0.231342 0.999893
0.8 0.235309 1
1 0.253941 1
0 0.585626 0.999466
0.202426 0.571527 0.998917
0.549767 0.551324 1
0.8 0.547692 1
1 0.555795 0.999115
0 0.8 0.999557
0.199985 0.8 0.999557
0.495964 0.799924 0.998093
0.790509 0.785275 0.991684
0.999191 0.785962 0.990127
0 1 0.999557
0.200381 1 0.999298
0.50309 1 0.994446
0.786664 0.995285 0.988693
0.999512 0.99324 0.987823
