datas/cubes/TC - FLOURISH_40.cube
TITLE "Generate by Resolve"
LUT_3D_SIZE 9
0 0.00343328 0.01944
0.0749981 0.00341802 0.0189822
0.168872 0.000549325 0.013901
0.363653 0 0
0.61593 0 0
0.77499 0 0
0.850004 0 0
0.925002 0 0
1 0 0
0 0.0923323 0.0155795
0.0749981 0.0923781 0.0149691
0.164004 0.0890211 0.0096437
0.368231 0.0749981 0
0.626505 0.0749981 0
0.77499 0.0749981 0
0.850004 0.0749981 0
0.925002 0.0749981 0
1 0.0749981 0
0 0.193149 0.00128176
0.0749981 0.195071 0.000701915
0.154925 0.194949 0
0.361196 0.173236 0
0.640894 0.149996 0
0.77499 0.149996 0
0.850004 0.149996 0
0.925002 0.149996 0
1 0.149996 0
0 0.323537 0
0.0749981 0.333425 0
0.149996 0.344991 0
0.327733 0.329198 0.00708019
0.615442 0.306065 0
0.77499 0.295781 0
0.850004 0.288991 0
0.925002 0.292287 0
1 0.30518 0
0 0.528893 0
0.0749981 0.547524 0
0.149996 0.56643 0
0.26952 0.560632 0
0.567514 0.528572 0.0130617
0.77499 0.53315 0.0104372
0.850004 0.530907 0.0103914
0.925002 0.53666 0.0119173
1 0.549081 0.015198
0 0.748516 0
0.0749981 0.762905 0
0.149996 0.771435 0
0.241245 0.770901 0
0.563653 0.73579 0.000564584
0.767208 0.722606 0.0430457
0.850004 0.719875 0.057023
0.925002 0.721798 0.0585641
1 0.72639 0.0619516
0.00561532 0.850004 0.00430304
0.0806134 0.850004 0.00430304
0.155612 0.850004 0.00430304
0.265599 0.850004 0
0.564721 0.850004 0
0.765911 0.84593 0.0748913
0.850004 0.84538 0.0999313
0.925002 0.84538 0.0999313
1 0.84538 0.0999313
0.00561532 0.925002 0.00430304
0.0806134 0.925002 0.00430304
0.155612 0.925002 0.00430304
0.273228 0.925002 0
0.570626 0.925002 0
0.766155 0.920928 0.074052
0.850004 0.920378 0.0999313
0.925002 0.920378 0.0999313
1 0.920378 0.0999313
0.00561532 1 0.00430304
0.0806134 1 0.00430304
0.155612 1 0.00430304
0.288701 1 0
0.581231 1 0.000564584
0.765728 0.995941 0.0746929
0.850004 0.995377 0.0999313
0.925002 0.995377 0.0999313
1 0.995377 0.0999313
0 0.00204471 0.119188
0.0749981 0.00204471 0.118624
0.16791 0.000183108 0.110964
0.363577 0 0.0800641
0.616388 0 0.0749981
0.77499 0 0.0749981
0.850004 0 0.0749981
0.925002 0 0.0749981
1 0 0.0749981
0.00015259 0.0908522 0.114153
0.0751507 0.0908827 0.113771
0.16437 0.0881971 0.106905
0.370138 0.0749981 0.0802777
0.629221 0.0749981 0.0749981
0.77499 0.0749981 0.0749981
0.850004 0.0749981 0.0749981
0.925002 0.0749981 0.0749981
1 0.0749981 0.0749981
0 0.192462 0.100374
0.0749981 0.194629 0.101366
0.155077 0.195392 0.0977035
0.368994 0.173693 0.0765087
0.647334 0.150027 0.0749981
0.77499 0.149996 0.0749981
0.850004 0.149996 0.0749981
0.925002 0.149996 0.0749981
1 0.149996 0.0749981
0 0.326833 0.0749981
0.0749981 0.337804 0.0749981
0.149996 0.350454 0.0749981
0.336156 0.334173 0.083238
0.624598 0.311849 0.0749981
0.77499 0.301015 0.0749981
0.850004 0.294209 0.0749981
0.925002 0.297444 0.0749981
1 0.312169 0.0749981
0 0.535348 0.0749981
0.0749981 0.554391 0.0749981
0.149996 0.57377 0.0749981
0.27863 0.566003 0.0749981
0.576257 0.534966 0.0887617
0.77499 0.539406 0.0871748
0.850004 0.536645 0.0869001
0.925002 0.542428 0.0883803
1 0.554711 0.0917067
0 0.75346 0.0749981
0.0749981 0.76733 0.0749981
0.149996 0.773114 0.0749981
0.248585 0.773342 0.0749981
0.573129 0.738445 0.0755474
0.771267 0.726177 0.122972
0.850004 0.723064 0.13434
0.925002 0.724483 0.135607
1 0.728847 0.138857
0.00561532 0.850004 0.0793011
0.0806134 0.850004 0.0793011
0.155612 0.850004 0.0793011
0.270298 0.850004 0.0749981
0.572061 0.850004 0.0749981
0.767803 0.845838 0.152758
0.850004 0.84538 0.174929
0.925002 0.84538 0.174929
1 0.84538 0.174929
0.00561532 0.925002 0.0793011
0.0806134 0.925002 0.0793011
0.155612 0.925002 0.0793011
0.276387 0.925002 0.0749981
0.574212 0.925002 0.0749981
0.767391 0.920882 0.150683
0.850004 0.920378 0.174929
0.925002 0.920378 0.174929
1 0.920378 0.174929
0.00561532 1 0.0793011
0.0806134 1 0.0793011
0.155612 1 0.0793011
0.290867 1 0.0749981
0.58291 1 0.0757153
0.766415 0.995911 0.150698
0.850004 0.995377 0.174929
0.925002 0.995377 0.174929
1 0.995377 0.174929
0 1.5259e-05 0.242725
0.0749981 0 0.241718
0.164263 0 0.231403
0.359442 0 0.193683
0.615167 0 0.149996
0.77499 0 0.149996
0.850004 0 0.149996
0.925002 0 0.149996
1 0 0.149996
0 0.0885939 0.23447
0.0749981 0.0887312 0.233967
0.161883 0.0858625 0.227588
0.368521 0.0749981 0.194781
0.630442 0.0749981 0.152453
0.77499 0.0749981 0.149996
0.850004 0.0749981 0.149996
0.925002 0.0749981 0.149996
1 0.0749981 0.149996
0.000762951 0.187945 0.223804
0.0755169 0.190295 0.226703
0.158572 0.191821 0.224018
0.374655 0.172564 0.189624
0.652491 0.150042 0.153384
0.77499 0.149996 0.150271
0.850004 0.149996 0.149996
0.925002 0.149996 0.149996
1 0.149996 0.149996
0 0.328267 0.172564
0.0749981 0.340291 0.175692
0.149996 0.353277 0.179248
0.341604 0.339574 0.187091
0.636896 0.31635 0.154208
0.77499 0.303899 0.150072
0.850004 0.297642 0.149996
0.925002 0.301289 0.149996
1 0.316701 0.149996
0 0.54081 0.149996
0.0749981 0.560327 0.149996
0.149996 0.579644 0.149996
0.284474 0.571008 0.149996
0.583841 0.541085 0.170901
0.77499 0.544182 0.163836
0.850004 0.540764 0.162997
0.925002 0.546151 0.164401
1 0.558511 0.167926
0 0.757137 0.149996
0.0749981 0.768978 0.149996
0.149996 0.77438 0.149996
0.256352 0.77499 0.149996
0.574533 0.720088 0.166644
0.774502 0.728542 0.202029
0.850004 0.724819 0.210773
0.925002 0.725826 0.211627
1 0.72987 0.21471
0.00561532 0.850004 0.154299
0.0806134 0.850004 0.154299
0.155612 0.850004 0.154299
0.274159 0.850004 0.149996
0.577066 0.850004 0.149996
0.768887 0.845777 0.229603
0.850004 0.84538 0.249928
0.925002 0.84538 0.249928
1 0.84538 0.249928
0.00561532 0.925002 0.154299
0.0806134 0.925002 0.154299
0.155581 0.925002 0.154345
0.278553 0.925002 0.149996
0.576333 0.925002 0.149996
0.768185 0.920851 0.226398
0.850004 0.920378 0.249928
0.925002 0.920378 0.249928
1 0.920378 0.249928
0.00561532 1 0.154299
0.0804913 1 0.154559
0.155535 1 0.154437
0.291691 1 0.149996
0.583124 1 0.150652
0.766323 0.995911 0.225528
0.850004 0.995377 0.249928
0.925002 0.995377 0.249928
1 0.995377 0.249928
0 0 0.461143
0.0749981 0 0.459556
0.152148 0 0.446571
0.34435 0 0.388418
0.605097 0 0.310658
0.77499 0 0.265934
0.850004 0 0.248341
0.925002 0 0.24062
1 0 0.236072
0 0.0782483 0.452964
0.0749981 0.0785229 0.452659
0.153414 0.076524 0.445212
0.355154 0.0749981 0.394827
0.62269 0.0749981 0.322621
0.77499 0.0749981 0.278599
0.850004 0.0749981 0.26305
0.925002 0.0749981 0.259861
1 0.0749981 0.26067
0 0.181109 0.427817
0.0749981 0.183551 0.4336
0.152178 0.185199 0.43473
0.367575 0.166155 0.39556
0.649622 0.149996 0.339879
0.77499 0.149996 0.303868
0.850004 0.149996 0.289265
0.925002 0.149996 0.289555
1 0.149996 0.301671
0 0.314626 0.391043
0.0749981 0.32604 0.406729
0.149996 0.338628 0.421729
0.337819 0.341573 0.358694
0.647761 0.31429 0.325582
0.77499 0.301381 0.307225
0.850004 0.294377 0.295918
0.925002 0.29868 0.295888
1 0.314519 0.309026
0 0.53991 0.29662
0.0749981 0.558312 0.312001
0.149996 0.576364 0.329763
0.272694 0.578393 0.287541
0.583001 0.54548 0.321859
0.77499 0.545876 0.286656
0.850004 0.542138 0.280461
0.925002 0.547341 0.281971
1 0.559304 0.292042
0 0.759884 0.245014
0.0749981 0.771237 0.258839
0.149996 0.774823 0.275288
0.249668 0.77499 0.257374
0.569436 0.721355 0.304173
0.77438 0.72871 0.305699
0.850004 0.725124 0.299321
0.925002 0.725734 0.298024
1 0.729305 0.300496
0 0.850004 0.264118
0.0749981 0.850004 0.27129
0.149996 0.850004 0.281147
0.249012 0.850004 0.246357
0.568551 0.850004 0.260395
0.766064 0.847486 0.313161
0.850004 0.846677 0.325597
0.925002 0.846433 0.325795
1 0.846311 0.325948
0 0.925002 0.269276
0.0749981 0.925002 0.279103
0.149996 0.925002 0.283421
0.252598 0.925002 0.242481
0.566049 0.925002 0.236942
0.767605 0.923095 0.2981
0.850004 0.92108 0.325887
0.925002 0.920836 0.325765
1 0.920729 0.325734
0 1 0.291432
0.0749981 1 0.302495
0.149996 1 0.299245
0.262455 1 0.248402
0.570871 1 0.238437
0.765347 0.99794 0.295949
0.850004 0.995819 0.325887
0.925002 0.995605 0.325536
1 0.995514 0.325338
0 0 0.696925
0.0749981 0 0.696345
0.149996 0 0.69192
0.322499 0 0.649866
0.585718 0 0.574365
0.77499 0 0.510918
0.850004 0 0.475608
0.925002 0 0.46331
1 0 0.457465
0 0.0749981 0.69514
0.0749981 0.0749981 0.695186
0.150011 0.0749981 0.692912
0.334768 0.0749981 0.659342
0.606088 0.0749981 0.592309
0.77499 0.0749981 0.534936
0.850004 0.0749981 0.513191
0.925002 0.0749981 0.516121
1 0.0749981 0.524819
0 0.16878 0.684215
0.0749981 0.171695 0.690501
0.149996 0.173846 0.695247
0.353857 0.155428 0.667887
0.638972 0.149996 0.620722
0.77499 0.149996 0.584421
0.850004 0.149996 0.57229
0.925002 0.149996 0.577798
1 0.149996 0.596384
0 0.306538 0.640574
0.0749981 0.318563 0.657038
0.149996 0.33193 0.671397
0.331685 0.332128 0.647211
0.64239 0.305226 0.619043
0.77499 0.293065 0.600153
0.850004 0.286641 0.588922
0.925002 0.290913 0.594858
1 0.305974 0.615259
0 0.518364 0.61944
0.0749981 0.536049 0.637736
0.149996 0.553552 0.654902
0.29427 0.557794 0.625879
0.583825 0.546654 0.552651
0.77499 0.536995 0.536767
0.850004 0.53341 0.530251
0.925002 0.538079 0.533547
1 0.548882 0.545495
0 0.743709 0.581415
0.0749981 0.757931 0.60621
0.149996 0.770932 0.630518
0.243442 0.770962 0.596994
0.542626 0.746929 0.500526
0.764508 0.723568 0.532647
0.850004 0.720638 0.519936
0.925002 0.720821 0.518791
1 0.723552 0.523857
0 0.850004 0.578454
0.0749981 0.850004 0.599939
0.149996 0.850004 0.619562
0.233265 0.850004 0.574304
0.525658 0.850004 0.473915
0.747677 0.844007 0.538491
0.850004 0.847456 0.51136
0.925002 0.847532 0.504601
1 0.847333 0.501366
0 0.925002 0.602014
0.0749981 0.925002 0.61857
0.149996 0.925002 0.62266
0.234791 0.925002 0.568475
0.52256 0.925002 0.464866
0.747768 0.922911 0.538567
0.850004 0.922347 0.523095
0.925002 0.922728 0.487358
1 0.92282 0.481224
0 1 0.637278
0.0749981 1 0.648157
0.149996 1 0.643076
0.242908 1 0.57612
0.523766 1 0.464591
0.747021 0.99794 0.536233
0.850004 0.997406 0.520409
0.925002 0.997879 0.475837
1 0.997986 0.467964
0 0 0.77499
0.0749981 0 0.77499
0.149996 0 0.77499
0.302205 0 0.77499
0.565667 0 0.77499
0.773541 0 0.75581
0.850004 0 0.729122
0.925002 0 0.724193
1 0 0.723613
0 0.0749981 0.77499
0.0749981 0.0749981 0.77499
0.149996 0.0749981 0.77499
0.31667 0.0749981 0.77499
0.586999 0.0749981 0.77499
0.774441 0.0749981 0.763394
0.850004 0.0749981 0.751095
0.925002 0.0749981 0.754147
1 0.0749981 0.758679
0 0.16289 0.77499
0.0749981 0.166033 0.77499
0.149996 0.16875 0.77499
0.344228 0.152285 0.77499
0.625391 0.149996 0.77499
0.77499 0.149996 0.774121
0.850004 0.149996 0.772427
0.925002 0.149996 0.772854
1 0.149996 0.774624
0 0.301472 0.77499
0.0749981 0.314 0.77499
0.149996 0.328054 0.77499
0.329595 0.326253 0.77499
0.641382 0.299931 0.77499
0.77499 0.288487 0.77499
0.850004 0.28246 0.77499
0.925002 0.286946 0.77499
1 0.30251 0.77499
0 0.514031 0.77499
0.0749981 0.530892 0.77499
0.149996 0.547402 0.77499
0.296483 0.555367 0.77499
0.583139 0.542351 0.774746
0.77499 0.530922 0.774472
0.850004 0.527031 0.771557
0.925002 0.531548 0.774029
1 0.542107 0.772793
0 0.72575 0.77499
0.0795453 0.738735 0.77499
0.165515 0.74995 0.77499
0.278477 0.752621 0.77499
0.552254 0.732158 0.771756
0.764614 0.718685 0.724376
0.850004 0.713512 0.716045
0.925002 0.71339 0.714076
1 0.715801 0.714855
0.0118105 0.850004 0.77499
0.0924239 0.850004 0.77499
0.172442 0.850004 0.77499
0.26186 0.850004 0.77499
0.518776 0.850004 0.756634
0.747799 0.849515 0.70544
0.850004 0.84802 0.707607
0.925002 0.847913 0.703105
1 0.84593 0.699931
0.0162203 0.925002 0.77499
0.0961166 0.925002 0.77499
0.171771 0.925002 0.77499
0.260731 0.925002 0.77499
0.510536 0.925002 0.748257
0.737713 0.92462 0.694453
0.850004 0.922942 0.704341
0.925002 0.922637 0.690394
1 0.922545 0.685664
0.0267643 1 0.77499
0.105425 1 0.77499
0.178195 1 0.77499
0.266621 1 0.77499
0.507897 1 0.744595
0.733242 0.999481 0.68397
0.850004 0.997955 0.704845
0.925002 0.997513 0.68365
1 0.997375 0.674784
0 0 0.850004
0.0749981 0 0.850004
0.149996 0 0.850004
0.293828 0 0.850004
0.555108 0 0.850004
0.759213 0 0.850004
0.850004 0 0.850004
0.925002 0 0.849958
1 0 0.850004
0 0.0749981 0.850004
0.0749981 0.0749981 0.850004
0.149996 0.0749981 0.850004
0.310384 0.0749981 0.850004
0.58143 0.0749981 0.850004
0.773754 0.0749981 0.850004
0.850004 0.0749981 0.850004
0.925002 0.0749981 0.850004
1 0.0749981 0.850004
0 0.158495 0.850004
0.0749981 0.161975 0.850004
0.149996 0.165118 0.850004
0.342016 0.151431 0.850004
0.624537 0.149996 0.850004
0.77499 0.149996 0.850004
0.850004 0.149996 0.850004
0.925002 0.149996 0.850004
1 0.149996 0.850004
0 0.298054 0.850004
0.0749981 0.310903 0.850004
0.149996 0.324849 0.850004
0.330938 0.323003 0.850004
0.641718 0.297047 0.850004
0.77499 0.28603 0.850004
0.850004 0.280461 0.850004
0.925002 0.285084 0.850004
1 0.301381 0.850004
0 0.512718 0.850004
0.0749981 0.528832 0.850004
0.150057 0.545327 0.850004
0.2972 0.553857 0.850004
0.585107 0.540703 0.850004
0.77499 0.529305 0.850004
0.850004 0.525353 0.850004
0.925002 0.529473 0.850004
1 0.539956 0.850004
0.0183566 0.719753 0.850004
0.0979019 0.733349 0.850004
0.177356 0.745968 0.850004
0.285695 0.749081 0.850004
0.557107 0.728862 0.850004
0.765042 0.716579 0.850004
0.850004 0.709972 0.850004
0.925002 0.709407 0.850004
1 0.711421 0.850004
0.0389715 0.850004 0.850004
0.11397 0.850004 0.850004
0.188968 0.850004 0.850004
0.275578 0.850004 0.850004
0.536919 0.850004 0.850004
0.742931 0.849119 0.850004
0.850004 0.849775 0.847669
0.925002 0.849073 0.845914
1 0.845701 0.843565
0.0389715 0.925002 0.850004
0.11397 0.925002 0.850004
0.188968 0.925002 0.850004
0.276356 0.925002 0.850004
0.530831 0.924987 0.850004
0.734066 0.924117 0.849973
0.850004 0.924865 0.843259
0.925002 0.924712 0.838254
1 0.924559 0.833555
0.0389715 1 0.850004
0.11397 1 0.850004
0.188968 1 0.850004
0.276997 1 0.850004
0.527214 1 0.850004
0.725429 0.999344 0.848508
0.850004 0.999649 0.836332
0.925002 0.99942 0.829129
1 0.999237 0.823514
0 0 0.925002
0.0749981 0 0.925002
0.149996 0 0.925002
0.290318 0 0.925002
0.551919 0 0.925002
0.758297 0 0.925002
0.850004 0 0.925002
0.925002 0 0.925002
1 0 0.925002
0 0.0749981 0.925002
0.0749981 0.0749981 0.925002
0.149996 0.0749981 0.925002
0.308965 0.0749981 0.925002
0.582147 0.0749981 0.925002
0.773404 0.0749981 0.925002
0.850004 0.0749981 0.925002
0.925002 0.0749981 0.925002
1 0.0749981 0.925002
0 0.156649 0.925002
0.0749981 0.160266 0.925002
0.149996 0.163714 0.925002
0.3449 0.150164 0.925002
0.628962 0.149996 0.925002
0.77499 0.149996 0.925002
0.850004 0.149996 0.925002
0.925002 0.149996 0.925002
1 0.149996 0.925002
0 0.297749 0.925002
0.0749981 0.311421 0.925002
0.149996 0.325994 0.925002
0.33637 0.323537 0.925002
0.645411 0.297856 0.925002
0.77499 0.286793 0.925002
0.850004 0.281346 0.925002
0.925002 0.286397 0.925002
1 0.304082 0.925002
0 0.51426 0.925002
0.0749981 0.530114 0.925002
0.150057 0.547204 0.925002
0.301793 0.555505 0.925002
0.589685 0.541878 0.925002
0.77499 0.530419 0.925002
0.850004 0.526513 0.925002
0.925002 0.529885 0.925002
1 0.540459 0.925002
0.0188449 0.721492 0.925002
0.098436 0.734936 0.925002
0.177813 0.747143 0.925002
0.289204 0.749752 0.925002
0.559518 0.729274 0.925002
0.765499 0.716594 0.925002
0.850004 0.70959 0.925002
0.925002 0.708644 0.925002
1 0.71046 0.925002
0.0389715 0.850004 0.925002
0.11397 0.850004 0.925002
0.188968 0.850004 0.925002
0.276844 0.850004 0.925002
0.537652 0.850004 0.925002
0.743069 0.849088 0.925002
0.850004 0.850004 0.925002
0.925002 0.847456 0.925002
1 0.844114 0.925002
0.0389715 0.925002 0.925002
0.11397 0.925002 0.925002
0.188968 0.925002 0.925002
0.275975 0.925002 0.925002
0.529763 0.924987 0.925002
0.733913 0.923827 0.925002
0.850004 0.925002 0.925002
0.925002 0.925002 0.925002
1 0.925002 0.925002
0.0389715 1 0.925002
0.11397 1 0.925002
0.188968 1 0.925002
0.27602 1 0.925002
0.525277 1 0.925002
0.725856 0.998611 0.925002
0.850004 1 0.925002
0.925002 1 0.925002
1 1 0.924819
0 0 1
0.0749981 0 1
0.149996 0 1
0.287907 0 1
0.550011 0 1
0.758007 0 1
0.850004 0 1
0.925002 0 1
1 0 1
0 0.0749981 1
0.0749981 0.0749981 1
0.149996 0.0749981 1
0.308919 0.0749981 1
0.584695 0.0749981 1
0.772854 0.0749981 1
0.850004 0.0749981 1
0.925002 0.0749981 1
1 0.0749981 1
0 0.155352 1
0.0749981 0.159289 1
0.149996 0.16318 1
0.350927 0.149996 1
0.632563 0.149996 1
0.77499 0.149996 1
0.850004 0.149996 1
0.925002 0.149996 1
1 0.149996 1
0 0.298817 1
0.0749981 0.312871 1
0.149996 0.328862 1
0.34345 0.326284 1
0.651118 0.300649 1
0.77499 0.289509 1
0.850004 0.285039 1
0.925002 0.291279 1
1 0.31136 1
0 0.516579 1
0.0749981 0.532403 1
0.149996 0.550668 1
0.307652 0.559121 1
0.595514 0.54464 1
0.77499 0.53312 1
0.850004 0.529503 1
0.925002 0.533181 1
1 0.544244 1
0.0196078 0.72372 1
0.0992447 0.737331 1
0.178698 0.749538 1
0.293446 0.751873 1
0.56289 0.730526 1
0.765896 0.717372 1
0.850004 0.710048 1
0.925002 0.708949 1
1 0.710948 1
0.0389715 0.850004 1
0.11397 0.850004 1
0.188968 0.850004 1
0.27892 0.850004 1
0.5393 0.850004 1
0.743633 0.849104 1
0.850004 0.849897 1
0.925002 0.845991 1
1 0.842969 1
0.0389715 0.925002 1
0.11397 0.925002 1
0.188968 0.925002 1
0.276127 0.925002 1
0.529809 0.924987 1
0.733455 0.923812 1
0.850004 0.925002 1
0.925002 0.925002 1
1 0.925002 1
0.0389715 1 1
0.11397 1 1
0.188968 1 1
0.275975 1 1
0.524727 1 1
0.725155 0.998596 1
0.850004 1 1
0.925002 1 1
1 1 1
