datas/cubes/TC - INTREPID_20..cube
TITLE "Generate by Resolve"
LUT_3D_SIZE 5
0.00366217 0.00872816 0.0140536
0.231617 0.00495918 0.00874342
0.575341 0 0
0.8 0 0
1 0 0
0 0.225513 0.00613413
0.218784 0.225193 0.00350958
0.569711 0.200351 0
0.8 0.199985 0
1 0.199985 0
0 0.513802 0
0.199985 0.534417 0
0.527382 0.531456 0
0.8 0.527703 0
1 0.539879 0
0 0.8 0
0.199985 0.8 0
0.469963 0.8 0
0.8 0.8 0
1 0.8 0
0 1 0
0.199985 1 0
0.473518 1 0
0.8 1 0
1 1 0
0.00357061 0.00663767 0.243992
0.227131 0.00395209 0.24094
0.56405 0 0.199985
0.8 0 0.199985
1 0 0.199985
0 0.22533 0.223545
0.218433 0.224735 0.233387
0.559518 0.202609 0.203281
0.8 0.199985 0.199985
1 0.199985 0.199985
0 0.520424 0.199985
0.199985 0.540169 0.200977
0.533394 0.537438 0.202029
0.8 0.533547 0.199985
1 0.545251 0.199985
0 0.8 0.199985
0.199985 0.8 0.199985
0.473243 0.8 0.199985
0.8 0.8 0.199985
1 0.8 0.199985
0 1 0.199985
0.199985 1 0.199985
0.471901 1 0.199985
0.8 1 0.199985
1 1 0.199985
0 0 0.6
0.216159 0 0.6
0.556191 0 0.55552
0.8 0 0.541176
1 0 0.532525
0 0.210834 0.6
0.211353 0.212848 0.589654
0.556466 0.2 0.555261
0.8 0.199985 0.568856
1 0.199985 0.579919
0 0.521874 0.501289
0.199985 0.541436 0.520363
0.533028 0.533684 0.541741
0.8 0.534401 0.537667
1 0.543008 0.546197
0 0.8 0.500877
0.199985 0.8 0.520943
0.518944 0.8 0.531182
0.79939 0.799573 0.498726
1 0.79881 0.490562
0 1 0.529305
0.199985 1 0.533349
0.511025 1 0.523369
0.797223 1 0.458961
1 1 0.426841
0 0 0.8
0.208896 0 0.8
0.56202 0 0.8
0.8 0 0.8
1 0 0.8
0 0.205188 0.8
0.204944 0.206668 0.8
0.576867 0.199985 0.8
0.8 0.199985 0.8
1 0.199985 0.8
0 0.523903 0.8
0.199985 0.543679 0.8
0.533715 0.533242 0.798138
0.8 0.53312 0.8
1 0.540719 0.8
0 0.8 0.8
0.199985 0.8 0.8
0.501656 0.8 0.8
0.797772 0.793988 0.794827
1 0.791547 0.792538
0 1 0.8
0.199985 1 0.8
0.48539 1 0.8
0.78793 1 0.78526
0.999664 1 0.781308
0 0 1
0.206989 0 1
0.558328 0 1
0.8 0 1
1 0 1
0 0.2047 1
0.205417 0.207431 1
0.579217 0.199985 1
0.8 0.199985 1
1 0.199985 1
0 0.527626 1
0.199985 0.548516 1
0.537133 0.537026 0.998016
0.8 0.535882 1
1 0.542916 1
0 0.8 1
0.199985 0.8 1
0.498894 0.8 1
0.797086 0.793256 1
1 0.790433 1
0 1 1
0.199985 1 1
0.471534 1 1
0.785687 1 0.999283
1 1 1
