datas/cubes/TC - RESOLUTE_40.cube
TITLE "Generate by Resolve"
LUT_3D_SIZE 9
0 1.5259e-05 0.00077821
0.0751507 0 0.00257877
0.182193 4.57771e-05 0.000961318
0.336187 0 0
0.533959 0 0
0.690867 0 0
0.806027 0 0
0.893507 0 0
0.968505 0 0
0.000350958 0.0839094 0.00106813
0.0755627 0.08365 0.00114443
0.186923 0.0792401 0.00112917
0.354314 0.0749981 0
0.556222 0.0749981 0
0.705272 0.0749981 0
0.816709 0.0749981 0
0.893874 0.0749981 0
0.970153 0.0749981 0
0 0.194965 0
0.0749981 0.196963 0
0.18201 0.190997 0.000350958
0.377264 0.173068 0
0.588129 0.155535 0
0.73196 0.158602 0
0.840681 0.170993 0
0.920928 0.184009 0.000900282
0.998474 0.197894 0.00495918
0 0.347601 0
0.0749981 0.357031 0
0.154406 0.355016 0
0.358343 0.343648 0
0.60827 0.335119 0.000946059
0.772457 0.345434 0.0176852
0.850004 0.355505 0.0230411
0.925002 0.371527 0.0242466
1 0.388815 0.0253147
0 0.557885 0
0.0749981 0.570352 0
0.150317 0.566964 0
0.325383 0.566934 3.0518e-05
0.587396 0.542184 0.000350958
0.759594 0.554604 0.0177462
0.850004 0.569085 0.0277562
0.925002 0.581521 0.0271153
1 0.594553 0.0260471
0.0155489 0.754513 0.0149691
0.0949721 0.762158 0.019379
0.169726 0.75935 0.0179141
0.331945 0.759533 0.0232395
0.597086 0.726619 0.00817884
0.751583 0.719768 0.0141146
0.850004 0.726452 0.019791
0.925002 0.7337 0.0214542
1 0.738705 0.0213321
0.0413977 0.850004 0.0406958
0.116426 0.850004 0.0407263
0.195911 0.850004 0.0411994
0.359991 0.850004 0.0396277
0.60119 0.849317 0.0171511
0.754513 0.839979 0.0158541
0.849897 0.83946 0.0186923
0.925002 0.841794 0.0200504
1 0.84361 0.0204166
0.0414435 0.925002 0.0407416
0.116442 0.925002 0.0407416
0.209644 0.925002 0.0425879
0.378851 0.925002 0.0378424
0.59971 0.925002 0.0178836
0.751125 0.925002 0.0151369
0.849836 0.925002 0.0175631
0.925002 0.925002 0.0188296
1 0.925002 0.0191501
0.0414435 1 0.0407416
0.116442 1 0.0407416
0.219684 1 0.043473
0.395331 1 0.035584
0.607385 1 0.0170291
0.750668 1 0.0151064
0.849271 1 0.0174105
0.925002 1 0.018677
1 1 0.0189822
0 0.000106813 0.0807965
0.0750286 4.57771e-05 0.0888838
0.182284 4.57771e-05 0.0906539
0.337072 0 0.0770581
0.535821 0 0.0749981
0.692103 0 0.0749981
0.807355 0 0.0749981
0.893706 0 0.0749981
0.968917 0 0.0749981
0 0.0865339 0.0890211
0.0750134 0.0877089 0.0836042
0.185748 0.0799573 0.0919661
0.354635 0.0749981 0.0779736
0.558053 0.0749981 0.0749981
0.706737 0.0749981 0.0749981
0.817945 0.0749981 0.0749981
0.894789 0.0749981 0.0749981
0.971267 0.0749981 0.0749981
0.00062562 0.195804 0.079057
0.0755169 0.197894 0.0794995
0.182223 0.192935 0.0852064
0.373602 0.176287 0.0757153
0.579721 0.159823 0.0749981
0.729931 0.163775 0.0751812
0.8439 0.177966 0.0798962
0.923629 0.19234 0.090013
0.999512 0.206851 0.101366
0 0.350607 0.0749981
0.0749981 0.360327 0.0749981
0.15491 0.358968 0.0749981
0.363607 0.349493 0.0787671
0.614038 0.339178 0.076585
0.772335 0.350561 0.0931563
0.850004 0.362707 0.0991684
0.925002 0.379812 0.100725
1 0.397269 0.104082
0 0.56231 0.0749981
0.0749981 0.574319 0.0749981
0.150469 0.571466 0.0749981
0.330343 0.571756 0.0750439
0.592248 0.548196 0.0797589
0.763226 0.559716 0.0938125
0.850004 0.572717 0.102541
0.925002 0.585107 0.101869
1 0.597269 0.100801
0.0171969 0.757885 0.0916152
0.0962692 0.763867 0.0956741
0.171878 0.76199 0.0943008
0.337072 0.761501 0.098909
0.599786 0.729397 0.0838788
0.7523 0.722316 0.0923476
0.850004 0.728496 0.0957504
0.925002 0.735256 0.0965591
1 0.739773 0.0964675
0.0414435 0.850004 0.115724
0.116442 0.850004 0.11574
0.196918 0.850004 0.116243
0.361212 0.850004 0.114519
0.599207 0.849653 0.0924392
0.753628 0.841108 0.0909285
0.84979 0.840146 0.0946059
0.925002 0.842191 0.0961013
1 0.843748 0.0963607
0.0414435 0.925002 0.115785
0.116457 0.925002 0.116136
0.209522 0.925002 0.117601
0.376593 0.925002 0.11313
0.595071 0.925002 0.0934005
0.748318 0.925002 0.0899519
0.849302 0.925002 0.0923934
0.925002 0.925002 0.0937667
1 0.925002 0.0941482
0.0416114 1 0.119127
0.116533 1 0.117998
0.218402 1 0.118379
0.390661 1 0.111238
0.60145 1 0.0926528
0.747265 1 0.0898756
0.848417 1 0.092195
0.925002 1 0.0935073
1 1 0.0938277
0 0.00347906 0.171725
0.0749981 0.00163272 0.184176
0.174289 0 0.211948
0.334997 0 0.186252
0.534356 0 0.157717
0.691966 0 0.150439
0.808026 0 0.150652
0.89485 0 0.152453
0.970016 0 0.155856
0 0.0948043 0.174487
0.0749981 0.0973983 0.168704
0.175143 0.081178 0.21265
0.35404 0.0749981 0.19118
0.557961 0.0749981 0.164492
0.707622 0.0749981 0.157229
0.819226 0.0749981 0.161913
0.896178 0.0749981 0.168902
0.972732 0.0749981 0.178408
0 0.203006 0.160861
0.0749981 0.205737 0.159197
0.171649 0.198489 0.181903
0.359747 0.18146 0.193713
0.574243 0.164401 0.176486
0.731395 0.168734 0.180911
0.847745 0.184131 0.196811
0.924636 0.198688 0.212482
0.999771 0.213321 0.228351
0 0.354208 0.149996
0.0749981 0.364889 0.149996
0.157244 0.363363 0.161578
0.361883 0.357641 0.190707
0.610422 0.345342 0.180468
0.766537 0.357626 0.197192
0.850004 0.376471 0.2121
0.925002 0.395087 0.221592
1 0.41297 0.22977
0 0.565057 0.150011
0.0749981 0.5776 0.152026
0.150744 0.574563 0.153429
0.327764 0.576379 0.16434
0.592355 0.556191 0.19144
0.765957 0.562982 0.183932
0.850004 0.574319 0.186557
0.925002 0.586999 0.188724
1 0.599222 0.192279
0.0188449 0.759243 0.179202
0.0982376 0.764858 0.186892
0.17377 0.763424 0.184131
0.335821 0.762387 0.184283
0.595132 0.732616 0.171679
0.749279 0.724926 0.200015
0.849653 0.73019 0.198734
0.925002 0.736278 0.196033
1 0.74049 0.198642
0.0426947 0.850004 0.207706
0.118013 0.850004 0.210391
0.197742 0.850004 0.208713
0.356283 0.850004 0.199786
0.590311 0.849699 0.171389
0.748653 0.842084 0.181903
0.8486 0.840436 0.19794
0.925002 0.842054 0.202472
1 0.843412 0.204578
0.0445563 0.925002 0.220264
0.119554 0.925002 0.220386
0.208072 0.925002 0.218677
0.366644 0.925002 0.202976
0.583368 0.925002 0.173236
0.741619 0.925002 0.166979
0.846326 0.925002 0.181415
0.925002 0.925002 0.191745
1 0.925002 0.194369
0.0461738 1 0.227817
0.12076 1 0.226307
0.215747 1 0.2262
0.377386 1 0.206134
0.58793 1 0.173312
0.73933 1 0.16585
0.844099 1 0.173297
0.925002 1 0.184833
1 1 0.188022
0 0.0112154 0.275761
0.0749981 0.00660716 0.298024
0.151659 0 0.380621
0.32459 0 0.363867
0.528374 0 0.317479
0.688975 0 0.293309
0.806653 0 0.292241
0.894621 0 0.300633
0.969329 0 0.31313
0 0.108248 0.258869
0.0749981 0.108736 0.269947
0.151888 0.0893721 0.361822
0.344213 0.0749981 0.378012
0.553384 0.0749981 0.33846
0.704845 0.0749981 0.326696
0.817639 0.0749981 0.333745
0.894438 0.0749981 0.346975
0.970733 0.0749981 0.363317
0 0.215747 0.264012
0.0749981 0.223255 0.244755
0.15021 0.220584 0.249393
0.349264 0.179507 0.379767
0.572503 0.162631 0.354833
0.731212 0.168475 0.358923
0.847898 0.184649 0.379934
0.924681 0.198718 0.401663
0.999786 0.213474 0.42359
0 0.371252 0.225772
0.0749981 0.382986 0.225513
0.152209 0.379812 0.235828
0.343481 0.365911 0.350317
0.58761 0.352636 0.36492
0.754955 0.362799 0.37612
0.850004 0.38378 0.396826
0.925002 0.40209 0.413642
1 0.419593 0.429709
4.57771e-05 0.572 0.225284
0.0755779 0.585 0.225895
0.155596 0.581704 0.230915
0.322911 0.580468 0.328435
0.58613 0.560433 0.352987
0.763241 0.56614 0.337972
0.850004 0.579492 0.350759
0.925002 0.592294 0.364782
1 0.602686 0.375021
0.031693 0.762829 0.281041
0.11165 0.767483 0.284489
0.186236 0.765591 0.285084
0.330999 0.763378 0.337758
0.57612 0.737377 0.313497
0.74023 0.723766 0.360037
0.846555 0.728359 0.3514
0.925002 0.734051 0.344335
1 0.737774 0.349569
0.0530709 0.850004 0.31191
0.129091 0.850004 0.311391
0.206134 0.850004 0.315938
0.345754 0.850004 0.353063
0.563394 0.849775 0.314549
0.735958 0.842496 0.309895
0.839521 0.837552 0.35108
0.924697 0.838117 0.365286
1 0.839109 0.370108
0.0575723 0.925002 0.307942
0.132616 0.925002 0.307774
0.213321 0.925002 0.323156
0.351308 0.925002 0.361685
0.552666 0.925002 0.317739
0.725628 0.925002 0.291341
0.835401 0.925002 0.307805
0.923888 0.924971 0.335378
1 0.924956 0.346166
0.0610056 1 0.302876
0.135164 1 0.304158
0.220157 1 0.33193
0.35906 1 0.370153
0.554742 1 0.320912
0.721492 1 0.289326
0.831434 1 0.290898
0.922637 1 0.311559
1 1 0.324117
0 0.0184787 0.402197
0.0749981 0.0128176 0.43769
0.149996 0.000198367 0.528206
0.274525 0 0.586954
0.5187 0 0.525856
0.682567 0 0.499306
0.801923 0 0.498054
0.89134 0 0.507164
0.966079 0 0.520775
0 0.121096 0.364828
0.0749981 0.119585 0.395712
0.149996 0.0988022 0.506462
0.28864 0.0753033 0.594858
0.547326 0.0749981 0.545541
0.700511 0.0749981 0.534325
0.814435 0.0749981 0.541238
0.891539 0.0749981 0.551995
0.968215 0.0749981 0.565393
0 0.241093 0.329244
0.0749981 0.250507 0.315755
0.149996 0.24506 0.349111
0.280049 0.194858 0.578866
0.570275 0.159991 0.563531
0.729885 0.166079 0.567468
0.847608 0.183062 0.587198
0.92462 0.197345 0.605386
0.999786 0.212665 0.622599
0 0.393317 0.340368
0.0749981 0.408927 0.326116
0.149996 0.410163 0.306783
0.25034 0.405875 0.420996
0.58558 0.350805 0.577035
0.754345 0.361181 0.585916
0.850004 0.382406 0.605295
0.925002 0.401373 0.620188
1 0.419059 0.632319
0 0.592035 0.300999
0.0751202 0.604883 0.302556
0.150469 0.601526 0.308461
0.307469 0.595209 0.418524
0.56965 0.563073 0.556634
0.74287 0.566094 0.56527
0.84921 0.580468 0.581323
0.925002 0.594324 0.595575
1 0.603601 0.604456
0.0442359 0.767849 0.334051
0.122621 0.771695 0.33753
0.197345 0.76997 0.337652
0.350881 0.762829 0.426734
0.551781 0.735134 0.537652
0.72723 0.720012 0.552697
0.837751 0.72311 0.545373
0.924834 0.72781 0.545892
1 0.731182 0.552834
0.0703288 0.850004 0.35903
0.145846 0.850004 0.358175
0.222644 0.850004 0.361532
0.356313 0.850004 0.465614
0.536706 0.849348 0.540413
0.712642 0.83888 0.512032
0.824765 0.832105 0.5402
0.914443 0.831464 0.562539
0.996643 0.832242 0.568032
0.0700542 0.925002 0.35642
0.145312 0.925002 0.356222
0.226871 0.925002 0.363821
0.360525 0.925002 0.467658
0.525963 0.925002 0.54406
0.69752 0.925002 0.507378
0.81651 0.924804 0.498375
0.910216 0.923964 0.520134
0.993179 0.923522 0.53872
0.0682231 1 0.355688
0.143908 1 0.355673
0.231891 1 0.368277
0.367697 1 0.47216
0.525856 1 0.545739
0.690654 1 0.504799
0.809949 1 0.486336
0.905653 1 0.490593
0.990127 1 0.502861
0 0.0242771 0.539574
0.0749981 0.018677 0.576867
0.149996 0.00282292 0.658656
0.231983 0 0.723369
0.494087 0 0.696956
0.679667 0 0.671489
0.800458 0 0.673335
0.890852 0 0.679881
0.966125 0 0.687251
0 0.132784 0.489967
0.0749981 0.130282 0.532815
0.149996 0.10869 0.641169
0.238422 0.0797589 0.725536
0.531167 0.0749981 0.702495
0.700984 0.0749981 0.690181
0.815534 0.0749981 0.696757
0.892775 0.0749981 0.702434
0.969955 0.0749981 0.70988
0 0.268879 0.404028
0.0749981 0.278614 0.402213
0.149996 0.267918 0.474144
0.232319 0.219409 0.687968
0.554604 0.164263 0.72192
0.733516 0.167987 0.720821
0.8486 0.185321 0.736706
0.924743 0.200671 0.749187
0.999878 0.216251 0.761105
0 0.423865 0.440955
0.0749981 0.442817 0.413184
0.149996 0.447395 0.381506
0.225116 0.439567 0.467353
0.544625 0.366094 0.738201
0.758633 0.363516 0.744366
0.850004 0.38497 0.759197
0.925002 0.405066 0.766766
1 0.422858 0.771725
0 0.610971 0.431891
0.0749981 0.624125 0.430945
0.149996 0.621881 0.4224
0.253437 0.621714 0.507347
0.481956 0.596445 0.664958
0.741436 0.566461 0.729213
0.848249 0.580072 0.739361
0.925002 0.594003 0.746181
1 0.603082 0.749203
0.0159609 0.773404 0.428168
0.0932631 0.774975 0.431617
0.168856 0.774121 0.431083
0.316136 0.772503 0.513542
0.537881 0.741909 0.637324
0.714 0.7196 0.710796
0.824079 0.720638 0.717968
0.914961 0.725429 0.723812
0.995483 0.729046 0.727977
0.0531167 0.850004 0.435462
0.127337 0.850004 0.435966
0.205447 0.850004 0.436759
0.354986 0.850004 0.495262
0.550637 0.848966 0.615
0.696208 0.834134 0.703029
0.810101 0.828885 0.706508
0.90399 0.828061 0.715679
0.988174 0.828641 0.719402
0.0475013 0.925002 0.439033
0.122942 0.925002 0.438743
0.20528 0.925002 0.440345
0.356786 0.925002 0.495003
0.543084 0.925002 0.609125
0.682109 0.92491 0.699916
0.797284 0.923171 0.698833
0.894301 0.921538 0.697429
0.981643 0.920546 0.701839
0.0426947 1 0.442161
0.119326 1 0.441062
0.207218 1 0.445533
0.359701 1 0.499718
0.54049 1 0.605829
0.674022 1 0.696101
0.788571 1 0.693797
0.886503 1 0.689494
0.974884 0.999863 0.689326
0 0.029221 0.658473
0.0749981 0.0239261 0.696529
0.149996 0.00793469 0.764508
0.224994 0 0.819669
0.45359 0 0.816922
0.679088 0 0.789166
0.803281 0 0.791348
0.893141 0 0.796811
0.968566 0 0.802014
0 0.143206 0.605341
0.0749981 0.140627 0.650217
0.149996 0.118425 0.750027
0.226963 0.0879683 0.821027
0.499809 0.0749981 0.815305
0.703166 0.0749981 0.80238
0.818555 0.0749981 0.808209
0.895567 0.0749981 0.812787
0.972976 0.0751659 0.818799
0 0.29131 0.489555
0.0749981 0.300755 0.497322
0.149996 0.286793 0.591302
0.225879 0.23975 0.775525
0.520226 0.179629 0.836912
0.739483 0.174182 0.834195
0.849561 0.190997 0.84651
0.924895 0.206668 0.849668
1 0.222293 0.849958
0 0.452903 0.514366
0.0749981 0.471015 0.487907
0.149996 0.474693 0.464836
0.224994 0.46392 0.539681
0.482719 0.393729 0.841764
0.763149 0.370718 0.849622
0.850004 0.391714 0.850004
0.925002 0.41181 0.850004
1 0.429084 0.850004
0 0.625788 0.56936
0.0749981 0.639673 0.557214
0.149996 0.640787 0.521828
0.236133 0.64303 0.550057
0.411719 0.627543 0.740688
0.734539 0.573037 0.841917
0.848493 0.583398 0.847105
0.925002 0.596536 0.849393
1 0.604929 0.849378
0.000717174 0.774731 0.53756
0.0769665 0.77499 0.537942
0.152087 0.77499 0.536126
0.284916 0.774472 0.642557
0.478462 0.761257 0.745449
0.670268 0.735988 0.791302
0.816358 0.722423 0.830091
0.912016 0.725429 0.834104
0.993057 0.72871 0.836484
0.0291295 0.850004 0.527214
0.103578 0.850004 0.527596
0.181643 0.850004 0.528206
0.315084 0.850004 0.601678
0.504829 0.849989 0.708476
0.684001 0.839796 0.777234
0.80238 0.830304 0.807431
0.896864 0.828443 0.822339
0.983124 0.828305 0.827085
0.0264744 0.925002 0.52987
0.102098 0.925002 0.52929
0.181994 0.925002 0.531029
0.31722 0.925002 0.594644
0.510781 0.925002 0.680919
0.685679 0.924987 0.755779
0.797498 0.922515 0.798184
0.888655 0.920546 0.816205
0.974975 0.920043 0.82034
0.0261234 1 0.530205
0.101411 1 0.529931
0.184344 1 0.535637
0.318318 1 0.600473
0.5066 1 0.677119
0.67895 1 0.746044
0.789654 1 0.791821
0.881086 1 0.811231
0.96788 0.999847 0.815763
0 0.0334478 0.761242
0.0749981 0.0286564 0.797833
0.149996 0.0131838 0.856519
0.224994 0.000167849 0.905119
0.421515 0 0.901198
0.676951 0 0.884871
0.806775 0 0.88986
0.89482 0 0.89337
0.96997 0 0.895171
0 0.152483 0.703975
0.0749981 0.149844 0.750256
0.149996 0.127184 0.842145
0.224994 0.095491 0.905196
0.473899 0.0749981 0.895155
0.703258 0.0749981 0.888136
0.820279 0.0749981 0.896086
0.896773 0.0749981 0.897475
0.974578 0.0756085 0.900252
0 0.308492 0.575784
0.0749981 0.31751 0.589837
0.149996 0.302449 0.692439
0.225025 0.256123 0.860151
0.494667 0.193027 0.918837
0.743069 0.180591 0.921584
0.849805 0.196796 0.924834
0.924971 0.212192 0.924987
1 0.227756 0.925002
0 0.47422 0.589014
0.0749981 0.490776 0.56527
0.149996 0.493919 0.548501
0.224994 0.481498 0.627573
0.444892 0.415824 0.921706
0.762417 0.379553 0.925002
0.850004 0.399344 0.925002
0.925002 0.418616 0.925002
1 0.434577 0.925002
0 0.639765 0.676081
0.0749981 0.653452 0.656031
0.149996 0.656748 0.608728
0.231662 0.65832 0.613886
0.381201 0.646571 0.819043
0.713985 0.585168 0.924697
0.847135 0.588251 0.925002
0.924987 0.599588 0.925002
1 0.607217 0.925002
0.00047303 0.77499 0.625269
0.0753796 0.77499 0.622141
0.150317 0.77499 0.624903
0.273823 0.77499 0.739208
0.447074 0.772702 0.813733
0.628397 0.75259 0.863523
0.792569 0.731212 0.91812
0.904356 0.728084 0.92459
0.987869 0.730068 0.924926
0.025742 0.850004 0.605493
0.100099 0.850004 0.605783
0.176257 0.850004 0.608377
0.302235 0.850004 0.696773
0.468177 0.850004 0.815274
0.650172 0.847822 0.869566
0.780331 0.838468 0.883619
0.878126 0.835538 0.897063
0.968154 0.83299 0.913085
0.0258793 0.925002 0.605432
0.100862 0.925002 0.605432
0.179416 0.925002 0.608789
0.306294 0.925002 0.682994
0.477134 0.925002 0.781155
0.656748 0.925002 0.845563
0.783932 0.924743 0.874907
0.882521 0.923278 0.890532
0.971206 0.922057 0.900542
0.0258793 1 0.605432
0.100862 1 0.605432
0.182544 1 0.611856
0.308125 1 0.686244
0.472587 1 0.776699
0.650019 1 0.834119
0.780056 1 0.863157
0.879835 1 0.881117
0.968627 1 0.893446
0 0.037705 0.857221
0.0749981 0.0335393 0.891432
0.149996 0.018143 0.943389
0.224994 0.000717174 0.984878
0.398123 0 0.979248
0.673991 0 0.96054
0.808789 0 0.968521
0.895018 0 0.970733
0.970016 0 0.970733
0 0.161822 0.796887
0.0749981 0.15906 0.8439
0.149996 0.136233 0.927962
0.224994 0.102876 0.984588
0.452583 0.0750896 0.973541
0.70222 0.0749981 0.96318
0.820829 0.0749981 0.971557
0.897414 0.0749981 0.973114
0.976135 0.0760815 0.976806
0 0.324392 0.661616
0.0749981 0.33164 0.679042
0.149996 0.315663 0.784817
0.224994 0.269535 0.941238
0.479698 0.204395 0.997421
0.745357 0.186358 0.998581
0.849867 0.201907 0.999893
0.924987 0.217502 1
1 0.232639 1
0 0.492363 0.665843
0.0749981 0.50605 0.643885
0.149996 0.508186 0.631403
0.224994 0.494713 0.717601
0.423743 0.4318 0.997147
0.759777 0.387762 1
0.850004 0.405753 1
0.925002 0.424384 1
1 0.439323 1
0 0.653284 0.764965
0.0749981 0.665354 0.739879
0.149996 0.668986 0.690455
0.230121 0.669566 0.687144
0.366522 0.65922 0.897246
0.693263 0.596429 0.999893
0.844022 0.593027 1
0.924849 0.602579 1
1 0.609461 1
0.00109865 0.77499 0.697414
0.0758526 0.77499 0.695033
0.150729 0.77499 0.698787
0.271427 0.77499 0.810285
0.42768 0.77496 0.877501
0.596094 0.765698 0.937926
0.763485 0.742138 0.992416
0.891234 0.73283 0.999939
0.977401 0.733333 1
0.0258488 0.850004 0.680446
0.100252 0.850004 0.68072
0.176547 0.850004 0.683192
0.30277 0.850004 0.770443
0.462028 0.850004 0.885832
0.628351 0.850004 0.940597
0.757748 0.847227 0.951766
0.857298 0.843519 0.967544
0.948135 0.840574 0.981369
0.0258793 0.925002 0.680446
0.100862 0.925002 0.680446
0.179919 0.925002 0.684276
0.306355 0.925002 0.758465
0.473716 0.925002 0.857282
0.646983 0.925002 0.923186
0.773098 0.925002 0.95082
0.871794 0.925002 0.964004
0.95996 0.924956 0.972244
0.0258793 1 0.680446
0.100862 1 0.680446
0.18265 1 0.686961
0.307836 1 0.761059
0.46894 1 0.853468
0.639353 1 0.915358
0.769482 1 0.943938
0.871641 1 0.960067
0.962188 1 0.970764
