datas/cubes/TC - EDITORIAL_20.cube
TITLE "Generate by Resolve"
LUT_3D_SIZE 33
0 0.00144961 0.0053254
0.0249943 0.00122072 0.00511177
0.0502785 0.000885023 0.00480659
0.0761425 0.000549325 0.00447089
0.102937 0.00030518 0.00421149
0.130968 0.000106813 0.00378424
0.159701 4.57771e-05 0.00308232
0.189349 7.62951e-05 0.00213626
0.220295 9.15541e-05 0.000885023
0.252934 4.57771e-05 0.000106813
0.287526 0 0
0.325444 0 0
0.367651 0 0
0.411673 0 0
0.454765 0 0
0.497383 0 0
0.540169 0 0
0.581384 0 0
0.620081 0 0
0.656916 0 0
0.688991 0 0
0.715343 0 0
0.740337 0 0
0.765332 0 0
0.790341 0 0
0.815335 0 0
0.840345 0 0
0.865339 0 0
0.890333 0 0
0.915343 0 0
0.940337 0 0
0.965347 0 0
0.990341 0 0
0 0.0278782 0.00424201
0.0249943 0.0277256 0.00411994
0.0501106 0.0274662 0.00393683
0.0757305 0.0271763 0.00378424
0.102327 0.0269017 0.0037232
0.130388 0.0265507 0.00329595
0.159121 0.0261845 0.00267033
0.188815 0.0257725 0.00181582
0.219821 0.0253605 0.000671397
0.252567 0.0250706 4.57771e-05
0.287205 0.0249943 0
0.3252 0.0249943 0
0.367529 0.0249943 0
0.411749 0.0249943 0
0.454917 0.0249943 0
0.497627 0.0249943 0
0.54052 0.0249943 0
0.58175 0.0249943 0
0.620478 0.0249943 0
0.657206 0.0249943 0
0.689067 0.0249943 0
0.715343 0.0249943 0
0.740337 0.0249943 0
0.765332 0.0249943 0
0.790341 0.0249943 0
0.815335 0.0249943 0
0.840345 0.0249943 0
0.865339 0.0249943 0
0.890333 0.0249943 0
0.915343 0.0249943 0
0.940337 0.0249943 0
0.965347 0.0249943 0
0.990341 0.0249943 0
0 0.0544747 0.00343328
0.0249943 0.0543526 0.00334173
0.0500496 0.054139 0.00321965
0.0755016 0.0538949 0.00311284
0.101717 0.0536202 0.00311284
0.129885 0.0531777 0.00289921
0.158541 0.0527047 0.00227359
0.188205 0.0520485 0.00141909
0.219287 0.0512093 0.000442512
0.252079 0.0504616 0
0.286748 0.0500649 0
0.324773 0.0499886 0
0.367041 0.0499886 0
0.411444 0.0499886 0
0.454795 0.0499886 0
0.497658 0.0499886 0
0.540749 0.0499886 0
0.582132 0.0499886 0
0.620981 0.0499886 0
0.657618 0.0499886 0
0.689174 0.0499886 0
0.715343 0.0499886 0
0.740337 0.0499886 0
0.765332 0.0499886 0
0.790341 0.0499886 0
0.815335 0.0499886 0
0.840345 0.0499886 0
0.865339 0.0499886 0
0.890333 0.0499886 0
0.915343 0.0499886 0
0.940337 0.0499886 0
0.965347 0.0499886 0
0.990341 0.0499886 0
1.5259e-05 0.081239 0.00282292
0.0250095 0.0811322 0.00274662
0.0500496 0.0809491 0.00260929
0.0753338 0.0807355 0.00250248
0.101137 0.0805219 0.00247196
0.129335 0.0800336 0.00236515
0.158083 0.0794842 0.00192264
0.187701 0.0787823 0.00109865
0.218738 0.0777447 0.000289921
0.251621 0.0764935 0
0.286519 0.0753338 0
0.324727 0.0749981 0
0.36733 0.0749828 0
0.412009 0.0749828 0
0.455543 0.0749828 0
0.498604 0.0749828 0
0.541756 0.0749828 0
0.583185 0.0749828 0
0.621881 0.0749828 0
0.658351 0.0749828 0
0.689357 0.0749828 0
0.715343 0.0749828 0
0.740337 0.0749828 0
0.765332 0.0749828 0
0.790341 0.0749828 0
0.815335 0.0749828 0
0.840345 0.0749828 0
0.865339 0.0749828 0
0.890333 0.0749828 0
0.915343 0.0749828 0
0.940337 0.0749828 0
0.965347 0.0749828 0
0.990341 0.0749828 0
4.57771e-05 0.108202 0.00227359
0.0250248 0.108125 0.00221256
0.0500343 0.107973 0.00209049
0.0751507 0.107805 0.00195315
0.100557 0.107652 0.00184634
0.128557 0.107225 0.00148013
0.1579 0.106493 0.00169375
0.187457 0.105837 0.00109865
0.218265 0.104936 0.000259403
0.251164 0.103532 0
0.286168 0.101686 0
0.324727 0.100099 0
0.367803 0.0999924 0
0.412863 0.0999924 0
0.456718 0.0999924 0
0.500237 0.0999924 0
0.543725 0.0999924 0
0.585077 0.0999924 0
0.623652 0.0999924 0
0.659709 0.0999924 0
0.689693 0.0999924 0
0.715343 0.0999924 0
0.740337 0.0999924 0
0.765332 0.0999924 0
0.790341 0.0999924 0
0.815335 0.0999924 0
0.840345 0.0999924 0
0.865339 0.0999924 0
0.890333 0.0999924 0
0.915343 0.0999924 0
0.940337 0.0999924 0
0.965347 0.0999924 0
0.990341 0.0999924 0
3.0518e-05 0.135485 0.00137331
0.0250248 0.135439 0.00132753
0.0500191 0.135348 0.00123598
0.0750439 0.135256 0.00114443
0.10016 0.135195 0.00105287
0.127642 0.134859 0.000793469
0.157275 0.134066 0.000823987
0.187457 0.133211 0.00106813
0.218128 0.132418 0.000564584
0.250736 0.131167 6.10361e-05
0.285847 0.129259 0
0.32462 0.126818 0
0.368399 0.125154 0
0.413962 0.124987 0
0.458228 0.124987 0
0.502312 0.124987 0
0.546242 0.124987 0
0.587472 0.124987 0
0.626108 0.124987 0
0.661418 0.124987 0
0.690028 0.124987 0
0.715343 0.124987 0
0.740337 0.124987 0
0.765332 0.124987 0
0.790341 0.124987 0
0.815335 0.124987 0
0.840345 0.124987 0
0.865339 0.124987 0
0.890333 0.124987 0
0.915343 0.124987 0
0.940337 0.124987 0
0.965347 0.124987 0
0.990341 0.124987 0
3.0518e-05 0.163149 0.000488289
0.0250248 0.163149 0.000457771
0.0500191 0.163134 0.000411994
0.0750134 0.163134 0.000366217
0.100023 0.163149 0.000320439
0.126802 0.162921 0.000213626
0.155734 0.162341 0.000198367
0.186603 0.161364 0.000717174
0.218067 0.160372 0.00108339
0.250477 0.159365 0.000457771
0.285359 0.157717 3.0518e-05
0.324315 0.155138 0
0.368856 0.151873 0
0.415015 0.150317 0
0.459831 0.149996 0
0.50454 0.149996 0
0.548791 0.149996 0
0.589654 0.149996 0
0.628397 0.149996 0
0.662699 0.149996 0
0.690196 0.149996 0
0.715343 0.149996 0
0.740337 0.149996 0
0.765332 0.149996 0
0.790341 0.149996 0
0.815335 0.149996 0
0.840345 0.149996 0
0.865339 0.149996 0
0.890333 0.149996 0
0.915343 0.149996 0
0.940337 0.149996 0
0.965347 0.149996 0
0.990341 0.149996 0
1.5259e-05 0.191348 3.0518e-05
0.0249943 0.191424 3.0518e-05
0.0500038 0.191516 3.0518e-05
0.0749981 0.191608 3.0518e-05
0.100008 0.19173 1.5259e-05
0.125933 0.191684 0
0.153628 0.191379 0
0.184482 0.190539 0.000213626
0.217334 0.189319 0.00109865
0.250462 0.188174 0.00132753
0.284871 0.186908 0.000366217
0.323598 0.184665 0
0.368551 0.18114 0
0.415442 0.177569 0
0.460914 0.175647 0
0.506279 0.175021 0
0.550652 0.17499 0
0.591318 0.17499 0
0.63003 0.17499 0
0.663508 0.17499 0
0.690318 0.17499 0
0.715343 0.17499 0
0.740337 0.17499 0
0.765332 0.17499 0
0.790341 0.17499 0
0.815335 0.17499 0
0.840345 0.17499 0
0.865339 0.17499 0
0.890333 0.17499 0
0.915343 0.17499 0
0.940337 0.17499 0
0.965347 0.17499 0
0.990341 0.17499 0
0 0.220264 0
0.0249943 0.220401 0
0.0499886 0.220615 0
0.0749828 0.220874 0
0.0999924 0.22118 0
0.125231 0.221378 0
0.151431 0.221332 0
0.181155 0.22089 0
0.214908 0.219669 0.000411994
0.249928 0.218143 0.00166323
0.284916 0.216831 0.00158694
0.322545 0.215183 0.000244144
0.367224 0.2121 0
0.414694 0.208316 0
0.4607 0.204517 0
0.50663 0.201953 0
0.551278 0.20087 0
0.592157 0.200214 0
0.630854 0.199985 0
0.664118 0.199985 0
0.690532 0.199985 0
0.71548 0.199985 0
0.740459 0.199985 0
0.765438 0.199985 0
0.790402 0.199985 0
0.815351 0.199985 0
0.840345 0.199985 0
0.865339 0.199985 0
0.890333 0.199985 0
0.915343 0.199985 0
0.940352 0.199985 0
0.965362 0.199985 0
0.990372 0.199985 0
0 0.25008 0
0.0249943 0.250355 0
0.0499886 0.25069 0
0.0749828 0.251148 0
0.0999924 0.251682 0
0.124987 0.252186 0
0.150179 0.252461 0
0.178042 0.252354 0
0.210758 0.251575 3.0518e-05
0.247395 0.249851 0.000839246
0.284718 0.24799 0.00239567
0.32256 0.246403 0.00181582
0.365637 0.244144 0.000137331
0.412802 0.240864 0
0.459281 0.2374 0
0.505638 0.234012 0
0.550942 0.231388 0
0.592218 0.229541 0
0.631098 0.22855 0
0.665003 0.227893 0
0.691524 0.22707 0
0.716335 0.226215 0
0.741176 0.225406 0
0.766033 0.224994 0
0.790906 0.224994 0
0.815839 0.224994 0
0.840818 0.224994 0
0.865827 0.224994 0
0.890867 0.225162 0
0.915938 0.225452 0
0.940993 0.22565 0
0.965988 0.225757 0
0.991104 0.22594 0
0 0.281086 0
0.0249943 0.281468 0
0.0499886 0.282032 0
0.0749828 0.282658 0
0.0999924 0.283482 0
0.124987 0.284321 0
0.149996 0.284871 0
0.175967 0.285023 0
0.206073 0.284733 0
0.242466 0.283436 9.15541e-05
0.282307 0.281178 0.00135805
0.322728 0.278904 0.00315862
0.365454 0.276875 0.00170901
0.411322 0.274525 6.10361e-05
0.457786 0.271702 0
0.504158 0.268742 0
0.550103 0.266392 0
0.591943 0.264866 0
0.631235 0.263737 0
0.666438 0.262654 0
0.693614 0.261021 0
0.718257 0.259373 0
0.742962 0.258 0
0.767742 0.257038 0
0.792569 0.25626 0
0.817441 0.255528 0
0.842451 0.255482 0
0.867536 0.255802 0
0.892638 0.256291 0
0.9178 0.256977 0
0.942946 0.257694 0
0.968093 0.258427 0
0.993301 0.259449 0
0 0.313588 0
0.0249943 0.314122 0
0.0499886 0.314992 0
0.0749828 0.315923 0
0.0999924 0.317067 0
0.124987 0.318303 0
0.149996 0.319249 0
0.175021 0.319722 0
0.202319 0.319722 0
0.236194 0.319127 0
0.276738 0.317021 1.5259e-05
0.320256 0.313954 0.0019379
0.365759 0.311086 0.00350958
0.411658 0.309117 0.00173953
0.457206 0.307271 0.000137331
0.502937 0.304997 0
0.549233 0.30309 0
0.591699 0.301976 0
0.631479 0.301228 0
0.668086 0.300496 0
0.696712 0.299031 0
0.721294 0.297353 0
0.745968 0.29604 0
0.770703 0.295003 0
0.795514 0.294209 0
0.820432 0.293812 0
0.845457 0.293858 0
0.870542 0.29424 0
0.895705 0.294896 0
0.920897 0.295674 0
0.94612 0.296544 0
0.971328 0.297429 0
0.996628 0.298634 0
0 0.348547 0
0.0249943 0.34931 0
0.0499886 0.350515 0
0.0749828 0.351766 0
0.0999924 0.353338 0
0.124987 0.355093 0
0.149996 0.356649 0
0.17499 0.357671 0
0.200244 0.358022 0
0.230121 0.357824 0
0.268482 0.356725 0
0.313619 0.353857 0
0.362875 0.349981 0.00233463
0.412619 0.346868 0.00410468
0.459007 0.344961 0.00299077
0.503532 0.343465 0.000885023
0.548989 0.342214 0.000457771
0.591531 0.34139 0.000274662
0.631464 0.340871 0.000289921
0.669169 0.340398 0.000381476
0.699672 0.339223 0.000427253
0.724407 0.337591 0.000350958
0.749142 0.336248 0.000259403
0.773938 0.335134 0.000137331
0.798825 0.33434 3.0518e-05
0.823819 0.333959 0
0.848936 0.334051 0
0.874128 0.334539 0
0.899397 0.335302 0
0.924681 0.336248 0
0.949935 0.337316 3.0518e-05
0.974884 0.338567 0.000259403
0.999893 0.340032 0.000488289
0 0.386374 0
0.0249943 0.387411 0
0.0499886 0.388891 0
0.0749828 0.3906 0
0.0999924 0.39266 0
0.124987 0.394934 0
0.149996 0.397024 0
0.17499 0.398444 0
0.199985 0.399023 0
0.226429 0.399023 0
0.26096 0.39881 0
0.304341 0.397162 0
0.355962 0.393011 0.000411994
0.410163 0.388678 0.00329595
0.460945 0.385855 0.00563058
0.506706 0.384466 0.00544747
0.550393 0.383886 0.0039826
0.59173 0.383383 0.00299077
0.631159 0.382971 0.00276188
0.668757 0.382528 0.00292973
0.699992 0.381613 0.00303655
0.725002 0.379995 0.0027924
0.749996 0.378454 0.00250248
0.77499 0.377325 0.00228885
0.8 0.376562 0.00218204
0.824994 0.376181 0.00218204
0.850004 0.376394 0.00225834
0.874998 0.37705 0.00238041
0.899992 0.378134 0.00254826
0.925002 0.379416 0.00274662
0.949996 0.380926 0.00299077
0.975006 0.382361 0.00323491
1 0.384039 0.00350958
0 0.426627 0
0.0249943 0.42797 0
0.0499886 0.429847 0
0.0749828 0.431861 0
0.0999924 0.43418 0
0.124987 0.436667 0
0.149996 0.439002 0
0.17499 0.440665 0
0.199985 0.441535 0
0.22504 0.441627 0
0.256046 0.441749 0
0.296452 0.441321 0
0.346639 0.438239 3.0518e-05
0.404334 0.433417 0.00134279
0.460014 0.429618 0.00491341
0.509178 0.427161 0.00759899
0.552651 0.426169 0.00813306
0.592889 0.426093 0.00750744
0.631205 0.426246 0.00680552
0.66804 0.426169 0.00645457
0.699992 0.425711 0.00633249
0.725002 0.424414 0.00613413
0.749996 0.422919 0.00585946
0.77499 0.421912 0.00567636
0.8 0.421241 0.00555428
0.824994 0.420981 0.00552377
0.850004 0.421378 0.00561532
0.874998 0.422263 0.00578317
0.899992 0.42356 0.00601205
0.925002 0.425055 0.00628672
0.949996 0.426719 0.00657664
0.975006 0.428351 0.00686656
1 0.430121 0.00717174
0 0.468452 0
0.0249943 0.469871 0
0.0499886 0.471824 0
0.0749828 0.473976 0
0.0999924 0.476234 0
0.124987 0.478737 0
0.149996 0.481132 0
0.17499 0.482856 0
0.199985 0.483879 0
0.224994 0.48394 0
0.252247 0.48397 0
0.29015 0.484169 0
0.337026 0.482536 0
0.394629 0.478141 0
0.454612 0.473198 0.00247196
0.507576 0.469535 0.00666819
0.553353 0.468208 0.00988785
0.594766 0.468238 0.0114595
0.632822 0.468818 0.0115206
0.668803 0.469444 0.011017
0.699992 0.46978 0.0104982
0.725002 0.469337 0.0101625
0.749996 0.468162 0.00988785
0.77499 0.467262 0.00967422
0.8 0.466712 0.00956741
0.824994 0.466682 0.00958267
0.850004 0.467185 0.00970474
0.874998 0.468193 0.00994888
0.899992 0.469551 0.0102693
0.925002 0.471122 0.0106355
0.949996 0.472755 0.0110018
0.975006 0.474449 0.0113985
1 0.476158 0.0117952
0 0.51043 0
0.0249943 0.511833 0
0.0499886 0.513909 0
0.0749828 0.516091 0
0.0999924 0.518441 0
0.124987 0.521157 0
0.149996 0.524056 0
0.17499 0.526268 0
0.199985 0.527474 0
0.224994 0.527642 0
0.249989 0.527352 0
0.284871 0.527489 0
0.328695 0.52668 0
0.382574 0.522637 0
0.444373 0.515663 0.000457771
0.500282 0.508965 0.00404364
0.548836 0.507851 0.00842298
0.594064 0.509865 0.012253
0.633799 0.510597 0.0144198
0.67013 0.511177 0.0150454
0.699992 0.511971 0.0148165
0.725002 0.512291 0.0144198
0.749996 0.511589 0.0141756
0.77499 0.510948 0.0140383
0.8 0.510597 0.013962
0.824994 0.510689 0.0139773
0.850004 0.511254 0.0141146
0.874998 0.512215 0.0143282
0.899992 0.51342 0.0146181
0.925002 0.514839 0.0149386
0.949996 0.516167 0.0152132
0.975006 0.51751 0.0154726
1 0.518853 0.0157168
0 0.553841 0
0.0249943 0.555581 0
0.0499886 0.5579 0
0.0749828 0.560357 0
0.0999924 0.562875 0
0.124987 0.565744 0
0.149996 0.568612 0
0.17499 0.570764 0
0.199985 0.572 0
0.224994 0.572213 0
0.249989 0.571801 0
0.281834 0.571664 0
0.324086 0.57052 0
0.374487 0.565164 0
0.434989 0.556283 0
0.493385 0.548501 0.00167849
0.544457 0.54963 0.0059968
0.591745 0.55285 0.0106661
0.633127 0.553124 0.014435
0.670451 0.552972 0.0166323
0.699992 0.553231 0.0174716
0.725002 0.553506 0.0175784
0.749996 0.553262 0.0174411
0.77499 0.552789 0.0173495
0.8 0.552544 0.017319
0.824994 0.552621 0.0173495
0.850004 0.553063 0.0174563
0.874998 0.553903 0.0176089
0.899992 0.554925 0.017731
0.925002 0.5561 0.0178836
0.949996 0.557443 0.0180514
0.975006 0.558694 0.018204
1 0.559976 0.0183719
0 0.598428 0
0.0249943 0.6 0
0.0500038 0.602274 0
0.0750744 0.604654 0
0.100191 0.607065 3.0518e-05
0.125399 0.609644 0.000183108
0.150698 0.61239 0.000442512
0.175967 0.614466 0.000686656
0.201144 0.615717 0.000839246
0.226184 0.616098 0.000869764
0.251072 0.615656 0.000747692
0.281102 0.615259 0.000946059
0.321599 0.614893 0.00161746
0.367941 0.612238 0.00146487
0.424033 0.607156 0.000366217
0.486748 0.602045 0.000503548
0.543053 0.598886 0.00387579
0.589517 0.597131 0.00827039
0.631281 0.595804 0.0125277
0.669474 0.594903 0.0157626
0.699992 0.594476 0.0178225
0.725002 0.5944 0.018967
0.749996 0.594263 0.0193332
0.77499 0.593912 0.0193637
0.8 0.593652 0.0193637
0.824994 0.593622 0.0193332
0.850004 0.594003 0.0193484
0.874998 0.59469 0.019379
0.899992 0.595621 0.01944
0.925002 0.596582 0.0194858
0.949996 0.59762 0.0195468
0.975006 0.598642 0.0196078
1 0.59971 0.0196841
0.0010071 0.641947 0.000885023
0.0263676 0.643458 0.00120546
0.0518349 0.645563 0.00158694
0.0773938 0.647776 0.00202945
0.102953 0.649958 0.002533
0.128557 0.652338 0.0031281
0.154192 0.654856 0.00376898
0.179706 0.656855 0.00427253
0.205035 0.658137 0.00459297
0.230106 0.658457 0.00466926
0.255024 0.658106 0.00457771
0.282383 0.657404 0.00457771
0.320623 0.657328 0.00520333
0.36405 0.65655 0.00517281
0.415076 0.653849 0.00363165
0.477501 0.648173 0.00157168
0.537957 0.6421 0.00265507
0.586236 0.638498 0.00607309
0.628794 0.636378 0.010132
0.667597 0.635019 0.0136873
0.699992 0.633997 0.0164645
0.725002 0.633417 0.0185092
0.749996 0.633036 0.0195926
0.77499 0.632639 0.0198672
0.8 0.632334 0.0198825
0.824994 0.632319 0.0198672
0.850004 0.632639 0.0198672
0.874998 0.633265 0.0198672
0.899992 0.634058 0.0198672
0.925002 0.634913 0.0198672
0.949996 0.635798 0.0198672
0.975006 0.636652 0.0198672
1 0.637568 0.0198672
0.00518807 0.683879 0.0047303
0.030518 0.685252 0.005066
0.0560006 0.687221 0.00555428
0.0815137 0.689311 0.00605783
0.106996 0.691325 0.00653086
0.132509 0.693416 0.00703441
0.157977 0.695186 0.00749218
0.183322 0.696391 0.00782788
0.208515 0.697002 0.00802625
0.23357 0.697108 0.00808728
0.258534 0.696834 0.0080415
0.284153 0.696315 0.00794995
0.319905 0.695994 0.00828565
0.362005 0.695445 0.00822461
0.409705 0.693782 0.00677501
0.468879 0.68954 0.00373846
0.53106 0.682765 0.00251774
0.581903 0.67808 0.00437934
0.625696 0.675441 0.00781262
0.66537 0.673823 0.0113069
0.699672 0.672435 0.0143282
0.725002 0.671382 0.0168765
0.749996 0.670634 0.0186313
0.77499 0.6701 0.0194247
0.8 0.669825 0.0195926
0.824994 0.66981 0.0195926
0.850004 0.670085 0.0195773
0.874998 0.670573 0.0195621
0.899992 0.671199 0.0195315
0.925002 0.671977 0.019501
0.949996 0.67274 0.0194705
0.975006 0.673487 0.01944
1 0.67422 0.019379
0.00863661 0.722423 0.00813306
0.0338903 0.723461 0.00840772
0.0592966 0.724605 0.00880446
0.0845655 0.725002 0.00906386
0.109758 0.725002 0.00924697
0.134936 0.725002 0.00941482
0.160082 0.725002 0.00956741
0.185183 0.725002 0.00965896
0.210224 0.725002 0.00970474
0.235233 0.725002 0.00972
0.260227 0.725002 0.00970474
0.28574 0.725002 0.00968948
0.318761 0.725002 0.00991836
0.359716 0.725002 0.00991836
0.405341 0.725002 0.00874342
0.461921 0.723964 0.00550851
0.523674 0.720256 0.00285344
0.576822 0.716121 0.00311284
0.622049 0.713237 0.00563058
0.662638 0.711345 0.00891127
0.698085 0.709758 0.0120241
0.725002 0.708461 0.0148013
0.749996 0.7075 0.0170596
0.77499 0.706844 0.0184176
0.8 0.706493 0.0187839
0.824994 0.706371 0.0188144
0.850004 0.706523 0.0187991
0.874998 0.706935 0.0187686
0.899992 0.707485 0.0187228
0.925002 0.708156 0.018677
0.949996 0.708736 0.018616
0.975006 0.709255 0.0185702
1 0.709758 0.0185092
0.0104219 0.749996 0.00988785
0.035462 0.749996 0.00993362
0.0604562 0.749996 0.00993362
0.0854658 0.749996 0.00993362
0.11046 0.749996 0.00993362
0.13547 0.749996 0.00993362
0.160464 0.749996 0.00993362
0.185458 0.749996 0.00993362
0.210468 0.749996 0.00993362
0.235462 0.749996 0.00993362
0.260471 0.749996 0.00993362
0.285801 0.749996 0.00994888
0.316793 0.749996 0.0101472
0.357 0.749996 0.0102846
0.40148 0.749996 0.00939956
0.456199 0.749996 0.00640879
0.51725 0.749706 0.00320439
0.571878 0.747829 0.00244144
0.61799 0.745388 0.00416571
0.659175 0.74374 0.00714122
0.696117 0.74255 0.0101778
0.725002 0.741619 0.0129854
0.749996 0.740902 0.0154726
0.77499 0.740322 0.0172885
0.8 0.740001 0.0178988
0.824994 0.739879 0.0179751
0.850004 0.739986 0.0179599
0.874998 0.740276 0.0179294
0.899992 0.740703 0.0178836
0.925002 0.741115 0.0178531
0.949996 0.741344 0.0178225
0.975006 0.741573 0.017792
1 0.741695 0.0177768
0.0104677 0.77499 0.00993362
0.035462 0.77499 0.00993362
0.0604562 0.77499 0.00993362
0.0854658 0.77499 0.00993362
0.11046 0.77499 0.00993362
0.13547 0.77499 0.00993362
0.160464 0.77499 0.00993362
0.185458 0.77499 0.00993362
0.210468 0.77499 0.00993362
0.235462 0.77499 0.00993362
0.260471 0.77499 0.00993362
0.285496 0.77499 0.00993362
0.315343 0.77499 0.0101167
0.35465 0.77499 0.0103456
0.398962 0.77499 0.00953689
0.452186 0.77499 0.00682078
0.512489 0.77499 0.00349432
0.567895 0.774121 0.00222782
0.614054 0.771756 0.00358587
0.655619 0.770245 0.00627146
0.694453 0.769238 0.00924697
0.724819 0.768475 0.0120546
0.749996 0.767895 0.0145724
0.77499 0.767468 0.0166171
0.8 0.767254 0.0175479
0.824994 0.767208 0.0177157
0.850004 0.767224 0.0177157
0.874998 0.767285 0.0177157
0.899992 0.767346 0.0177005
0.925002 0.767361 0.0177005
0.949996 0.767361 0.0177005
0.975006 0.767361 0.0177005
1 0.767361 0.0177005
0.0104677 0.8 0.00993362
0.035462 0.8 0.00993362
0.0604562 0.8 0.00993362
0.0854658 0.8 0.00993362
0.11046 0.8 0.00993362
0.13547 0.8 0.00993362
0.160464 0.8 0.00993362
0.185458 0.8 0.00993362
0.210468 0.8 0.00993362
0.235462 0.8 0.00993362
0.260471 0.8 0.00993362
0.285466 0.8 0.00993362
0.313863 0.8 0.010071
0.353399 0.8 0.0103304
0.397559 0.8 0.00959792
0.44976 0.8 0.00704967
0.509239 0.8 0.00367742
0.564721 0.799741 0.00215152
0.610941 0.797116 0.00328069
0.652644 0.795499 0.00570687
0.692088 0.794415 0.00863661
0.724147 0.793622 0.0114595
0.749996 0.793042 0.0140078
0.77499 0.792615 0.0161593
0.8 0.792401 0.0174868
0.824994 0.792355 0.0177005
0.850004 0.792355 0.0177005
0.874998 0.792355 0.0177005
0.899992 0.792355 0.0177005
0.925002 0.792355 0.0177005
0.949996 0.792355 0.0177005
0.975006 0.792355 0.0177005
1 0.792355 0.0177005
0.0104677 0.824994 0.00993362
0.035462 0.824994 0.00993362
0.0604562 0.824994 0.00993362
0.0854658 0.824994 0.00993362
0.11046 0.824994 0.00993362
0.13547 0.824994 0.00993362
0.160464 0.824994 0.00993362
0.185458 0.824994 0.00993362
0.210468 0.824994 0.00993362
0.235462 0.824994 0.00993362
0.260471 0.824994 0.00993362
0.285466 0.824994 0.00993362
0.312306 0.824994 0.0100099
0.353536 0.824994 0.0102998
0.397467 0.824994 0.00959792
0.449271 0.824994 0.00709544
0.507988 0.824994 0.0037232
0.5626 0.824613 0.00224308
0.609033 0.822324 0.00309758
0.650752 0.820661 0.00537118
0.690272 0.819532 0.00825513
0.724147 0.818723 0.0110475
0.749996 0.818112 0.013611
0.77499 0.81767 0.0158389
0.8 0.817395 0.0175021
0.824994 0.817365 0.0177005
0.850004 0.817365 0.0177005
0.874998 0.817365 0.0177005
0.899992 0.817365 0.0177005
0.925002 0.817365 0.0177005
0.949996 0.817365 0.0177005
0.975006 0.817365 0.0177005
1 0.817365 0.0177005
0.0104677 0.850004 0.00993362
0.035462 0.850004 0.00993362
0.0604562 0.850004 0.00993362
0.0854658 0.850004 0.00993362
0.11046 0.850004 0.00993362
0.13547 0.850004 0.00993362
0.160464 0.850004 0.00993362
0.185458 0.850004 0.00993362
0.210468 0.850004 0.00993362
0.235462 0.850004 0.00993362
0.260471 0.850004 0.00993362
0.285481 0.850004 0.00993362
0.314717 0.850004 0.0100862
0.354803 0.850004 0.0102846
0.398672 0.850004 0.00953689
0.450401 0.850004 0.00698863
0.507958 0.850004 0.00376898
0.561975 0.849454 0.00230411
0.608087 0.84744 0.00302129
0.64979 0.845731 0.00520333
0.689296 0.844602 0.0080415
0.724895 0.843763 0.0108339
0.749996 0.843168 0.0133822
0.77499 0.84271 0.0156252
0.8 0.842405 0.0173953
0.824994 0.842374 0.0176547
0.850004 0.842359 0.0177005
0.874998 0.842359 0.0177005
0.899992 0.842359 0.0177005
0.925002 0.842359 0.0177005
0.949996 0.842359 0.0177005
0.975006 0.842359 0.0177005
1 0.842359 0.0177005
0.0104677 0.874998 0.00993362
0.035462 0.874998 0.00993362
0.0604562 0.874998 0.00993362
0.0854658 0.874998 0.00993362
0.11046 0.874998 0.00993362
0.13547 0.874998 0.00993362
0.160464 0.874998 0.00993362
0.185458 0.874998 0.00993362
0.210468 0.874998 0.00993362
