datas/cubes/TC - RESOLUTE_20.cube
TITLE "Generate by Resolve"
LUT_3D_SIZE 33
0 0 0.000381476
0.0249943 0 0.000213626
0.0499886 0 0.000183108
0.0749981 0 0.000427253
0.100069 0 0.00128176
0.127169 0 0.00137331
0.15584 1.5259e-05 0.00114443
0.185595 3.0518e-05 0.000793469
0.216098 1.5259e-05 0.00047303
0.247669 0 0.000183108
0.281193 0 4.57771e-05
0.317143 0 0
0.355581 0 0
0.395468 0 0
0.435843 0 0
0.476585 0 0
0.516976 0 0
0.555611 0 0
0.591592 0 0
0.625559 0 0
0.657923 0 0
0.688975 0 0
0.719158 0 0
0.748775 0 0
0.778012 0 0
0.806516 0 0
0.833417 0 0
0.859159 0 0
0.884245 0 0
0.909255 0 0
0.934249 0 0
0.959258 0 0
0.984253 0 0
0 0.0251164 0.000717174
0.0249943 0.0251011 0.000503548
0.0499886 0.0250706 0.000411994
0.0749981 0.0250401 0.000534066
0.100114 0.0250095 0.00109865
0.127245 0.0249943 0.0012665
0.156008 0.0250095 0.00114443
0.185916 0.0250095 0.000885023
0.216632 0.0250095 0.000564584
0.248447 0.0249943 0.000244144
0.282399 0.0249943 6.10361e-05
0.318959 0.0249943 1.5259e-05
0.357992 0.0249943 0
0.39852 0.0249943 0
0.4392 0.0249943 0
0.479835 0.0249943 0
0.520104 0.0249943 0
0.558465 0.0249943 0
0.594217 0.0249943 0
0.628 0.0249943 0
0.66006 0.0249943 0
0.69099 0.0249943 0
0.721157 0.0249943 0
0.75079 0.0249943 0
0.779965 0.0249943 0
0.808011 0.0249943 0
0.834028 0.0249943 0
0.859251 0.0249943 0
0.884245 0.0249943 0
0.909255 0.0249943 0
0.934249 0.0249943 0
0.959258 0.0249943 0
0.984268 0.0249943 0
1.5259e-05 0.0505684 0.00105287
0.0249943 0.0505074 0.000915541
0.0500038 0.0504311 0.000823987
0.0750134 0.0503395 0.000823987
0.10016 0.0502327 0.000976577
0.127337 0.0501411 0.00115969
0.156252 0.0500954 0.00114443
0.186267 0.0500649 0.000946059
0.217166 0.0500038 0.000671397
0.249256 0.0499886 0.000320439
0.283803 0.0499886 7.62951e-05
0.32108 0.0499886 1.5259e-05
0.360769 0.0499886 0
0.401404 0.0499886 0
0.442344 0.0499886 0
0.483253 0.0499886 0
0.523293 0.0499886 0
0.561364 0.0499886 0
0.596948 0.0499886 0
0.630304 0.0499886 0
0.662181 0.0499886 0
0.692988 0.0499886 0
0.72314 0.0499886 0
0.752773 0.0499886 0
0.781415 0.0499886 0
0.808591 0.0499886 0
0.834226 0.0499886 0
0.859251 0.0499886 0
0.88426 0.0499886 0
0.909255 0.0499886 0
0.934295 0.0499886 0
0.959365 0.0499886 0
0.98439 0.0499886 0
4.57771e-05 0.0766461 0.00120546
0.0250401 0.0766155 0.00120546
0.0500343 0.0765087 0.00117494
0.0750591 0.0763561 0.00109865
0.100206 0.0761273 0.000885023
0.127413 0.0758526 0.00105287
0.156451 0.0756085 0.00109865
0.186725 0.0753948 0.000991836
0.217807 0.0751965 0.000747692
0.25008 0.0750896 0.000381476
0.285039 0.0750134 7.62951e-05
0.323049 0.0749981 0
0.363073 0.0749828 0
0.404059 0.0749828 0
0.445167 0.0749828 0
0.486244 0.0749828 0
0.526345 0.0749828 0
0.564111 0.0749828 0
0.599207 0.0749828 0
0.632258 0.0749828 0
0.663935 0.0749828 0
0.694728 0.0749828 0
0.724926 0.0749828 0
0.754345 0.0749828 0
0.782452 0.0749828 0
0.808911 0.0749828 0
0.834257 0.0749828 0
0.859251 0.0749828 0
0.88426 0.0749828 0
0.909255 0.0749828 0
0.934279 0.0749828 0
0.959319 0.0749828 0
0.98436 0.0749828 0
0.000183108 0.104448 0.000534066
0.0251774 0.10457 0.000564584
0.0501717 0.104631 0.000579843
0.0751812 0.104601 0.000579843
0.100267 0.104311 0.000579843
0.12723 0.103731 0.000793469
0.156435 0.103166 0.000839246
0.18703 0.102678 0.000732433
0.218463 0.102113 0.000564584
0.251087 0.101381 0.000244144
0.286183 0.100343 4.57771e-05
0.324422 0.100038 0
0.36466 0.0999924 0
0.405631 0.0999924 0
0.44683 0.0999924 0
0.488136 0.0999924 0
0.528099 0.0999924 0
0.565805 0.0999924 0
0.600565 0.0999924 0
0.633478 0.0999924 0
0.665141 0.0999924 0
0.695933 0.0999924 0
0.726055 0.0999924 0
0.755505 0.0999924 0
0.783352 0.0999924 0
0.809125 0.0999924 0
0.834257 0.0999924 0
0.859297 0.0999924 0
0.884428 0.0999924 0
0.90959 0.0999924 0
0.934752 0.0999924 0
0.959915 0.0999924 0
0.985077 0.0999924 0
0.000106813 0.133181 0.000610361
0.0251011 0.133379 0.000671397
0.0500954 0.133532 0.000701915
0.0750896 0.133562 0.000686656
0.10013 0.133318 0.000579843
0.126574 0.132692 0.00047303
0.155886 0.131945 0.000579843
0.186938 0.131197 0.000610361
0.218906 0.13048 0.000350958
0.252277 0.129396 9.15541e-05
0.28809 0.127733 1.5259e-05
0.326772 0.126146 0
0.366888 0.125246 0
0.407797 0.124987 0
0.448997 0.124987 0
0.490028 0.124987 0
0.529809 0.124987 0
0.567269 0.124987 0
0.601892 0.124987 0
0.634806 0.124987 0
0.666423 0.124987 0
0.697185 0.124987 0
0.727367 0.124987 0
0.756878 0.124987 0
0.784573 0.124987 0
0.81001 0.124987 0
0.835187 0.124987 0
0.860395 0.124987 0
0.885725 0.124987 0
0.911086 0.124987 0
0.936461 0.124987 0
0.961868 0.124987 0
0.987228 0.125139 0
3.0518e-05 0.162356 0.000442512
0.0250248 0.162676 0.000457771
0.0500191 0.16286 0.000442512
0.0750134 0.162905 0.000396735
0.100023 0.162707 0.000289921
0.125765 0.162127 0.000167849
0.154879 0.161349 0.000259403
0.186221 0.16051 0.000411994
0.218616 0.159594 0.000427253
0.252552 0.15845 0.000106813
0.289799 0.156435 1.5259e-05
0.329763 0.153872 0
0.370642 0.151705 0
0.411734 0.150408 0
0.452628 0.149996 0
0.493324 0.149996 0
0.532692 0.149996 0
0.569635 0.149996 0
0.604105 0.149996 0
0.636942 0.149996 0
0.668559 0.149996 0
0.699428 0.150011 0
0.729793 0.150088 0
0.759274 0.15021 0
0.786786 0.150378 0
0.812207 0.15053 0
0.837644 0.150713 0
0.863142 0.150896 0
0.888685 0.151095 0
0.914275 0.151308 0
0.939895 0.151553 0
0.965484 0.15172 0
0.990997 0.152239 0
0 0.192065 0.00015259
0.0249943 0.192416 0.000137331
0.0499886 0.192706 0.000106813
0.0749828 0.192813 7.62951e-05
0.0999924 0.192645 1.5259e-05
0.12517 0.192096 0
0.153613 0.191409 3.0518e-05
0.184802 0.190539 0.000213626
0.217624 0.189487 0.000427253
0.251759 0.188373 0.000259403
0.289982 0.186358 4.57771e-05
0.331899 0.183413 0
0.374319 0.180285 0
0.41648 0.177783 0
0.457954 0.176287 0
0.498527 0.175677 0
0.537453 0.175433 0
0.573877 0.175418 0
0.608026 0.175463 0
0.640711 0.17554 0
0.672435 0.175753 0
0.703548 0.176074 0
0.734173 0.176532 0
0.763394 0.17702 0
0.790463 0.177554 0
0.816052 0.178149 0
0.841657 0.178943 0
0.867292 0.179843 0
0.893004 0.181003 3.0518e-05
0.918746 0.182269 4.57771e-05
0.944533 0.183856 6.10361e-05
0.970306 0.185473 6.10361e-05
0.995972 0.186816 4.57771e-05
0 0.222477 0
0.0249943 0.222919 0
0.0499886 0.223316 0
0.0749828 0.223545 0
0.0999924 0.223468 0
0.124987 0.222934 0
0.152255 0.222309 0
0.182712 0.221515 4.57771e-05
0.216007 0.220493 0.000167849
0.250233 0.219242 0.000350958
0.288273 0.217639 4.57771e-05
0.331472 0.214771 0
0.376135 0.211536 0
0.420569 0.208377 0
0.463783 0.205631 0
0.505211 0.203616 0
0.54406 0.202762 0
0.580011 0.20264 0
0.613916 0.202823 0
0.646586 0.203189 0
0.678477 0.204303 0
0.70988 0.20589 1.5259e-05
0.740368 0.207599 1.5259e-05
0.768841 0.209079 0
0.795346 0.210483 0
0.820996 0.211887 0
0.846708 0.213413 1.5259e-05
0.87248 0.215213 9.15541e-05
0.897963 0.216999 0.000442512
0.923384 0.21886 0.000900282
0.948745 0.220752 0.00143435
0.974014 0.222416 0.00195315
0.999237 0.223941 0.00248722
0 0.253956 0
0.0249943 0.254597 0
0.0499886 0.2551 0
0.0749828 0.255558 0
0.0999924 0.255543 0
0.124987 0.255009 0
0.150698 0.254398 0
0.179721 0.253758 0
0.213275 0.252918 1.5259e-05
0.248783 0.251499 9.15541e-05
0.286046 0.250034 1.5259e-05
0.328817 0.247745 0
0.374807 0.244892 0
0.4215 0.241856 0
0.467338 0.2392 0
0.510781 0.237201 0
0.550774 0.23621 0
0.587137 0.236347 0
0.621332 0.237263 0
0.654353 0.238727 0
0.68658 0.240589 0
0.717952 0.242588 0.000244144
0.747127 0.244358 0.000762951
0.773861 0.245808 0.00123598
0.799237 0.247196 0.00164797
0.824353 0.248829 0.00221256
0.849454 0.250645 0.00280766
0.874571 0.252491 0.00341802
0.899672 0.254475 0.00407416
0.924743 0.256443 0.00476081
0.949828 0.258579 0.00549325
0.974884 0.26038 0.00613413
0.999924 0.262028 0.00663767
0 0.287495 0
0.0249943 0.288411 0
0.0499886 0.289235 0
0.0749828 0.289784 0
0.0999924 0.28986 0
0.124987 0.289342 0
0.150118 0.288685 0
0.177462 0.288258 0
0.209018 0.287861 0
0.245365 0.286763 1.5259e-05
0.284337 0.284688 0
0.326101 0.282795 0
0.371328 0.280674 0
0.419242 0.278386 0
0.46714 0.276081 0
0.512886 0.274266 0
0.555001 0.273472 0
0.592859 0.273884 1.5259e-05
0.628138 0.275151 0.000122072
0.661875 0.276982 0.00122072
0.69395 0.279011 0.00274662
0.722972 0.28101 0.00408942
0.749508 0.282475 0.00488289
0.774914 0.283757 0.00534066
0.799985 0.285176 0.00575265
0.824994 0.2869 0.00630198
0.850004 0.288746 0.00686656
0.874998 0.290745 0.0074464
0.899992 0.292821 0.0080415
0.925002 0.294987 0.00859083
0.949996 0.297353 0.00909438
0.975006 0.299245 0.00949111
1 0.300877 0.00976577
0 0.323278 0
0.0249943 0.324498 0
0.0499886 0.325567 0
0.0749828 0.326436 0
0.0999924 0.326772 0
0.124987 0.326345 0
0.149996 0.32578 0
0.175998 0.325322 0
0.204883 0.325399 0
0.239902 0.325093 0
0.280476 0.323186 0
0.323659 0.320851 0
0.368765 0.318883 0
0.41561 0.317174 0
0.463935 0.315572 0
0.511696 0.314168 0
0.555993 0.313481 0.000122072
0.595636 0.314153 0.000869764
0.632013 0.315389 0.00230411
0.666484 0.317098 0.00430304
0.697719 0.319066 0.00642405
0.724727 0.320821 0.00805676
0.749996 0.321981 0.00877394
0.77499 0.323156 0.00909438
0.8 0.324453 0.0093843
0.824994 0.326131 0.00972
0.850004 0.327993 0.0100557
0.874998 0.330037 0.0103761
0.899992 0.332296 0.0107118
0.925002 0.334707 0.011017
0.949996 0.336996 0.0112306
0.975006 0.338994 0.0114137
1 0.340795 0.0115663
0 0.361288 0
0.0249943 0.362844 0
0.0499886 0.364202 0
0.0749828 0.365423 0
0.0999924 0.366018 0
0.124987 0.365728 0
0.149996 0.365087 0
0.175265 0.36466 0
0.202197 0.365011 0
0.234745 0.36553 0
0.275471 0.364645 0
0.320577 0.361929 0
0.366674 0.359319 0
0.412787 0.357519 0
0.459983 0.35639 0
0.508049 0.355383 6.10361e-05
0.554131 0.355047 0.00047303
0.595193 0.355505 0.00196841
0.632593 0.35668 0.00418097
0.667811 0.358328 0.00657664
0.698726 0.360204 0.00885023
0.725002 0.361913 0.0105135
0.749996 0.363073 0.0112001
0.77499 0.364019 0.0113832
0.8 0.365255 0.0115206
0.824994 0.366888 0.0116884
0.850004 0.36875 0.011841
0.874998 0.370901 0.0119783
0.899992 0.373251 0.0121309
0.925002 0.37557 0.012253
0.949996 0.377951 0.0124056
0.975006 0.380041 0.0125429
1 0.381903 0.0126497
0 0.401389 0
0.0249943 0.403265 0
0.0499886 0.404974 0
0.0749828 0.406455 0
0.0999924 0.407202 0
0.124987 0.406973 0
0.149996 0.406317 0
0.175021 0.405859 0
0.200916 0.40618 0
0.231312 0.407401 0
0.270726 0.40737 0
0.316487 0.404929 0
0.364324 0.401572 0
0.41117 0.399008 0
0.45716 0.397635 0
0.50399 0.396963 7.62951e-05
0.549981 0.396582 0.000564584
0.592218 0.397177 0.00242618
0.630716 0.398413 0.00480659
0.666667 0.400137 0.00730907
0.698482 0.402319 0.00972
0.724971 0.404181 0.0115663
0.749996 0.405371 0.0124208
0.77499 0.406241 0.0126345
0.8 0.407477 0.0127108
0.824994 0.409079 0.0128023
0.850004 0.411139 0.0129091
0.874998 0.413123 0.0130159
0.899992 0.415259 0.0131228
0.925002 0.417487 0.0132296
0.949996 0.419867 0.0133516
0.975006 0.422065 0.0134737
1 0.424094 0.0135958
0 0.443229 0
0.0249943 0.445304 0
0.0499886 0.447364 0
0.0749828 0.448966 0
0.0999924 0.44979 0
0.124987 0.449577 0
0.149996 0.448997 0
0.17499 0.448478 0
0.200488 0.448676 0
0.229343 0.449897 0
0.266804 0.450462 0
0.311513 0.448692 0
0.360632 0.445106 0
0.409552 0.441611 0
0.455985 0.439353 0
0.501335 0.438224 3.0518e-05
0.545922 0.437903 0.000350958
0.588296 0.438651 0.0021973
0.627543 0.440223 0.00471504
0.664286 0.442359 0.00741588
0.69749 0.444587 0.00996414
0.724788 0.446708 0.0120394
0.749996 0.448203 0.0131991
0.77499 0.449271 0.0135958
0.8 0.450401 0.0136873
0.824994 0.452049 0.0137789
0.850004 0.453758 0.0138705
0.874998 0.45565 0.0139467
0.899992 0.457664 0.014023
0.925002 0.459785 0.0140993
0.949996 0.462165 0.0141604
0.975006 0.464393 0.0142214
1 0.466224 0.0142672
0 0.486168 0
0.0249943 0.488426 0
0.0499886 0.49041 0
0.0749828 0.491997 0
0.0999924 0.49279 0
0.124987 0.49276 0
0.149996 0.492149 0
0.17499 0.491539 0
0.200275 0.491295 0
0.227756 0.492454 0
0.263371 0.493248 0
0.306264 0.492363 0
0.355398 0.489357 0
0.406363 0.485145 0
0.454871 0.481651 0
0.500404 0.479866 0
0.543893 0.479347 0.000213626
0.585153 0.48011 0.00189212
0.624247 0.481926 0.00442512
0.661158 0.484062 0.00720226
0.695323 0.486488 0.00982681
0.724224 0.488792 0.0120546
0.749981 0.490623 0.0135348
0.77499 0.492058 0.0141756
0.8 0.493248 0.0143282
0.824994 0.49456 0.0143282
0.850004 0.496101 0.0142977
0.874998 0.497856 0.0142672
0.899992 0.499748 0.0142519
0.925002 0.501991 0.0142061
0.949996 0.504143 0.0141604
0.975006 0.506081 0.0141146
1 0.507729 0.0140383
0 0.528939 0
0.0249943 0.531075 0
0.0499886 0.532921 0
0.0749828 0.534432 0
0.0999924 0.535164 0
0.124987 0.535271 0
0.149996 0.534752 0
0.17499 0.533974 0
0.200153 0.533471 0
0.226886 0.534463 0
0.261372 0.535592 0
0.302525 0.535607 1.5259e-05
0.350179 0.533471 1.5259e-05
0.401892 0.529519 1.5259e-05
0.452903 0.525139 0
0.500084 0.522087 0
0.543694 0.521096 0.000183108
0.583795 0.521569 0.00151064
0.621592 0.522972 0.00378424
0.657755 0.525017 0.00634775
0.692302 0.527291 0.00888075
0.723186 0.529625 0.0110781
0.749889 0.531731 0.012726
0.77499 0.533318 0.013611
0.8 0.534539 0.0138705
0.824994 0.535836 0.0138399
0.850004 0.537285 0.0137636
0.874998 0.538964 0.0136721
0.899992 0.540749 0.01355
0.925002 0.542565 0.0134432
0.949996 0.544366 0.0132906
0.975006 0.545922 0.0131533
1 0.547265 0.0130312
0 0.570611 0
0.0249943 0.572625 0
0.0499886 0.574487 0
0.0749828 0.576013 0
0.0999924 0.576944 0
0.124987 0.576883 0
0.149996 0.576364 0
0.17499 0.575662 0
0.200183 0.575082 0
0.227634 0.575998 0
0.262119 0.577401 0
0.301869 0.577737 0.000106813
0.347601 0.576379 0.000167849
0.398383 0.573114 0.000122072
0.450599 0.568582 3.0518e-05
0.499962 0.564523 3.0518e-05
0.544472 0.56231 0.000198367
0.584054 0.562066 0.00148013
0.620874 0.562966 0.00344854
0.655833 0.564584 0.0055848
0.68957 0.566445 0.00772107
0.721279 0.568551 0.00962844
0.74934 0.570474 0.0111543
0.77499 0.572198 0.012192
0.8 0.573739 0.012665
0.824994 0.575067 0.0127565
0.850004 0.576486 0.0126497
0.874998 0.577905 0.0125277
0.899992 0.579202 0.0124208
0.925002 0.580621 0.0122988
0.949996 0.58204 0.0121767
0.975006 0.583291 0.0120699
1 0.584436 0.0119783
0.000122072 0.611597 0.000106813
0.0252842 0.613458 0.000244144
0.0504463 0.615228 0.000396735
0.0755932 0.616739 0.000503548
0.100603 0.617517 0.000503548
0.125444 0.617533 0.000320439
0.150179 0.61706 0.000106813
0.175006 0.616419 0
0.200381 0.61593 1.5259e-05
0.229908 0.616556 0.00030518
0.265049 0.617838 0.00144961
0.303944 0.618326 0.00248722
0.347845 0.617334 0.00280766
0.397101 0.614557 0.00225834
0.449531 0.610361 0.00137331
0.500038 0.605661 0.000808728
0.545785 0.602182 0.000900282
0.585412 0.601038 0.00205997
0.621515 0.601297 0.00363165
0.655558 0.602274 0.00535592
0.688212 0.603693 0.00704967
0.719753 0.605234 0.00856031
0.748806 0.606851 0.00979629
0.77499 0.608423 0.0107424
0.8 0.609827 0.011368
0.824994 0.611185 0.0116732
0.850004 0.612421 0.0117342
0.874998 0.613565 0.0116579
0.899992 0.614679 0.0115816
0.925002 0.615839 0.0115053
0.949996 0.616999 0.0114137
0.975006 0.618112 0.0113375
1 0.618982 0.0112764
0.00268559 0.651316 0.00250248
0.0283207 0.653269 0.0031281
0.0538949 0.654902 0.00369268
0.0793317 0.656123 0.00410468
0.104555 0.65684 0.00433356
0.129488 0.656825 0.00425727
0.154253 0.656397 0.00402838
0.179095 0.655894 0.00381476
0.20441 0.655268 0.00364691
0.234653 0.655619 0.00442512
0.26952 0.656611 0.00601205
0.307652 0.657008 0.00720226
0.350164 0.656077 0.00730907
0.398138 0.653483 0.00622568
0.449424 0.64921 0.00445563
0.50045 0.644343 0.00297551
0.547356 0.640101 0.00238041
0.587228 0.63801 0.00302129
0.622904 0.637552 0.00421149
0.656214 0.638041 0.0055848
0.687984 0.638895 0.00689708
0.718807 0.639963 0.00808728
0.74789 0.641138 0.00907912
0.774655 0.642344 0.00987259
0.8 0.643626 0.0104372
0.824994 0.6448 0.0108186
0.850004 0.645914 0.0110475
0.874998 0.646952 0.0111086
0.899992 0.647929 0.0110475
0.925002 0.64889 0.0109865
0.949996 0.649866 0.0109407
0.975006 0.650614 0.0108949
1 0.651148 0.0108797
0.00776684 0.689754 0.00749218
0.0335546 0.691417 0.00828565
0.0592508 0.692744 0.0089723
0.0847486 0.69337 0.00946059
0.109987 0.693584 0.00968948
0.134905 0.693324 0.00962844
0.159731 0.693004 0.00944533
0.184558 0.692576 0.00918593
0.209857 0.692164 0.00895705
0.239963 0.692409 0.00968948
0.274388 0.692958 0.011017
0.31194 0.693202 0.0119173
0.353475 0.692256 0.0116121
0.400122 0.689616 0.0100099
0.450401 0.685405 0.00764477
0.501274 0.680461 0.00543221
0.548547 0.675807 0.00408942
0.589105 0.673045 0.00416571
0.62446 0.671962 0.00497444
0.657115 0.671931 0.00602731
0.688289 0.672374 0.00706493
0.718517 0.67306 0.00799573
0.747463 0.673869 0.0087892
0.774487 0.674815 0.00941482
0.8 0.675715 0.0099031
0.824994 0.676661 0.0102693
0.850004 0.677623 0.0105287
0.874998 0.678508 0.0106813
0.899992 0.679347 0.0107271
0.925002 0.680186 0.0107118
0.949996 0.680873 0.0106966
0.975006 0.681468 0.0106813
1 0.681849 0.0106661
0.0132448 0.722835 0.0129244
0.038819 0.723568 0.0135195
0.0643473 0.724071 0.0140536
0.0897078 0.724132 0.0144045
0.11487 0.724071 0.0145724
0.139788 0.723873 0.0144808
0.164584 0.723674 0.0142824
0.189456 0.723522 0.0140536
0.214786 0.723415 0.0138399
0.244877 0.723491 0.0144045
0.279072 0.723674 0.0153964
0.315938 0.723705 0.0158389
0.356985 0.723232 0.0151064
0.402808 0.721843 0.0130922
0.452125 0.719005 0.0103151
0.502251 0.714488 0.00761425
0.549538 0.709743 0.00573739
0.590433 0.706416 0.00527962
0.625742 0.704829 0.00575265
0.65803 0.704372 0.00654612
0.688762 0.704463 0.00733959
0.718578 0.704814 0.00808728
0.747417 0.705379 0.00872816
0.774456 0.705974 0.00923171
0.8 0.706661 0.00962844
0.824994 0.707378 0.00994888
0.850004 0.708095 0.010193
0.874998 0.708873 0.0103914
0.899992 0.70956 0.0105135
0.925002 0.710216 0.010544
0.949996 0.710765 0.0105592
0.975006 0.711238 0.0105592
1 0.711559 0.010544
0.0173953 0.749996 0.0170596
0.0427863 0.749996 0.0174563
0.0681163 0.749996 0.017792
0.0933547 0.749996 0.0180362
0.11841 0.749996 0.0180819
0.143328 0.749996 0.0180056
0.168185 0.749996 0.0178531
0.193118 0.749996 0.0177005
0.218509 0.749996 0.0175326
0.249195 0.749996 0.0180514
0.283162 0.749996 0.0187228
0.319799 0.749996 0.0187991
0.360571 0.749889 0.0176852
0.405936 0.749554 0.0153201
0.454368 0.748531 0.0122988
0.503334 0.746014 0.00932326
0.550027 0.742107 0.00709544
0.591226 0.738521 0.00619516
0.62652 0.736553 0.00640879
0.658686 0.735683 0.00698863
0.68925 0.735454 0.00762951
0.718791 0.735546 0.00822461
0.747509 0.735821 0.00874342
0.774502 0.736202 0.00917067
0.8 0.73666 0.00950637
0.824994 0.737209 0.00976577
0.850004 0.737789 0.00999466
0.874998 0.738354 0.010193
0.899992 0.738903 0.0103304
0.925002 0.739437 0.0104219
0.949996 0.739879 0.0104524
0.975006 0.740261 0.0104677
1 0.740536 0.0104524
0.0198825 0.77499 0.0195315
0.0450599 0.77499 0.0197299
0.070222 0.77499 0.0198825
0.0952926 0.77499 0.0199588
0.120287 0.77499 0.0199588
0.145235 0.77499 0.0198978
0.170169 0.77499 0.0198215
0.195254 0.77499 0.0197604
0.221195 0.77499 0.0197757
0.252552 0.77499 0.0203098
0.286503 0.77499 0.0208133
0.323308 0.77499 0.0206149
0.364157 0.77499 0.0192264
0.409125 0.77499 0.0166781
0.456413 0.774853 0.0135653
0.504189 0.774182 0.0104982
0.550362 0.772351 0.0080415
0.591592 0.769467 0.0068513
0.626871 0.7673 0.00689708
0.659113 0.76611 0.00730907
0.68957 0.76556 0.00782788
0.718959 0.765393 0.00833143
0.747616 0.765454 0.00877394
0.774517 0.765667 0.00914015
0.799969 0.765972 0.00943008
0.824994 0.766369 0.00965896
0.850004 0.766781 0.00985733
0.874998 0.767224 0.0100252
0.899992 0.767651 0.0101778
0.925002 0.768048 0.0102846
0.949996 0.768444 0.0103456
0.975006 0.768719 0.0103609
1 0.768902 0.0103456
0.0207065 0.8 0.0203403
0.045716 0.8 0.0203708
0.0707103 0.8 0.0203708
0.0957046 0.8 0.0203708
0.120714 0.8 0.0203708
0.145708 0.8 0.0203708
0.170718 0.8 0.0203708
0.196033 0.8 0.0204013
0.22295 0.8 0.0205997
0.254978 0.8 0.0212558
0.289219 0.8 0.0217136
0.326406 0.8 0.0213474
0.367498 0.8 0.0198062
0.411933 0.8 0.0172427
0.45832 0.799985 0.0141451
0.505089 0.799939 0.0111086
0.550591 0.799664 0.00857557
0.591455 0.798337 0.00729381
0.626886 0.796902 0.00717174
0.659251 0.795758 0.00749218
0.689754 0.794995 0.00793469
0.719081 0.794598 0.0083772
0.747646 0.794476 0.00877394
0.774517 0.794568 0.00909438
0.799954 0.794736 0.00933852
0.824994 0.79498 0.00955215
0.850004 0.795254 0.00972
0.874998 0.795575 0.00988785
0.899992 0.795895 0.0100252
0.925002 0.796216 0.0101472
0.949996 0.796475 0.0102083
0.975006 0.796674 0.0102083
1 0.796796 0.0102083
0.0207218 0.824994 0.0203708
0.045716 0.824994 0.0203708
0.0707103 0.824994 0.0203708
0.0957046 0.824994 0.0203708
0.120714 0.824994 0.0203708
0.145708 0.824994 0.0203708
0.170718 0.824994 0.0203708
0.196185 0.824994 0.0204166
0.224277 0.824994 0.0207523
0.256931 0.824994 0.0214847
0.291615 0.824994 0.0218509
0.32903 0.824994 0.0213931
0.370062 0.824994 0.019791
0.414237 0.824994 0.0172122
0.459983 0.824994 0.0142214
0.505898 0.824994 0.0112764
0.550698 0.824979 0.00877394
0.591012 0.824781 0.00750744
0.626581 0.82443 0.00726329
0.659129 0.823774 0.00749218
0.689738 0.823163 0.00790417
0.719066 0.822782 0.00831617
0.7476 0.822614 0.00869764
0.774456 0.822599 0.00898756
0.799939 0.822644 0.00921645
0.824994 0.822766 0.00941482
0.850004 0.822919 0.00956741
0.874998 0.823102 0.00972
0.899992 0.823301 0.00985733
0.925002 0.823484 0.00996414
0.949996 0.823636 0.0100252
0.975006 0.823758 0.0100252
1 0.823819 0.0100252
0.0207218 0.850004 0.0203708
0.045716 0.850004 0.0203708
0.0707103 0.850004 0.0203708
0.0957046 0.850004 0.0203708
0.120714 0.850004 0.0203708
0.145708 0.850004 0.0203708
0.170748 0.850004 0.0203708
0.196475 0.850004 0.0204471
0.225834 0.850004 0.0209049
0.258885 0.850004 0.0216068
0.293736 0.850004 0.0218509
0.331228 0.850004 0.0212406
0.372259 0.850004 0.0195315
0.416236 0.850004 0.0169375
0.461418 0.850004 0.0140383
0.506783 0.850004 0.0111849
0.55053 0.850004 0.00885023
0.590326 0.850004 0.00758373
0.626032 0.849989 0.00723278
0.658747 0.849821 0.00740063
0.689464 0.849622 0.0077821
0.718837 0.849485 0.00819409
0.747326 0.849393 0.00854505
0.77435 0.849363 0.00883497
0.799969 0.849378 0.00906386
0.824994 0.849409 0.00924697
0.850004 0.849454 0.00939956
0.874998 0.849515 0.00955215
0.899992 0.849577 0.00967422
0.925002 0.849622 0.00979629
0.949996 0.849668 0.00984207
0.975006 0.849699 0.00984207
1 0.849714 0.00984207
0.0207218 0.874998 0.0203708
0.045716 0.874998 0.0203708
0.0707103 0.874998 0.0203708
0.0957046 0.874998 0.0203708
0.120714 0.874998 0.0203708
0.145724 0.874998 0.0203708
0.170916 0.874998 0.0203861
0.197162 0.874998 0.0205234
0.227695 0.874998 0.0211032
