datas/cubes/TC - RESOLUTE_40.cube
TITLE "Generate by Resolve"
LUT_3D_SIZE 5
0 1.5259e-05 0.00077821
0.182193 4.57771e-05 0.000961318
0.533959 0 0
0.806027 0 0
0.968505 0 0
0 0.194965 0
0.18201 0.190997 0.000350958
0.588129 0.155535 0
0.840681 0.170993 0
0.998474 0.197894 0.00495918
0 0.557885 0
0.150317 0.566964 0
0.587396 0.542184 0.000350958
0.850004 0.569085 0.0277562
1 0.594553 0.0260471
0.0413977 0.850004 0.0406958
0.195911 0.850004 0.0411994
0.60119 0.849317 0.0171511
0.849897 0.83946 0.0186923
1 0.84361 0.0204166
0.0414435 1 0.0407416
0.219684 1 0.043473
0.607385 1 0.0170291
0.849271 1 0.0174105
1 1 0.0189822
0 0.00347906 0.171725
0.174289 0 0.211948
0.534356 0 0.157717
0.808026 0 0.150652
0.970016 0 0.155856
0 0.203006 0.160861
0.171649 0.198489 0.181903
0.574243 0.164401 0.176486
0.847745 0.184131 0.196811
0.999771 0.213321 0.228351
0 0.565057 0.150011
0.150744 0.574563 0.153429
0.592355 0.556191 0.19144
0.850004 0.574319 0.186557
1 0.599222 0.192279
0.0426947 0.850004 0.207706
0.197742 0.850004 0.208713
0.590311 0.849699 0.171389
0.8486 0.840436 0.19794
1 0.843412 0.204578
0.0461738 1 0.227817
0.215747 1 0.2262
0.58793 1 0.173312
0.844099 1 0.173297
1 1 0.188022
0 0.0184787 0.402197
0.149996 0.000198367 0.528206
0.5187 0 0.525856
0.801923 0 0.498054
0.966079 0 0.520775
0 0.241093 0.329244
0.149996 0.24506 0.349111
0.570275 0.159991 0.563531
0.847608 0.183062 0.587198
0.999786 0.212665 0.622599
0 0.592035 0.300999
0.150469 0.601526 0.308461
0.56965 0.563073 0.556634
0.84921 0.580468 0.581323
1 0.603601 0.604456
0.0703288 0.850004 0.35903
0.222644 0.850004 0.361532
0.536706 0.849348 0.540413
0.824765 0.832105 0.5402
0.996643 0.832242 0.568032
0.0682231 1 0.355688
0.231891 1 0.368277
0.525856 1 0.545739
0.809949 1 0.486336
0.990127 1 0.502861
0 0.029221 0.658473
0.149996 0.00793469 0.764508
0.45359 0 0.816922
0.803281 0 0.791348
0.968566 0 0.802014
0 0.29131 0.489555
0.149996 0.286793 0.591302
0.520226 0.179629 0.836912
0.849561 0.190997 0.84651
1 0.222293 0.849958
0 0.625788 0.56936
0.149996 0.640787 0.521828
0.411719 0.627543 0.740688
0.848493 0.583398 0.847105
1 0.604929 0.849378
0.0291295 0.850004 0.527214
0.181643 0.850004 0.528206
0.504829 0.849989 0.708476
0.80238 0.830304 0.807431
0.983124 0.828305 0.827085
0.0261234 1 0.530205
0.184344 1 0.535637
0.5066 1 0.677119
0.789654 1 0.791821
0.96788 0.999847 0.815763
0 0.037705 0.857221
0.149996 0.018143 0.943389
0.398123 0 0.979248
0.808789 0 0.968521
0.970016 0 0.970733
0 0.324392 0.661616
0.149996 0.315663 0.784817
0.479698 0.204395 0.997421
0.849867 0.201907 0.999893
1 0.232639 1
0 0.653284 0.764965
0.149996 0.668986 0.690455
0.366522 0.65922 0.897246
0.844022 0.593027 1
1 0.609461 1
0.0258488 0.850004 0.680446
0.176547 0.850004 0.683192
0.462028 0.850004 0.885832
0.757748 0.847227 0.951766
0.948135 0.840574 0.981369
0.0258793 1 0.680446
0.18265 1 0.686961
0.46894 1 0.853468
0.769482 1 0.943938
0.962188 1 0.970764
