datas/cubes/TC - FLOURISH_40.cube
TITLE "Generate by Resolve"
LUT_3D_SIZE 5
0 0.00343328 0.01944
0.168872 0.000549325 0.013901
0.61593 0 0
0.850004 0 0
1 0 0
0 0.193149 0.00128176
0.154925 0.194949 0
0.640894 0.149996 0
0.850004 0.149996 0
1 0.149996 0
0 0.528893 0
0.149996 0.56643 0
0.567514 0.528572 0.0130617
0.850004 0.530907 0.0103914
1 0.549081 0.015198
0.00561532 0.850004 0.00430304
0.155612 0.850004 0.00430304
0.564721 0.850004 0
0.850004 0.84538 0.0999313
1 0.84538 0.0999313
0.00561532 1 0.00430304
0.155612 1 0.00430304
0.581231 1 0.000564584
0.850004 0.995377 0.0999313
1 0.995377 0.0999313
0 1.5259e-05 0.242725
0.164263 0 0.231403
0.615167 0 0.149996
0.850004 0 0.149996
1 0 0.149996
0.000762951 0.187945 0.223804
0.158572 0.191821 0.224018
0.652491 0.150042 0.153384
0.850004 0.149996 0.149996
1 0.149996 0.149996
0 0.54081 0.149996
0.149996 0.579644 0.149996
0.583841 0.541085 0.170901
0.850004 0.540764 0.162997
1 0.558511 0.167926
0.00561532 0.850004 0.154299
0.155612 0.850004 0.154299
0.577066 0.850004 0.149996
0.850004 0.84538 0.249928
1 0.84538 0.249928
0.00561532 1 0.154299
0.155535 1 0.154437
0.583124 1 0.150652
0.850004 0.995377 0.249928
1 0.995377 0.249928
0 0 0.696925
0.149996 0 0.69192
0.585718 0 0.574365
0.850004 0 0.475608
1 0 0.457465
0 0.16878 0.684215
0.149996 0.173846 0.695247
0.638972 0.149996 0.620722
0.850004 0.149996 0.57229
1 0.149996 0.596384
0 0.518364 0.61944
0.149996 0.553552 0.654902
0.583825 0.546654 0.552651
0.850004 0.53341 0.530251
1 0.548882 0.545495
0 0.850004 0.578454
0.149996 0.850004 0.619562
0.525658 0.850004 0.473915
0.850004 0.847456 0.51136
1 0.847333 0.501366
0 1 0.637278
0.149996 1 0.643076
0.523766 1 0.464591
0.850004 0.997406 0.520409
1 0.997986 0.467964
0 0 0.850004
0.149996 0 0.850004
0.555108 0 0.850004
0.850004 0 0.850004
1 0 0.850004
0 0.158495 0.850004
0.149996 0.165118 0.850004
0.624537 0.149996 0.850004
0.850004 0.149996 0.850004
1 0.149996 0.850004
0 0.512718 0.850004
0.150057 0.545327 0.850004
0.585107 0.540703 0.850004
0.850004 0.525353 0.850004
1 0.539956 0.850004
0.0389715 0.850004 0.850004
0.188968 0.850004 0.850004
0.536919 0.850004 0.850004
0.850004 0.849775 0.847669
1 0.845701 0.843565
0.0389715 1 0.850004
0.188968 1 0.850004
0.527214 1 0.850004
0.850004 0.999649 0.836332
1 0.999237 0.823514
0 0 1
0.149996 0 1
0.550011 0 1
0.850004 0 1
1 0 1
0 0.155352 1
0.149996 0.16318 1
0.632563 0.149996 1
0.850004 0.149996 1
1 0.149996 1
0 0.516579 1
0.149996 0.550668 1
0.595514 0.54464 1
0.850004 0.529503 1
1 0.544244 1
0.0389715 0.850004 1
0.188968 0.850004 1
0.5393 0.850004 1
0.850004 0.849897 1
1 0.842969 1
0.0389715 1 1
0.188968 1 1
0.524727 1 1
0.850004 1 1
1 1 1
