datas/cubes/TC - SELECT_40.cube
TITLE "Generate by Resolve"
LUT_3D_SIZE 33
0.00352483 0.00453193 0.00987259
0.0326696 0.00341802 0.00860609
0.0656596 0.00192264 0.0071107
0.0987259 0.000518807 0.00567636
0.131334 0 0.00444038
0.163409 7.62951e-05 0.00354009
0.194705 0.00123598 0.00332647
0.22565 0.00292973 0.00411994
0.257984 0.00479133 0.00610361
0.293034 0.00650034 0.00798047
0.331518 0.00776684 0.00944533
0.375463 0.00798047 0.00993362
0.431861 0.00505074 0.00747692
0.509957 0 0.00128176
0.594415 0 0
0.667872 0 0
0.699992 0 0
0.718746 0 0
0.737499 0 0
0.756252 0 0
0.77499 0 0
0.793744 0 0
0.812497 0 0
0.83125 0 0
0.850004 0 0
0.868742 0 0
0.887495 0 0
0.906249 0 0
0.925002 0 0
0.943755 0 0
0.962493 0 0
0.981247 0 0
1 0 0
0.00180056 0.0286412 0.00891127
0.0295109 0.027451 0.00724804
0.0621042 0.0257877 0.00593576
0.0955673 0.024033 0.00479133
0.12871 0.0226902 0.00381476
0.161303 0.0219272 0.00314336
0.193133 0.0220493 0.00309758
0.224155 0.0228428 0.00408942
0.256275 0.0240177 0.00605783
0.290974 0.0252689 0.00787366
0.328908 0.0264286 0.00933852
0.372259 0.0267948 0.0099794
0.427344 0.0242161 0.0078584
0.502815 0.0187381 0.00157168
0.587701 0.0187381 0
0.665431 0.0187381 0
0.699992 0.0187381 0
0.718746 0.0187381 0
0.737499 0.0187381 0
0.756252 0.0187381 0
0.77499 0.0187381 0
0.793744 0.0187381 0
0.812497 0.0187381 0
0.83125 0.0187381 0
0.850004 0.0187381 0
0.868742 0.0187381 0
0.887495 0.0187381 0
0.906249 0.0187381 0
0.925002 0.0187381 0
0.943755 0.0187381 0
0.962493 0.0187381 0
0.981247 0.0187381 0
1 0.0187381 0
0.000396735 0.0573434 0.00784314
0.0235447 0.0564584 0.00601205
0.0568399 0.0541695 0.00375372
0.0915999 0.0518502 0.00296025
0.125277 0.0499275 0.00250248
0.158679 0.0482643 0.00233463
0.191394 0.0470436 0.0028687
0.223148 0.0462806 0.00437934
0.255009 0.0459144 0.00645457
0.289067 0.0454719 0.00820935
0.326406 0.0452125 0.009308
0.368734 0.0456245 0.0100099
0.422614 0.0434424 0.00825513
0.495613 0.0374914 0.00190738
0.581079 0.0374914 0
0.660121 0.0374914 0
0.699992 0.0374914 0
0.718746 0.0374914 0
0.737499 0.0374914 0
0.756252 0.0374914 0
0.77499 0.0374914 0
0.793744 0.0374914 0
0.812497 0.0374914 0
0.83125 0.0374914 0
0.850004 0.0374914 0
0.868742 0.0374914 0
0.887495 0.0374914 0
0.906249 0.0374914 0
0.925002 0.0374914 0
0.943755 0.0374914 0
0.962493 0.0374914 0
0.981247 0.0374914 0
1 0.0374914 0
0 0.0873121 0.00682078
0.0197604 0.0865797 0.00552377
0.0487068 0.0849928 0.00251774
0.0857404 0.0821546 0.000976577
0.121462 0.0795911 0.00112917
0.155657 0.0775464 0.00164797
0.18941 0.0756695 0.00282292
0.222339 0.0740063 0.00482185
0.254597 0.0726177 0.00727855
0.288319 0.0711986 0.0093843
0.325032 0.0697795 0.0107576
0.365835 0.0685283 0.0113985
0.417502 0.0652628 0.00965896
0.487999 0.0578164 0.00320439
0.574228 0.0562448 0
0.655009 0.0562448 0
0.699992 0.0562448 0
0.718746 0.0562448 0
0.737499 0.0562448 0
0.756252 0.0562448 0
0.77499 0.0562448 0
0.793744 0.0562448 0
0.812497 0.0562448 0
0.83125 0.0562448 0
0.850004 0.0562448 0
0.868742 0.0562448 0
0.887495 0.0562448 0
0.906249 0.0562448 0
0.925002 0.0562448 0
0.943755 0.0562448 0
0.962493 0.0562448 0
0.981247 0.0562448 0
1 0.0562448 0
0 0.117601 0.00712596
0.0187381 0.11696 0.00636301
0.0417334 0.116136 0.00357061
0.0762646 0.113985 0.000503548
0.115862 0.110536 0.000183108
0.152102 0.107912 0.00125124
0.186969 0.105806 0.00314336
0.221118 0.103899 0.00541695
0.254582 0.102251 0.00831617
0.288502 0.100816 0.0112306
0.324681 0.0988937 0.0131228
0.364141 0.0965133 0.0139773
0.412253 0.0923323 0.0125582
0.478355 0.0835584 0.00634775
0.564385 0.0760815 0
0.648997 0.0749981 0
0.699992 0.0749981 0
0.718746 0.0749981 0
0.737499 0.0749981 0
0.756252 0.0749981 0
0.77499 0.0749981 0
0.793744 0.0749981 0
0.812497 0.0749981 0
0.83125 0.0749981 0
0.850004 0.0749981 0
0.868742 0.0749981 0
0.887495 0.0749981 0
0.906249 0.0749981 0
0.925002 0.0749981 0
0.943755 0.0749981 0
0.962493 0.0749981 0
0.981247 0.0749981 0
1 0.0749981 0
0 0.148333 0.00929274
0.0187381 0.147677 0.00891127
0.0384375 0.147204 0.00701915
0.0657511 0.146349 0.00302129
0.105669 0.143435 0.000228885
0.146593 0.139681 0.000503548
0.183627 0.13695 0.00303655
0.219257 0.134722 0.00611887
0.253986 0.132906 0.00939956
0.288624 0.131334 0.0130465
0.324727 0.129625 0.0157778
0.363622 0.127367 0.0171511
0.408103 0.123751 0.0165866
0.467308 0.116258 0.0112764
0.548547 0.103075 0.0009308
0.636469 0.0945602 0
0.699825 0.0937362 0
0.718746 0.0937362 0
0.737499 0.0937362 0
0.756252 0.0937362 0
0.77499 0.0937362 0
0.793744 0.0937362 0
0.812497 0.0937362 0
0.83125 0.0937362 0
0.850004 0.0937362 0
0.868742 0.0937362 0
0.887495 0.0937362 0
0.906249 0.0937362 0
0.925002 0.0937362 0
0.943755 0.0937362 0
0.962493 0.0937362 0
0.981247 0.0937362 0
1 0.0937362 0
0 0.179522 0.0129244
0.0187381 0.178943 0.012726
0.0374914 0.178546 0.0117647
0.0589761 0.178317 0.0087129
0.0924544 0.177569 0.00260929
0.136065 0.173754 0.000274662
0.178027 0.169787 0.00181582
0.216052 0.166995 0.00602731
0.252674 0.164721 0.0104219
0.288594 0.162966 0.0148928
0.324926 0.161349 0.018555
0.363424 0.15938 0.0207065
0.405707 0.15668 0.0211185
0.458366 0.151263 0.0173648
0.530632 0.140734 0.00682078
0.618463 0.125948 9.15541e-05
0.696117 0.113481 0
0.718746 0.11249 0
0.737499 0.11249 0
0.756252 0.11249 0
0.77499 0.11249 0
0.793744 0.11249 0
0.812497 0.11249 0
0.83125 0.11249 0
0.850004 0.11249 0
0.868742 0.11249 0
0.887495 0.11249 0
0.906249 0.11249 0
0.925002 0.11249 0
0.943755 0.11249 0
0.962493 0.11249 0
0.981247 0.11249 0
1 0.11249 0
0 0.211276 0.0176394
0.0187381 0.210803 0.0174563
0.0374914 0.210437 0.0170291
0.0572366 0.210346 0.0150454
0.0852979 0.210498 0.0105745
0.121782 0.209339 0.00396735
0.167315 0.205219 0.00115969
0.210376 0.20119 0.00517281
0.249546 0.198291 0.0105592
0.287709 0.195987 0.0164034
0.325124 0.194263 0.0214542
0.363485 0.192584 0.0245365
0.404517 0.190478 0.0258946
0.452262 0.186786 0.0238956
0.515373 0.179126 0.0152132
0.598917 0.166171 0.00201419
0.686564 0.152148 0
0.718746 0.144793 0
0.737499 0.139849 0
0.756252 0.136065 0
0.77499 0.132937 0
0.793744 0.131304 0
0.812497 0.131243 0
0.83125 0.131243 0
0.850004 0.131243 0
0.868742 0.131243 0
0.887495 0.131243 0
0.906249 0.131243 0
0.925002 0.131243 0
0.943755 0.131243 0
0.962493 0.131243 0
0.981247 0.131243 0
1 0.131243 0
0.000396735 0.243854 0.0235447
0.0191043 0.243427 0.0233463
0.0378271 0.243153 0.023209
0.057435 0.24303 0.0222629
0.082002 0.243549 0.0192264
0.113451 0.243931 0.0138094
0.152407 0.242451 0.00720226
0.199435 0.238132 0.00544747
0.243885 0.234058 0.0103914
0.28484 0.231083 0.0170596
0.324666 0.228779 0.0238651
0.363775 0.227131 0.0285344
0.404395 0.225467 0.030869
0.448737 0.222995 0.0306096
0.504128 0.217807 0.0243229
0.579141 0.207767 0.00982681
0.666728 0.194461 0.000381476
0.718746 0.184405 0
0.737499 0.179156 0
0.756252 0.174136 0
0.77499 0.169451 0
0.793744 0.165179 0
0.812497 0.161547 0
0.83125 0.158404 0
0.850004 0.155596 0
0.868742 0.153475 0
0.887495 0.153246 0
0.906249 0.153353 0
0.925002 0.153445 0
0.943755 0.153582 0
0.962493 0.153719 0
0.981247 0.154177 0
1 0.154894 0
0.00308232 0.277287 0.030396
0.0217441 0.277073 0.0302892
0.0404212 0.27686 0.0301823
0.0594949 0.276768 0.0299687
0.0821088 0.277104 0.0282902
0.110231 0.278126 0.0244907
0.14342 0.278645 0.0186923
0.18471 0.276905 0.0124056
0.233143 0.272511 0.0117342
0.279194 0.268482 0.0177462
0.322133 0.265522 0.0252995
0.3635 0.263401 0.0320134
0.404593 0.26183 0.0358892
0.447379 0.260197 0.0373083
0.496803 0.257008 0.0336156
0.561608 0.250141 0.0214389
0.645838 0.238483 0.00410468
0.716487 0.226474 0
0.737499 0.220813 0
0.756252 0.215976 0
0.77499 0.211307 0
0.793744 0.206897 0
0.812497 0.202884 0
0.83125 0.199145 0
0.850004 0.195804 0
0.868742 0.193225 0
0.887495 0.19292 0
0.906249 0.193439 0
0.925002 0.194018 0
0.943755 0.194675 0
0.962493 0.195331 0
0.981247 0.195972 0
1 0.196628 0
0.00817884 0.312108 0.0378119
0.0268711 0.31194 0.0377356
0.0456092 0.311879 0.0377203
0.0643778 0.31194 0.0377356
0.0845808 0.312001 0.037171
0.109545 0.31281 0.0350347
0.140215 0.31429 0.0309453
0.175326 0.314763 0.0249943
0.218891 0.312795 0.0193942
0.269383 0.308339 0.0199588
0.317052 0.304448 0.0269017
0.361349 0.301793 0.0343786
0.404257 0.299947 0.0401923
0.447333 0.298451 0.0433051
0.492927 0.296574 0.0423743
0.549447 0.292256 0.0333715
0.625223 0.283375 0.0141299
0.707576 0.271733 0.000823987
0.737499 0.264027 0
0.756252 0.25922 0
0.77499 0.254597 0
0.793744 0.250248 0
0.812497 0.246265 0
0.83125 0.242512 0
0.850004 0.239216 0
0.868742 0.2365 0
0.887495 0.235843 0
0.906249 0.236362 0
0.925002 0.236881 0
0.943755 0.237552 0
0.962493 0.238224 0
0.981247 0.238819 0
1 0.239414 0
0.0130922 0.348409 0.0454414
0.0318456 0.348409 0.0454414
0.0506142 0.348531 0.0455024
0.0694133 0.348714 0.0455787
0.0884871 0.348775 0.0455024
0.110689 0.349142 0.0446021
0.139513 0.350652 0.0420996
0.171862 0.352224 0.0381628
0.209354 0.352468 0.0322728
0.255863 0.350088 0.0275425
0.3084 0.345602 0.0298009
0.357137 0.342031 0.0367285
0.402441 0.339757 0.0433967
0.446738 0.338064 0.0480049
0.491051 0.336599 0.0496986
0.542229 0.333837 0.0438544
0.607263 0.328054 0.0276493
0.690883 0.31809 0.00564584
0.737362 0.308141 0
0.756252 0.30341 0
0.77499 0.298817 0
0.793744 0.294575 0
0.812497 0.290532 0
0.83125 0.28687 0
0.850004 0.283497 0
0.868742 0.280659 0
0.887495 0.279545 0
0.906249 0.280003 0
0.925002 0.280537 0
0.943755 0.281056 0
0.962493 0.281666 0
0.981247 0.282338 0
1 0.282948 0
0.0176089 0.386572 0.0532845
0.0363775 0.386694 0.0533303
0.0551919 0.386954 0.0534371
0.073991 0.387243 0.0535439
0.0928359 0.387594 0.0536812
0.113008 0.387671 0.0534066
0.139254 0.388663 0.0521248
0.170825 0.390402 0.0496834
0.205188 0.391775 0.0456397
0.245594 0.391669 0.0398871
0.296086 0.388647 0.0361639
0.350027 0.384054 0.0399176
0.399283 0.38088 0.0463264
0.44506 0.378882 0.0516518
0.489952 0.377325 0.0547646
0.537987 0.375357 0.0521401
0.596094 0.371374 0.0391546
0.671122 0.363851 0.0151827
0.733669 0.354177 0.000457771
0.756252 0.348165 0
0.77499 0.343648 0
0.793744 0.339391 0
0.812497 0.335393 0
0.83125 0.331701 0
0.850004 0.328389 0
0.868742 0.325338 0
0.887495 0.32369 0
0.906249 0.324147 0
0.925002 0.324697 0
0.943755 0.325307 0
0.962493 0.326009 0
0.981247 0.326696 0
1 0.327398 0
0.0209659 0.426535 0.0606699
0.0397192 0.426871 0.0607767
0.0585031 0.427298 0.0608835
0.0772869 0.427726 0.0610056
0.0960708 0.428336 0.0611887
0.115129 0.428397 0.0611582
0.138537 0.428748 0.0606241
0.169024 0.430121 0.0592355
0.202991 0.431693 0.0567636
0.239994 0.432685 0.0523995
0.284627 0.431662 0.0467384
0.338872 0.427756 0.0448005
0.393576 0.423178 0.0493477
0.442588 0.420325 0.0548714
0.488289 0.418524 0.0584726
0.535119 0.416739 0.0581521
0.588891 0.413825 0.0479591
0.65539 0.40853 0.0264744
0.726101 0.40029 0.00390631
0.756252 0.393118 0
0.77499 0.388602 0
0.793744 0.38439 0
0.812497 0.380392 0
0.83125 0.376745 0
0.850004 0.373404 0
0.868742 0.370443 0
0.887495 0.368399 0
0.906249 0.36875 0
0.925002 0.369284 0
0.943755 0.369985 0
0.962493 0.370687 0
0.981247 0.371389 0
1 0.372091 0
0.0205386 0.468925 0.0658427
0.0391852 0.469474 0.065919
0.057847 0.470024 0.06598
0.0765087 0.470634 0.066041
0.0951247 0.471366 0.0661326
0.113832 0.471672 0.0661631
0.134493 0.471458 0.0661479
0.163989 0.471763 0.0660563
0.199557 0.472892 0.0651865
0.235889 0.473899 0.0627604
0.276768 0.474022 0.0578317
0.32607 0.471885 0.0526436
0.383062 0.467094 0.0527962
0.437675 0.462623 0.0572824
0.485985 0.460121 0.0612497
0.533165 0.458274 0.0614633
0.584421 0.455833 0.0538033
0.645609 0.451911 0.0347601
0.716869 0.445396 0.0091249
0.756252 0.438178 0
0.77499 0.433371 0
0.793744 0.429252 0
0.812497 0.425406 0
0.83125 0.421851 0
0.850004 0.418662 0
0.868742 0.415747 0
0.887495 0.413596 0
0.906249 0.413581 0
0.925002 0.414206 0
0.943755 0.414923 0
0.962493 0.415625 0
0.981247 0.416327 0
1 0.417029 0
0.0112001 0.515496 0.0654154
0.0296178 0.516213 0.0653391
0.0480354 0.51693 0.0652781
0.0664225 0.517739 0.0651865
0.0847639 0.518593 0.0650797
0.103227 0.519158 0.0650187
0.122316 0.518883 0.065095
0.149203 0.517937 0.0661936
0.189258 0.517174 0.0682078
0.228901 0.516991 0.0686503
0.269413 0.51696 0.0664225
0.315053 0.516045 0.0616464
0.369146 0.51252 0.0578775
0.428 0.507134 0.0592355
0.481666 0.503105 0.0626078
0.530602 0.500694 0.0625772
0.580682 0.498512 0.0561532
0.638437 0.495293 0.0388037
0.70692 0.490303 0.0134432
0.756252 0.483757 0
0.77499 0.478614 0
0.793744 0.47454 0
0.812497 0.470787 0
0.83125 0.467369 0
0.850004 0.464256 0
0.868742 0.461494 0
0.887495 0.459266 0
0.906249 0.458839 0
0.925002 0.45948 0
0.943755 0.460121 0
0.962493 0.460929 0
0.981247 0.46157 0
1 0.462303 0
0 0.567941 0.0565957
0.0187381 0.568841 0.0562448
0.0374914 0.569848 0.0558785
0.0562448 0.570855 0.0554971
0.0749981 0.571893 0.0551003
0.0937362 0.572839 0.0547494
0.11249 0.572702 0.0547951
0.131243 0.571344 0.0559854
0.164172 0.568292 0.0602579
0.210056 0.56527 0.0651102
0.255985 0.563165 0.0677653
0.302541 0.561486 0.0663767
0.353414 0.558938 0.0624247
0.412695 0.553735 0.0603342
0.472236 0.548211 0.0612802
0.525734 0.544488 0.0607919
0.577295 0.541955 0.054078
0.632547 0.539254 0.0381476
0.696712 0.535271 0.0146792
0.756252 0.529763 0
0.77499 0.524468 0
0.793744 0.520485 0
0.812497 0.516884 0
0.83125 0.513558 0
0.850004 0.510521 0
0.868742 0.507866 0
0.887495 0.505577 0
0.906249 0.504662 0
0.925002 0.505318 0
0.943755 0.505974 0
0.962493 0.506706 0
0.981247 0.507347 0
1 0.508003 0
0 0.62414 0.0426337
0.0187381 0.62504 0.0423133
0.0374914 0.626032 0.0419623
0.0562448 0.627039 0.0415961
0.0749981 0.627924 0.0412757
0.0937362 0.629099 0.0408637
0.11249 0.629023 0.0408942
0.131243 0.627832 0.0415198
0.149996 0.624781 0.0441749
0.179416 0.619898 0.0499886
0.227237 0.615228 0.0559396
0.279774 0.611322 0.0594492
0.333028 0.607721 0.0589914
0.391287 0.60293 0.0568093
0.455528 0.596185 0.0556802
0.516197 0.590478 0.0541848
0.571984 0.586694 0.0468147
0.627085 0.58381 0.0322576
0.687984 0.580346 0.010956
0.754314 0.575631 7.62951e-05
0.77499 0.570367 0
0.793744 0.566415 0
0.812497 0.562966 0
0.83125 0.559777 0
0.850004 0.556878 0
0.868742 0.554269 0
0.887495 0.551934 0
0.906249 0.550561 0
0.925002 0.55111 0
0.943755 0.551766 0
0.962493 0.552407 0
0.981247 0.552972 0
1 0.553628 0
0 0.679316 0.0305333
0.0187381 0.680171 0.0302739
0.0374914 0.681117 0.0299687
0.0562448 0.681971 0.0297246
0.0749981 0.682719 0.0294804
0.0937362 0.683742 0.0291905
0.11249 0.683864 0.0291447
0.131243 0.682902 0.0294499
0.149996 0.680781 0.0303655
0.16878 0.676204 0.0332952
0.195514 0.670787 0.0379797
0.245502 0.665339 0.0426947
0.302815 0.660304 0.0445716
0.362356 0.654948 0.0436561
0.428489 0.647715 0.0417029
0.496681 0.639811 0.0390021
0.560067 0.6336 0.0321965
0.619593 0.629053 0.0196231
0.679713 0.625208 0.00463874
0.743709 0.620798 0
0.77499 0.615778 0
0.793744 0.611658 0
0.812497 0.608255 0
0.83125 0.605158 0
0.850004 0.602396 0
0.868742 0.599847 0
0.887495 0.597635 0
0.906249 0.595941 0
0.925002 0.596262 0
0.943755 0.596811 0
0.962493 0.597284 0
0.981247 0.597772 0
1 0.598245 0
0 0.728435 0.0282597
0.0187381 0.72903 0.028275
0.0374914 0.729702 0.0283207
0.0562448 0.730343 0.0284428
0.0749981 0.730877 0.0285496
0.0937362 0.731548 0.028687
0.11249 0.731899 0.028748
0.131243 0.73138 0.0286564
0.149996 0.730343 0.0279545
0.16875 0.729458 0.0237736
0.187549 0.72578 0.0224613
0.212634 0.72015 0.0248264
0.266575 0.714443 0.0260929
0.327306 0.708721 0.0245975
0.39321 0.701579 0.0215
0.466484 0.692088 0.0177157
0.538918 0.682979 0.011902
0.605585 0.675914 0.00495918
0.669184 0.670222 0
0.732998 0.665278 0
0.774609 0.660212 0
0.793744 0.655711 0
0.812497 0.652354 0
0.83125 0.649348 0
0.850004 0.646647 0
0.868742 0.64416 0
0.887495 0.641993 0
0.906249 0.640253 0
0.925002 0.639994 0
0.943755 0.640375 0
0.962493 0.640818 0
0.981247 0.641123 0
1 0.641489 0
0 0.769772 0.03299
0.0187381 0.769955 0.0330968
0.0374914 0.770199 0.0332189
0.0562448 0.770413 0.033341
0.0749981 0.770611 0.0334478
0.0937362 0.770916 0.0335699
0.11249 0.77113 0.0336309
0.131243 0.770977 0.0335851
0.149996 0.770489 0.0332189
0.16875 0.769985 0.030518
0.187488 0.769757 0.0234836
0.206241 0.769192 0.0153201
0.231922 0.766201 0.0109255
0.29099 0.761715 0.00698863
0.355337 0.755398 0.00167849
0.428611 0.746029 0.00134279
0.507836 0.734768 0.000793469
0.583276 0.724743 0
0.653834 0.716396 0
0.720897 0.709667 0
0.77145 0.703807 0
0.793744 0.698817 0
0.812497 0.695216 0
0.83125 0.692317 0
0.850004 0.689677 0
0.868742 0.687221 0
0.887495 0.685008 0
0.906249 0.683177 0
0.925002 0.682429 0
0.943755 0.682719 0
0.962493 0.683009 0
0.981247 0.683238 0
1 0.683467 0
0 0.793744 0.0373693
0.0187381 0.793744 0.0374762
0.0374914 0.793744 0.037583
0.0562448 0.793744 0.037705
0.0749981 0.793744 0.0377813
0.0937362 0.793744 0.0378882
0.11249 0.793744 0.0379797
0.131243 0.793744 0.0379492
0.149996 0.793744 0.0377661
0.16875 0.793744 0.0363012
0.187488 0.793744 0.0300603
0.206241 0.793744 0.0212711
0.224994 0.793744 0.0114443
0.262867 0.793744 0.00146487
0.321614 0.793744 0
0.390295 0.793179 0
0.469932 0.786526 0
0.552956 0.775265 0
0.631891 0.764111 0
0.705226 0.754482 0
0.765286 0.747005 0
0.793744 0.741268 0
0.812497 0.737331 0
0.83125 0.734371 0
0.850004 0.731746 0
0.868742 0.729305 0
0.887495 0.727047 0
0.906249 0.725032 0
0.925002 0.723903 0
0.943755 0.724056 0
0.962493 0.724208 0
0.981247 0.724269 0
1 0.724346 0
0 0.812497 0.0396887
0.0187381 0.812497 0.0397192
0.0374914 0.812497 0.039765
0.0562448 0.812497 0.0397955
0.0749981 0.812497 0.039826
0.0937362 0.812497 0.0398413
0.11249 0.812497 0.0398566
0.131243 0.812497 0.0398413
0.149996 0.812497 0.0398108
0.16875 0.812497 0.039292
0.187488 0.812497 0.0345006
0.206241 0.812497 0.0260166
0.224994 0.812497 0.016495
0.250385 0.812497 0.00567636
0.303197 0.812497 1.5259e-05
0.363073 0.812497 0
0.434943 0.812497 0
0.518029 0.812497 0
0.604105 0.809094 0
0.68571 0.799008 0
0.755032 0.790127 0
0.793515 0.783246 0
0.812497 0.778653 0
0.83125 0.775601 0
0.850004 0.772824 0
0.868742 0.770382 0
0.887495 0.768063 0
0.906249 0.765896 0
0.925002 0.76434 0
0.943755 0.76434 0
0.962493 0.76434 0
0.981247 0.76434 0
1 0.764279 0
0 0.83125 0.0399176
0.0187381 0.83125 0.0399176
0.0374914 0.83125 0.0399176
0.0562448 0.83125 0.0399176
0.0749981 0.83125 0.0399176
0.0937362 0.83125 0.0399176
0.11249 0.83125 0.0399176
0.131243 0.83125 0.0399176
0.149996 0.83125 0.0399176
0.16875 0.83125 0.039704
0.187488 0.83125 0.0364233
0.206241 0.83125 0.0284886
0.224994 0.83125 0.0192264
0.245548 0.83125 0.00877394
0.293355 0.83125 0.000518807
0.349966 0.83125 0
0.416358 0.83125 0
0.493996 0.83125 0
0.579187 0.83125 0
0.664363 0.83125 0
0.738888 0.829969 0
0.790005 0.823743 0
0.812497 0.818875 0
0.83125 0.815854 0
0.850004 0.813123 0
0.868742 0.810575 0
0.887495 0.808194 0
0.906249 0.806027 0
0.925002 0.804257 0
0.943755 0.803861 0
0.962493 0.803708 0
0.981247 0.803571 0
1 0.803342 0
0 0.850004 0.0399176
0.0187381 0.850004 0.0399176
0.0374914 0.850004 0.0399176
0.0562448 0.850004 0.0399176
0.0749981 0.850004 0.0399176
0.0937362 0.850004 0.0399176
0.11249 0.850004 0.0399176
0.131243 0.850004 0.0399176
0.149996 0.850004 0.0399176
0.16875 0.850004 0.039826
0.187488 0.850004 0.0377356
0.206241 0.850004 0.030396
0.224994 0.850004 0.0211643
0.244251 0.850004 0.0111238
0.286244 0.850004 0.00164797
0.341604 0.850004 0
0.405661 0.850004 0
0.480797 0.850004 0
0.564599 0.850004 0
0.650233 0.850004 0
0.726757 0.850004 0
0.785183 0.849454 0
0.812497 0.847379 0
0.83125 0.846616 0
0.850004 0.846616 0
0.868742 0.846616 0
0.887495 0.846418 0
0.906249 0.844831 0
0.925002 0.842985 0
0.943755 0.842237 0
0.962493 0.841947 0
0.981247 0.841657 0
1 0.841306 0
0 0.868742 0.0399176
0.0187381 0.868742 0.0399176
0.0374914 0.868742 0.0399176
0.0562448 0.868742 0.0399176
0.0749981 0.868742 0.0399176
0.0937362 0.868742 0.0399176
0.11249 0.868742 0.0399176
0.131243 0.868742 0.0399176
0.149996 0.868742 0.0399176
0.16875 0.868742 0.0398871
0.187488 0.868742 0.038819
0.206241 0.868742 0.032105
0.224994 0.868742 0.0229343
0.243748 0.868742 0.0131838
0.280034 0.868742 0.00283818
0.334295 0.868742 0
0.39617 0.868742 0
0.469108 0.868742 0
0.551781 0.868742 0
0.637842 0.868742 0
0.716686 0.868742 0
0.779873 0.868513 0
0.812497 0.866575 0
0.83125 0.8654 0
0.850004 0.86537 0
0.868742 0.86537 0
0.887495 0.86537 0
0.906249 0.86537 0
0.925002 0.86537 0
0.943755 0.865309 0
0.962493 0.865232 0
0.981247 0.865141 0
1 0.865049 0
0 0.887495 0.0399176
0.0187381 0.887495 0.0399176
0.0374914 0.887495 0.0399176
0.0562448 0.887495 0.0399176
0.0749981 0.887495 0.0399176
0.0937362 0.887495 0.0399176
0.11249 0.887495 0.0399176
0.131243 0.887495 0.0399176
0.149996 0.887495 0.0399176
0.16875 0.887495 0.0399176
0.187488 0.887495 0.0393835
0.206241 0.887495 0.0336767
0.224994 0.887495 0.024567
0.243748 0.887495 0.0149538
0.274311 0.887495 0.00411994
0.327657 0.887495 0
0.387839 0.887495 0
0.458351 0.887495 0
0.539788 0.887495 0
0.626093 0.887495 0
0.70692 0.887495 0
0.773831 0.887449 0
0.812482 0.885801 0
0.83125 0.884245 0
0.850004 0.884123 0
0.868742 0.884123 0
0.887495 0.884123 0
0.906249 0.884123 0
0.925002 0.884123 0
0.943755 0.884123 0
0.962493 0.884123 0
0.981247 0.884123 0
1 0.884123 0
0 0.906249 0.0399176
0.0187381 0.906249 0.0399176
0.0374914 0.906249 0.0399176
0.0562448 0.906249 0.0399176
0.0749981 0.906249 0.0399176
0.0937362 0.906249 0.0399176
0.11249 0.906249 0.0399176
0.131243 0.906249 0.0399176
0.149996 0.906249 0.0399176
