datas/cubes/TC - RESOLUTE_20.cube
TITLE "Generate by Resolve"
LUT_3D_SIZE 9
0 0 0.000381476
0.100069 0 0.00128176
0.216098 1.5259e-05 0.00047303
0.355581 0 0
0.516976 0 0
0.657923 0 0
0.778012 0 0
0.884245 0 0
0.984253 0 0
0.000183108 0.104448 0.000534066
0.100267 0.104311 0.000579843
0.218463 0.102113 0.000564584
0.36466 0.0999924 0
0.528099 0.0999924 0
0.665141 0.0999924 0
0.783352 0.0999924 0
0.884428 0.0999924 0
0.985077 0.0999924 0
0 0.222477 0
0.0999924 0.223468 0
0.216007 0.220493 0.000167849
0.376135 0.211536 0
0.54406 0.202762 0
0.678477 0.204303 0
0.795346 0.210483 0
0.897963 0.216999 0.000442512
0.999237 0.223941 0.00248722
0 0.361288 0
0.0999924 0.366018 0
0.202197 0.365011 0
0.366674 0.359319 0
0.554131 0.355047 0.00047303
0.698726 0.360204 0.00885023
0.8 0.365255 0.0115206
0.899992 0.373251 0.0121309
1 0.381903 0.0126497
0 0.528939 0
0.0999924 0.535164 0
0.200153 0.533471 0
0.350179 0.533471 1.5259e-05
0.543694 0.521096 0.000183108
0.692302 0.527291 0.00888075
0.8 0.534539 0.0138705
0.899992 0.540749 0.01355
1 0.547265 0.0130312
0.00776684 0.689754 0.00749218
0.109987 0.693584 0.00968948
0.209857 0.692164 0.00895705
0.353475 0.692256 0.0116121
0.548547 0.675807 0.00408942
0.688289 0.672374 0.00706493
0.8 0.675715 0.0099031
0.899992 0.679347 0.0107271
1 0.681849 0.0106661
0.0207065 0.8 0.0203403
0.120714 0.8 0.0203708
0.22295 0.8 0.0205997
0.367498 0.8 0.0198062
0.550591 0.799664 0.00857557
0.689754 0.794995 0.00793469
0.799954 0.794736 0.00933852
0.899992 0.795895 0.0100252
1 0.796796 0.0102083
0.0207218 0.899992 0.0203708
0.120714 0.899992 0.0203708
0.229816 0.899992 0.0213016
0.376913 0.899992 0.0189212
0.549844 0.899992 0.00894179
0.68806 0.899992 0.00756847
0.799908 0.899992 0.0087892
0.899992 0.899992 0.00941482
1 0.899992 0.00958267
0.0207218 1 0.0203708
0.120714 1 0.0203708
0.234836 1 0.0217288
0.385153 1 0.017792
0.553689 1 0.00851453
0.687831 1 0.00755322
0.799634 1 0.00869764
0.899992 1 0.00933852
1 1 0.00949111
0 4.57771e-05 0.102892
0.100008 3.0518e-05 0.106935
0.216144 3.0518e-05 0.10782
0.356039 0 0.101015
0.517906 0 0.0999924
0.658549 0 0.0999924
0.778683 0 0.0999924
0.884352 0 0.0999924
0.984466 0 0.0999924
0 0.10576 0.106996
0.100008 0.106355 0.104295
0.217868 0.102464 0.108476
0.364813 0.0999924 0.101488
0.529015 0.0999924 0.0999924
0.665858 0.0999924 0.0999924
0.783978 0.0999924 0.0999924
0.884886 0.0999924 0.0999924
0.985641 0.0999924 0.0999924
0.00030518 0.222904 0.102022
0.100252 0.223941 0.102235
0.216098 0.221454 0.105089
0.374289 0.213138 0.100343
0.539864 0.204898 0.0999924
0.67747 0.206882 0.100084
0.796948 0.213977 0.102434
0.899321 0.221164 0.1075
0.999756 0.228412 0.113176
0 0.362799 0.0999924
0.0999924 0.367666 0.0999924
0.202457 0.366979 0.0999924
0.369299 0.362234 0.101869
0.557015 0.357076 0.100786
0.698665 0.362768 0.109071
0.8 0.368856 0.112078
0.899992 0.377401 0.112856
1 0.38613 0.114534
0 0.531151 0.0999924
0.0999924 0.537163 0.0999924
0.200229 0.535729 0.0999924
0.352667 0.535866 0.100008
0.54612 0.524102 0.102373
0.694118 0.529854 0.109407
0.8 0.536355 0.113771
0.899992 0.54255 0.11342
1 0.548638 0.112902
0.00860609 0.691432 0.108293
0.110628 0.694438 0.110323
0.210925 0.693492 0.109651
0.356023 0.693248 0.11194
0.549889 0.677195 0.104433
0.68864 0.673655 0.108659
0.8 0.676753 0.110369
0.899992 0.680125 0.110765
1 0.682383 0.110719
0.0207218 0.8 0.120348
0.120714 0.8 0.120363
0.223453 0.8 0.120623
0.368109 0.8 0.119753
0.549599 0.799832 0.108721
0.689311 0.795544 0.107958
0.799893 0.795071 0.109804
0.899992 0.796094 0.110552
1 0.796872 0.110674
0.0207218 0.899992 0.120394
0.120714 0.899992 0.120562
0.229755 0.899992 0.121294
0.375799 0.899992 0.119051
0.547524 0.899992 0.109194
0.686656 0.899992 0.107469
0.799649 0.899992 0.10869
0.899992 0.899992 0.109377
1 0.899992 0.109575
0.0208133 1 0.122057
0.12076 1 0.121492
0.234195 1 0.121691
0.382818 1 0.118105
0.550729 1 0.108812
0.686122 1 0.107439
0.799207 1 0.108598
0.899992 1 0.109239
1 1 0.109407
0 0.00173953 0.210864
0.0999924 0.000823987 0.217075
0.212131 0 0.230961
0.355001 0 0.218128
0.517174 0 0.203845
0.658488 0 0.200214
0.779004 0 0.20032
0.884932 0 0.201221
0.985016 0 0.20293
0 0.109895 0.212238
0.0999924 0.111192 0.209354
0.212573 0.103075 0.231312
0.364508 0.0999924 0.220584
0.528984 0.0999924 0.207248
0.666316 0.0999924 0.203601
0.784604 0.0999924 0.205951
0.885588 0.0999924 0.209445
0.986358 0.0999924 0.214206
0 0.22649 0.205417
0.0999924 0.227863 0.204593
0.210819 0.224247 0.215946
0.367376 0.215717 0.221851
0.537118 0.207202 0.21323
0.678203 0.209354 0.215457
0.798871 0.21706 0.223392
0.899809 0.224338 0.231235
0.999878 0.231662 0.23917
0 0.364599 0.199985
0.0999924 0.36994 0.199985
0.203616 0.369177 0.205783
0.368444 0.366308 0.220356
0.555215 0.360174 0.215228
0.695766 0.366308 0.22359
0.8 0.375738 0.231052
0.899992 0.385046 0.235798
1 0.393973 0.239872
0 0.532525 0.2
0.0999924 0.538796 0.201007
0.200366 0.53727 0.201709
0.35137 0.538186 0.207156
0.546166 0.528099 0.220722
0.695476 0.531487 0.216968
0.8 0.537148 0.21828
0.899992 0.543496 0.219364
1 0.549615 0.221134
0.00941482 0.692119 0.214603
0.111604 0.694926 0.218448
0.211872 0.694209 0.21706
0.355398 0.69369 0.217136
0.547555 0.678813 0.210834
0.687129 0.674952 0.224994
0.799817 0.677592 0.224353
0.899992 0.680629 0.223011
1 0.68275 0.224323
0.0213474 0.8 0.228855
0.121508 0.8 0.230198
0.223865 0.8 0.229358
0.365637 0.8 0.224887
0.545159 0.799847 0.210697
0.686824 0.796048 0.215946
0.799298 0.795224 0.223957
0.899992 0.796033 0.22623
1 0.796704 0.227283
0.0222782 0.899992 0.235126
0.122271 0.899992 0.235187
0.229023 0.899992 0.234333
0.370809 0.899992 0.226474
0.54168 0.899992 0.211612
0.683314 0.899992 0.208484
0.798154 0.899992 0.215702
0.899992 0.899992 0.220859
1 0.899992 0.222187
0.0230869 1 0.238895
0.122866 1 0.238148
0.232868 1 0.238087
0.376181 1 0.228061
0.543954 1 0.211658
0.682155 1 0.207919
0.79704 1 0.211643
0.899992 1 0.217411
1 1 0.219013
0 0.00561532 0.325368
0.0999924 0.00331121 0.336507
0.200824 0 0.377813
0.349783 0 0.369421
0.514183 0 0.346242
0.656992 0 0.334157
0.778332 0 0.333608
0.88481 0 0.337804
0.984665 0 0.34406
0 0.116625 0.31693
0.0999924 0.116869 0.322469
0.200946 0.107179 0.368414
0.359609 0.0999924 0.376501
0.526696 0.0999924 0.356725
0.664927 0.0999924 0.350835
0.78381 0.0999924 0.354376
0.884718 0.0999924 0.360983
0.985367 0.0999924 0.369162
0 0.232868 0.319493
0.0999924 0.236622 0.30988
0.200092 0.235294 0.3122
0.362127 0.214755 0.377371
0.536248 0.206317 0.364904
0.678111 0.209232 0.366964
0.798947 0.217319 0.377462
0.89984 0.224353 0.388327
0.999893 0.231739 0.399283
0 0.373129 0.300374
0.0999924 0.378988 0.300252
0.201099 0.377401 0.305409
0.359228 0.370443 0.362646
0.543801 0.363821 0.369955
0.689982 0.368902 0.375555
0.8 0.379385 0.385901
0.899992 0.38854 0.394324
1 0.397284 0.40235
1.5259e-05 0.536004 0.300145
0.100282 0.542504 0.30045
0.202792 0.540856 0.302953
0.348959 0.54023 0.351705
0.543069 0.530221 0.363989
0.694118 0.533059 0.356481
0.8 0.539742 0.362875
0.899992 0.546151 0.369894
1 0.551339 0.375006
0.0158541 0.693919 0.328008
0.118318 0.696239 0.329732
0.218112 0.695293 0.330037
0.352987 0.694179 0.356374
0.538048 0.681193 0.344244
0.682612 0.674388 0.367514
0.798276 0.676677 0.363195
0.899992 0.67953 0.359655
1 0.681392 0.36228
0.0265354 0.8 0.34345
0.127031 0.8 0.343191
0.228061 0.8 0.345464
0.360372 0.8 0.364034
0.531685 0.799878 0.344778
0.680476 0.796246 0.342443
0.794751 0.793774 0.363027
0.89984 0.794064 0.370138
1 0.794553 0.372549
0.0287938 0.899992 0.341466
0.128801 0.899992 0.341375
0.231662 0.899992 0.349081
0.363149 0.899992 0.368338
0.526329 0.899992 0.346365
0.675303 0.899992 0.333165
0.792706 0.899992 0.341405
0.899443 0.899992 0.355184
1 0.899977 0.360586
0.0305028 1 0.338933
0.130068 1 0.339574
0.23508 1 0.35346
0.367025 1 0.372564
0.527367 1 0.347951
0.673243 1 0.332158
0.790722 1 0.332952
0.898817 1 0.343267
1 1 0.349554
0 0.00923171 0.451087
0.0999924 0.00640879 0.468833
0.199985 9.15541e-05 0.514107
0.324758 0 0.543481
0.509346 0 0.512917
0.653788 0 0.499657
0.775952 0 0.499031
0.883177 0 0.503578
0.983032 0 0.510384
0 0.123033 0.43241
0.0999924 0.122286 0.447852
0.199985 0.111894 0.503227
0.331823 0.100145 0.547433
0.523659 0.0999924 0.522759
0.662745 0.0999924 0.517159
0.782223 0.0999924 0.520607
0.883268 0.0999924 0.525994
0.9841 0.0999924 0.532692
0 0.245548 0.414618
0.0999924 0.250248 0.407874
0.199985 0.247517 0.424552
0.32752 0.222416 0.539422
0.535134 0.20499 0.531762
0.67744 0.208026 0.53373
0.79881 0.216526 0.543587
0.899809 0.223667 0.552682
0.999893 0.231327 0.561303
0 0.384161 0.420188
0.0999924 0.391959 0.413062
0.199985 0.392569 0.403388
0.312673 0.390433 0.460502
0.542794 0.362905 0.538521
0.689677 0.368078 0.542947
0.8 0.378698 0.552636
0.899992 0.388174 0.560082
1 0.397024 0.566155
0 0.546014 0.400488
0.100053 0.552438 0.401282
0.200229 0.550759 0.404227
0.341238 0.547601 0.459266
0.534829 0.531533 0.528313
0.68394 0.533043 0.532631
0.799603 0.54023 0.540658
0.899992 0.547158 0.547784
1 0.551797 0.552224
0.0221256 0.696422 0.417029
0.123812 0.698344 0.418753
0.223667 0.697475 0.418814
0.362936 0.693919 0.463355
0.525887 0.680064 0.518822
0.676112 0.672496 0.526345
0.793881 0.674052 0.522683
0.899916 0.676402 0.522942
1 0.678096 0.526406
0.035172 0.8 0.429511
0.135424 0.8 0.429084
0.236316 0.8 0.430762
0.365652 0.8 0.482811
0.518349 0.79968 0.520211
0.668818 0.794446 0.50602
0.787381 0.791058 0.520104
0.894728 0.790722 0.531273
0.998322 0.791119 0.53402
0.0350195 0.899992 0.428199
0.135149 0.899992 0.428107
0.238422 0.899992 0.431907
0.367758 0.899992 0.483818
0.512978 0.899992 0.522026
0.66125 0.899992 0.503685
0.783261 0.899901 0.499184
0.892607 0.899474 0.510063
0.996582 0.89926 0.519356
0.0341039 1 0.427832
0.134447 1 0.427832
0.24094 1 0.434134
0.371344 1 0.486076
0.512917 1 0.522866
0.657816 1 0.502388
0.77998 1 0.493172
0.890333 1 0.495293
0.995071 1 0.501427
0 0.0121462 0.582284
0.0999924 0.00933852 0.600931
0.199985 0.00140383 0.641825
0.303487 0 0.674174
0.497032 0 0.660975
0.652323 0 0.648234
0.775219 0 0.649165
0.882918 0 0.652445
0.983063 0 0.656123
0 0.128878 0.557488
0.0999924 0.127626 0.578897
0.199985 0.116838 0.633082
0.306706 0.102373 0.675258
0.515572 0.0999924 0.663737
0.662989 0.0999924 0.657588
0.782757 0.0999924 0.660883
0.883894 0.0999924 0.663722
0.98497 0.0999924 0.66743
0 0.259434 0.514504
0.0999924 0.264302 0.513603
0.199985 0.258961 0.549569
0.303655 0.234699 0.656474
0.527306 0.207126 0.673457
0.679255 0.208988 0.672908
0.799298 0.217655 0.680842
0.89987 0.22533 0.687099
0.999939 0.233112 0.693049
0 0.399435 0.532967
0.0999924 0.408896 0.519081
0.199985 0.411185 0.503243
0.300053 0.407279 0.546181
0.522316 0.370535 0.68159
0.691814 0.369253 0.684672
0.8 0.37998 0.692103
0.899992 0.390021 0.695888
1 0.398917 0.69836
0 0.555474 0.528435
0.0999924 0.562051 0.527977
0.199985 0.560937 0.52369
0.314214 0.560845 0.566171
0.490974 0.548211 0.644984
0.683223 0.533227 0.677104
0.799115 0.540032 0.68217
0.899992 0.547005 0.685588
1 0.551537 0.687099
0.00798047 0.699199 0.526589
0.109117 0.699977 0.528313
0.209415 0.69955 0.528038
0.345556 0.698741 0.569268
0.518929 0.683452 0.631159
0.66949 0.672297 0.667887
0.787045 0.672816 0.671473
0.894972 0.675212 0.674403
0.997742 0.677012 0.676493
0.026566 0.8 0.530236
0.126162 0.8 0.53048
0.227726 0.8 0.530877
0.364996 0.8 0.560128
0.525307 0.799481 0.620005
0.660609 0.792065 0.664012
0.780041 0.789441 0.665751
0.889494 0.789029 0.670329
0.994079 0.789319 0.67219
0.0237583 0.899992 0.532006
0.123964 0.899992 0.531868
0.227634 0.899992 0.532662
0.365896 0.899992 0.559991
0.521538 0.899992 0.61706
0.653559 0.899947 0.662455
0.773632 0.899092 0.661921
0.884657 0.898268 0.661219
0.990814 0.897765 0.663417
0.0213474 1 0.533578
0.122164 1 0.533028
0.228595 1 0.535271
0.367346 1 0.562356
0.520241 1 0.615412
0.6495 1 0.660548
0.769284 1 0.659403
0.880751 1 0.657237
0.987442 0.999939 0.65716
0 0.0146181 0.704234
0.0999924 0.0119631 0.723262
0.199985 0.00396735 0.757259
0.299992 0 0.784833
0.476783 0 0.783459
0.652049 0 0.769589
0.776638 0 0.770672
0.884077 0 0.773404
0.984283 0 0.776013
0 0.134096 0.677668
0.0999924 0.132799 0.700099
0.199985 0.121706 0.750011
0.300969 0.106477 0.785504
0.499901 0.0999924 0.78265
0.664088 0.0999924 0.776181
0.784268 0.0999924 0.77911
0.885283 0.0999924 0.781384
0.986481 0.100084 0.78439
0 0.270649 0.619776
0.0999924 0.27538 0.623652
0.199985 0.268391 0.670649
0.300435 0.244877 0.762753
0.510109 0.214801 0.793454
0.682246 0.212085 0.792096
0.799786 0.220493 0.798245
0.899947 0.228336 0.799832
1 0.236149 0.799985
0 0.413947 0.632181
0.0999924 0.422995 0.618952
0.199985 0.424842 0.607416
0.299992 0.419455 0.644831
0.491356 0.38436 0.79588
0.694072 0.372854 0.799802
0.8 0.383352 0.8
0.899992 0.393408 0.8
1 0.402045 0.8
0 0.56289 0.659678
0.0999924 0.569833 0.653605
0.199985 0.570382 0.635904
0.305562 0.571511 0.650019
0.455863 0.563775 0.745342
0.679774 0.536507 0.795956
0.799252 0.541695 0.79855
0.899992 0.548257 0.799695
1 0.552468 0.79968
0.000366217 0.69987 0.643778
0.100969 0.699992 0.643977
0.201038 0.699992 0.643061
0.329961 0.699733 0.696269
0.489235 0.693126 0.747723
0.647639 0.680491 0.770657
0.783169 0.673716 0.790036
0.893507 0.675212 0.79205
0.996521 0.67686 0.79324
0.0145571 0.8 0.638605
0.114275 0.8 0.638804
0.215808 0.8 0.639094
0.345037 0.8 0.675837
0.502403 0.799985 0.729229
0.65449 0.794903 0.763607
0.776196 0.790143 0.778714
0.885939 0.789212 0.786175
0.991562 0.789151 0.78854
0.0132448 0.899992 0.639933
0.113542 0.899992 0.639643
0.215991 0.899992 0.640513
0.346105 0.899992 0.672328
0.505379 0.899992 0.715465
0.655344 0.899992 0.752895
0.773754 0.898756 0.77409
0.881819 0.897765 0.783108
0.987488 0.89752 0.785168
0.0130617 1 0.640101
0.113191 1 0.639963
0.217166 1 0.642817
0.346654 1 0.675242
0.503304 1 0.713558
0.651972 1 0.748028
0.769833 1 0.770901
0.878035 1 0.780606
0.983932 0.999924 0.782879
0 0.0167239 0.818112
0.0999924 0.0143282 0.836408
0.199985 0.0065919 0.865766
0.299992 7.62951e-05 0.890059
0.460746 0 0.888106
0.65098 0 0.879927
0.778378 0 0.882429
0.884916 0 0.884184
0.984985 0 0.885084
0 0.138735 0.789487
0.0999924 0.137423 0.812619
0.199985 0.126085 0.858564
0.299992 0.110246 0.890089
0.486946 0.0999924 0.885084
0.664118 0.0999924 0.881575
0.785138 0.0999924 0.885542
0.885893 0.0999924 0.886229
0.987289 0.100298 0.887633
0 0.27924 0.725399
0.0999924 0.283757 0.732418
0.199985 0.276219 0.783719
0.300008 0.253056 0.867582
0.497337 0.221515 0.89691
0.684031 0.21529 0.898283
0.799893 0.223392 0.899916
0.899977 0.231098 0.899992
1 0.23888 0.899992
0 0.424613 0.732006
0.0999924 0.432883 0.720134
0.199985 0.434455 0.711742
0.299992 0.428244 0.751278
0.472435 0.395407 0.898344
0.693706 0.377264 0.899992
0.8 0.387167 0.899992
0.899992 0.396796 0.899992
1 0.404776 0.899992
0 0.569879 0.77554
0.0999924 0.57673 0.765515
0.199985 0.578378 0.741863
0.303334 0.579156 0.744442
0.440604 0.573281 0.847028
0.66949 0.54258 0.899855
0.798566 0.544121 0.899992
0.899992 0.549783 0.899992
1 0.553613 0.899992
0.000228885 0.699992 0.750134
0.100191 0.699992 0.748577
0.200153 0.699992 0.74995
0.324407 0.699992 0.807095
0.473533 0.698848 0.844373
0.626703 0.688792 0.869261
0.771282 0.678111 0.896559
0.889677 0.676539 0.899794
0.993927 0.677531 0.899962
0.0128634 0.8 0.740246
0.112551 0.8 0.740383
0.213123 0.8 0.74168
0.338613 0.8 0.785885
0.484077 0.8 0.845136
0.637583 0.798901 0.872282
0.765164 0.794232 0.879301
0.876554 0.792767 0.88603
0.98407 0.791501 0.894041
0.0129397 0.899992 0.740215
0.112932 0.899992 0.740215
0.21471 0.899992 0.741894
0.340642 0.899992 0.778988
0.488563 0.899992 0.828077
0.640864 0.899992 0.860288
0.766964 0.89987 0.874952
0.878752 0.899138 0.882765
0.985611 0.898528 0.88777
0.0129397 1 0.740215
0.112932 1 0.740215
0.216266 1 0.743435
0.341558 1 0.780621
0.48629 1 0.825849
0.637507 1 0.854551
0.765026 1 0.869078
0.877409 1 0.878065
0.984314 1 0.88423
0 0.0188602 0.928603
0.0999924 0.0167697 0.945724
0.199985 0.00907912 0.971695
0.299992 0.000350958 0.992447
0.449058 0 0.989624
0.6495 0 0.98027
0.7794 0 0.984268
0.885008 0 0.985367
0.985016 0 0.985367
0 0.143404 0.898436
0.0999924 0.142031 0.92195
0.199985 0.130617 0.963989
0.299992 0.113939 0.992294
0.476295 0.100038 0.98677
0.6636 0.0999924 0.981598
0.785412 0.0999924 0.985779
0.886213 0.0999924 0.986557
0.988067 0.100526 0.988403
0 0.28719 0.830808
0.0999924 0.290806 0.839521
0.199985 0.282826 0.892409
0.299992 0.259754 0.970626
0.489845 0.227192 0.998703
0.685176 0.218173 0.999283
0.799924 0.225956 0.999954
0.899992 0.233738 1
1 0.241306 1
0 0.433677 0.832929
0.0999924 0.440528 0.821942
0.199985 0.441581 0.815702
0.299992 0.434852 0.858808
0.461875 0.403388 0.998581
0.692378 0.381384 1
0.8 0.390372 1
0.899992 0.399695 1
1 0.407156 1
0 0.576638 0.88249
0.0999924 0.582666 0.869947
0.199985 0.584482 0.845228
0.302556 0.584772 0.84358
0.433265 0.579614 0.948623
0.659129 0.548211 0.999954
0.797009 0.546502 1
0.899931 0.551293 1
1 0.554726 1
0.000549325 0.699992 0.848707
0.10042 0.699992 0.847517
0.200351 0.699992 0.849393
0.323217 0.699992 0.905135
0.463844 0.699977 0.93875
0.610544 0.695338 0.968963
0.756741 0.683574 0.996201
0.883116 0.678904 0.999969
0.988693 0.679164 1
0.0129244 0.8 0.840223
0.112612 0.8 0.84036
0.21326 0.8 0.841596
0.338872 0.8 0.885222
0.48101 0.8 0.942916
0.626673 0.8 0.970291
0.753872 0.798611 0.975891
0.866148 0.79675 0.983764
0.97406 0.795285 0.990677
0.0129397 0.899992 0.840223
0.112932 0.899992 0.840223
0.214954 0.899992 0.84213
0.340673 0.899992 0.87924
0.486854 0.899992 0.928649
0.635996 0.899992 0.961593
0.761547 0.899992 0.975418
0.873396 0.899992 0.981994
0.97998 0.899977 0.98613
0.0129397 1 0.840223
0.112932 1 0.840223
0.216312 1 0.843473
0.341421 1 0.880522
0.484474 1 0.926741
0.632181 1 0.957671
0.759731 1 0.971969
0.87332 1 0.980041
0.981094 1 0.985382
