datas/cubes/TC - FLOURISH_60.cube
TITLE "Generate by Resolve"
LUT_3D_SIZE 33
0 0.00515755 0.02916
0.0124971 0.00514229 0.0289616
0.0249943 0.00514229 0.0288243
0.0374914 0.00515755 0.0287175
0.0499886 0.00514229 0.0284886
0.062501 0.00512703 0.0282444
0.0760967 0.00383001 0.0264744
0.0972152 0.00233463 0.0241855
0.128313 0.000839246 0.0208438
0.169253 0 0.0157626
0.219684 0 0.00874342
0.279774 0 0.00105287
0.357992 0 0
0.446464 0 0
0.527367 0 0
0.599481 0 0
0.673899 0 0
0.74699 0 0
0.809201 0 0
0.83621 0 0
0.850004 0 0
0.862501 0 0
0.874998 0 0
0.887495 0 0
0.899992 0 0
0.912505 0 0
0.925002 0 0
0.937499 0 0
0.949996 0 0
0.962493 0 0
0.975006 0 0
0.987503 0 0
1 0 0
0.000122072 0.0218357 0.0279545
0.0126192 0.0217746 0.0277714
0.0251316 0.0217746 0.0276341
0.037644 0.0217594 0.0274815
0.0501411 0.0216983 0.0272831
0.0626383 0.0215915 0.0271305
0.0760967 0.0203403 0.0255436
0.0962997 0.0186007 0.0231479
0.126894 0.0160983 0.0198978
0.168338 0.0134737 0.0153048
0.21912 0.0125429 0.00869764
0.279469 0.0124971 0.00109865
0.357763 0.0124971 0
0.446693 0.0124971 0
0.527565 0.0124971 0
0.600031 0.0124971 0
0.674815 0.0124971 0
0.748211 0.0124971 0
0.80972 0.0124971 0
0.836286 0.0124971 0
0.850004 0.0124971 0
0.862501 0.0124971 0
0.874998 0.0124971 0
0.887495 0.0124971 0
0.899992 0.0124971 0
0.912505 0.0124971 0
0.925002 0.0124971 0
0.937499 0.0124971 0
0.949996 0.0124971 0
0.962493 0.0124971 0
0.975006 0.0124971 0
0.987503 0.0124971 0
1 0.0124971 0
0.000167849 0.0388342 0.0269169
0.0126802 0.0388037 0.0267185
0.0251926 0.0387427 0.0264897
0.0376898 0.0387121 0.0263523
0.0502022 0.0386206 0.0261997
0.0627146 0.038468 0.0260471
0.0760052 0.0374304 0.024567
0.0953384 0.0357977 0.0218662
0.125292 0.0327764 0.0183413
0.167315 0.0281529 0.0141146
0.21886 0.0252995 0.00788891
0.279774 0.0249943 0.0009308
0.359365 0.0249943 0
0.448554 0.0249943 0
0.529488 0.0249943 0
0.602213 0.0249943 0
0.677546 0.0249943 0
0.751156 0.0249943 0
0.810941 0.0249943 0
0.836469 0.0249943 0
0.850004 0.0249943 0
0.862501 0.0249943 0
0.874998 0.0249943 0
0.887495 0.0249943 0
0.899992 0.0249943 0
0.912505 0.0249943 0
0.925002 0.0249943 0
0.937499 0.0249943 0
0.949996 0.0249943 0
0.962493 0.0249943 0
0.975006 0.0249943 0
0.987503 0.0249943 0
1 0.0249943 0
6.10361e-05 0.0569162 0.0260166
0.0125429 0.0568551 0.0257725
0.0250553 0.0568399 0.0255741
0.0375525 0.0568246 0.0254063
0.0500649 0.0567941 0.0252384
0.062562 0.0566415 0.0250553
0.075349 0.0557259 0.0239109
0.0937819 0.0543526 0.020737
0.123201 0.0515145 0.0164492
0.165866 0.0460975 0.012192
0.218479 0.0404212 0.00646983
0.280827 0.0375982 0.000595102
0.362387 0.0374914 0
0.452323 0.0374914 0
0.533776 0.0374914 0
0.606806 0.0374914 0
0.682551 0.0374914 0
0.756176 0.0374914 0
0.812787 0.0374914 0
0.836728 0.0374914 0
0.850004 0.0374914 0
0.862501 0.0374914 0
0.874998 0.0374914 0
0.887495 0.0374914 0
0.899992 0.0374914 0
0.912505 0.0374914 0
0.925002 0.0374914 0
0.937499 0.0374914 0
0.949996 0.0374914 0
0.962493 0.0374914 0
0.975006 0.0374914 0
0.987503 0.0374914 0
1 0.0374914 0
0 0.0760204 0.0233616
0.0124971 0.0759899 0.0231327
0.0249943 0.0759747 0.0229191
0.0374914 0.0760662 0.0226749
0.0499886 0.0760662 0.022446
0.062501 0.0759899 0.0222782
0.0749981 0.0752117 0.0215305
0.0922103 0.0739147 0.0184482
0.121019 0.0710307 0.0144808
0.164202 0.0657359 0.010132
0.217823 0.0582742 0.00436408
0.281056 0.0503853 0.000213626
0.364843 0.0499886 0
0.456641 0.0499886 0
0.538689 0.0499886 0
0.612696 0.0499886 0
0.689754 0.0499886 0
0.763348 0.0499886 0
0.815656 0.0499886 0
0.837095 0.0499886 0
0.850004 0.0499886 0
0.862501 0.0499886 0
0.874998 0.0499886 0
0.887495 0.0499886 0
0.899992 0.0499886 0
0.912505 0.0499886 0
0.925002 0.0499886 0
0.937499 0.0499886 0
0.949996 0.0499886 0
0.962493 0.0499886 0
0.975006 0.0499886 0
0.987503 0.0499886 0
1 0.0499886 0
0 0.0961929 0.0191958
0.0124971 0.0962387 0.0189212
0.0249943 0.096376 0.018555
0.0374914 0.0965133 0.0182345
0.0499886 0.0966049 0.0179446
0.062501 0.0966049 0.0176852
0.0749981 0.0962081 0.0171054
0.0905928 0.0950637 0.0143587
0.118135 0.0920272 0.0127871
0.161227 0.0869917 0.0100862
0.215366 0.0797436 0.00267033
0.280171 0.0694743 1.5259e-05
0.36669 0.0635538 0
0.460639 0.062501 0
0.543267 0.062501 0
0.618555 0.062501 0
0.696849 0.062501 0
0.770123 0.062501 0
0.818448 0.062501 0
0.837491 0.062501 0
0.850004 0.062501 0
0.862501 0.062501 0
0.874998 0.062501 0
0.887495 0.062501 0
0.899992 0.062501 0
0.912505 0.062501 0
0.925002 0.062501 0
0.937499 0.062501 0
0.949996 0.062501 0
0.962493 0.062501 0
0.975006 0.062501 0
0.987503 0.062501 0
1 0.062501 0
0 0.117662 0.0137026
0.0124971 0.1178 0.0133974
0.0249943 0.118029 0.0129854
0.0374914 0.118334 0.0125734
0.0499886 0.118578 0.012192
0.062501 0.1187 0.0118563
0.0749981 0.118654 0.0114137
0.088716 0.117739 0.00953689
0.11519 0.11458 0.00895705
0.158053 0.109575 0.00961318
0.211246 0.103136 0.00247196
0.277974 0.0929427 0
0.366751 0.079881 0
0.463233 0.0750439 0
0.546761 0.0749981 0
0.624079 0.0749981 0
0.703883 0.0749981 0
0.776471 0.0749981 0
0.821256 0.0749981 0
0.837491 0.0749981 0
0.850004 0.0749981 0
0.862501 0.0749981 0
0.874998 0.0749981 0
0.887495 0.0749981 0
0.899992 0.0749981 0
0.912505 0.0749981 0
0.925002 0.0749981 0
0.937499 0.0749981 0
0.949996 0.0749981 0
0.962493 0.0749981 0
0.975006 0.0749981 0
0.987503 0.0749981 0
1 0.0749981 0
0 0.140337 0.00770581
0.0124971 0.140658 0.00740063
0.0249943 0.141039 0.00694286
0.0374914 0.141527 0.00646983
0.0499886 0.142016 0.00598154
0.062501 0.142397 0.00553903
0.0749981 0.142733 0.00521859
0.0876631 0.14229 0.00418097
0.111711 0.139483 0.00370794
0.15436 0.134264 0.00770581
0.205371 0.128649 0.00466926
0.272297 0.119371 0
0.363073 0.104311 0
0.462486 0.0882124 0
0.547616 0.0874952 0
0.627436 0.0874952 0
0.708934 0.0874952 0
0.782254 0.0874952 0
0.823957 0.0874952 0
0.837491 0.0874952 0
0.850004 0.0874952 0
0.862501 0.0874952 0
0.874998 0.0874952 0
0.887495 0.0874952 0
0.899992 0.0874952 0
0.912505 0.0874952 0
0.925002 0.0874952 0
0.937499 0.0874952 0
0.949996 0.0874952 0
0.962493 0.0874952 0
0.975006 0.0874952 0
0.987503 0.0874952 0
1 0.0874952 0
0 0.164736 0.00190738
0.0124971 0.165331 0.00178531
0.0249943 0.166018 0.0015259
0.0374914 0.166842 0.00128176
0.0499886 0.167605 0.00105287
0.062501 0.168338 0.000839246
0.0749981 0.169131 0.000762951
0.0874952 0.16939 0.000442512
0.107408 0.167437 0
0.148913 0.161837 0.00376898
0.200305 0.156069 0.0080415
0.262959 0.148836 0.00125124
0.354314 0.134874 0
0.457389 0.117845 0
0.54464 0.104128 0
0.627253 0.0999924 0
0.711345 0.0999924 0
0.787305 0.0999924 0
0.824903 0.0999924 0
0.837491 0.0999924 0
0.850004 0.0999924 0
0.862501 0.0999924 0
0.874998 0.0999924 0
0.887495 0.0999924 0
0.899992 0.0999924 0
0.912505 0.0999924 0
0.925002 0.0999924 0
0.937499 0.0999924 0
0.949996 0.0999924 0
0.962493 0.0999924 0
0.975006 0.0999924 0
0.987503 0.0999924 0
1 0.0999924 0
0 0.191592 0
0.0124971 0.192615 0
0.0249943 0.193683 0
0.0374914 0.194903 0
0.0499886 0.196139 0
0.062501 0.197238 0
0.0749981 0.19855 0
0.0874952 0.199588 0
0.102922 0.198642 0
0.139116 0.193545 0.000839246
0.195773 0.186587 0.00782788
0.253773 0.180941 0.00766003
0.339544 0.169879 0.000701915
0.445563 0.153735 0
0.536446 0.139467 0
0.622736 0.126101 0
0.710353 0.115923 0
0.789624 0.113451 0
0.824994 0.113069 0
0.837491 0.113207 0
0.850004 0.113237 0
0.862501 0.113115 0
0.874998 0.112673 0
0.887495 0.11249 0
0.899992 0.11249 0
0.912505 0.11249 0
0.925002 0.11249 0
0.937499 0.112505 0
0.949996 0.11249 0
0.962493 0.11249 0
0.975006 0.11249 0
0.987503 0.11249 0
1 0.112657 0
0 0.221729 0
0.0124971 0.223224 0
0.0249943 0.224826 0
0.0374914 0.226596 0
0.0499886 0.228336 0
0.062501 0.229984 0
0.0749981 0.231769 0
0.0874952 0.233814 0
0.100267 0.234058 0
0.126207 0.230488 0
0.186816 0.222644 0.00341802
0.247517 0.216358 0.0120089
0.323461 0.20882 0.00538643
0.426871 0.195514 0
0.522087 0.182132 0
0.612467 0.169253 0
0.704601 0.158053 0
0.786618 0.14992 0
0.824994 0.147494 0
0.837491 0.150271 0
0.850004 0.146471 0
0.862501 0.142458 0
0.874998 0.139849 0
0.887495 0.138445 0
0.899992 0.136584 0
0.912505 0.135729 0
0.925002 0.136309 0
0.937499 0.137636 0
0.949996 0.139239 0
0.962493 0.14023 0
0.975006 0.140764 0
0.987503 0.145342 0
1 0.150362 0
0 0.256184 0
0.0124971 0.258457 0
0.0249943 0.260899 0
0.0374914 0.263416 0
0.0499886 0.266026 0
0.062501 0.268574 0
0.0749981 0.270954 0
0.0874952 0.274586 0
0.0999924 0.276158 0
0.117159 0.274266 0
0.169619 0.267094 0
0.240864 0.257969 0.00863661
0.312139 0.251835 0.0129091
0.404746 0.243046 0.00149538
0.500862 0.231968 0
0.595254 0.220172 0
0.693111 0.209415 0
0.779767 0.202045 0
0.824994 0.198535 0
0.837491 0.200839 0
0.850004 0.197086 0
0.862501 0.193088 0
0.874998 0.190265 0
0.887495 0.188388 0
0.899992 0.187488 0
0.912505 0.187533 0
0.925002 0.187961 0
0.937499 0.188922 0
0.949996 0.190677 0
0.962493 0.192386 0
0.975006 0.194339 0
0.987503 0.199649 0
1 0.205509 0
0 0.29781 0
0.0124971 0.301228 0
0.0249943 0.304982 0
0.0374914 0.308827 0
0.0499886 0.312627 0
0.062501 0.316609 0
0.0749981 0.320699 0
0.0874952 0.326284 0
0.0999924 0.329992 0
0.112718 0.329839 0
0.146471 0.325078 0
0.224506 0.315145 0
0.304097 0.306294 0.0106203
0.391272 0.299016 0.0130617
0.479026 0.291295 0.00469978
0.570809 0.282063 0
0.673182 0.271595 0
0.766262 0.26392 0
0.823026 0.259617 0
0.837491 0.259739 0
0.850004 0.256168 0
0.862501 0.251865 0
0.874998 0.248798 0
0.887495 0.24686 0
0.899992 0.245991 0
0.912505 0.246189 0
0.925002 0.247059 0
0.937499 0.248814 0
0.949996 0.250935 0
0.962493 0.253162 0
0.975006 0.255802 0
0.987503 0.262806 0
1 0.270283 0
0 0.349142 0
0.0124971 0.353841 0
0.0249943 0.35903 0
0.0374914 0.364828 0
0.0499886 0.370428 0
0.062501 0.376104 0
0.0749981 0.381216 0
0.0874952 0.388281 0
0.0999924 0.39353 0
0.11249 0.394598 0
0.130968 0.392065 0
0.197772 0.384649 0
0.291371 0.372381 0.00289921
0.383505 0.363516 0.0141604
0.465965 0.358206 0.0147707
0.548775 0.352605 0.00788891
0.647089 0.34461 6.10361e-05
0.742992 0.336889 0
0.814435 0.33138 0
0.837491 0.328344 0
0.850004 0.324804 0
0.862501 0.319936 0
0.874998 0.316548 0
0.887495 0.314443 0
0.899992 0.313832 0
0.912505 0.31458 0
0.925002 0.316106 0
0.937499 0.318303 0
0.949996 0.321752 0
0.962493 0.32549 0
0.975006 0.329213 0
0.987503 0.337255 0
1 0.345922 0
0 0.4094 0
0.0124971 0.415824 0
0.0249943 0.42269 0
0.0374914 0.429465 0
0.0499886 0.436118 0
0.062501 0.442557 0
0.0749981 0.448569 0
0.0874952 0.456474 0
0.0999924 0.46247 0
0.11249 0.4645 0
0.125002 0.463355 0
0.17258 0.458824 0
0.271519 0.446448 0
0.375402 0.43447 0.00482185
0.461494 0.429129 0.0151369
0.541817 0.42443 0.0165408
0.628199 0.418753 0.0100862
0.716762 0.413108 0.00291447
0.795453 0.408484 1.5259e-05
0.837491 0.405234 0
0.850004 0.401831 0
0.862501 0.397269 0
0.874998 0.393988 0
0.887495 0.392233 0
0.899992 0.391882 0
0.912505 0.393301 0
0.925002 0.395758 0
0.937499 0.399008 0
0.949996 0.402808 0
0.962493 0.406928 0
0.975006 0.411063 1.5259e-05
0.987503 0.419913 0
1 0.429221 0
0 0.476036 0
0.0124971 0.48304 0
0.0249943 0.490318 0
0.0374914 0.497597 0
0.0499886 0.504479 0
0.062501 0.510948 0
0.0749981 0.516838 0
0.0874952 0.52488 0
0.0999924 0.530892 0
0.11249 0.53312 0
0.125002 0.532341 0
0.148302 0.529824 0
0.245777 0.520409 0
0.35967 0.50547 0.000122072
0.453452 0.496513 0.00849927
0.534585 0.489967 0.0174105
0.616205 0.486732 0.0189364
0.69839 0.484154 0.0153658
0.771756 0.482536 0.00875868
0.837079 0.481392 0.002533
0.850004 0.479759 0.00227359
0.862501 0.47628 0.0021973
0.874998 0.47364 0.00209049
0.887495 0.472404 0.00259403
0.899992 0.472648 0.00303655
0.912505 0.474388 0.00326543
0.925002 0.477058 0.00320439
0.937499 0.480522 0.00306706
0.949996 0.483772 0.00386053
0.962493 0.487602 0.00479133
0.975006 0.491569 0.00578317
0.987503 0.499748 0.00749218
1 0.507866 0.00923171
0 0.543328 0
0.0124971 0.550332 0
0.0249943 0.557473 0
0.0374914 0.564523 0
0.0499886 0.571298 0
0.062501 0.577737 0
0.0749981 0.584283 0
0.0874952 0.592905 0
0.0999924 0.599664 0
0.11249 0.602228 0
0.125002 0.601144 0
0.137499 0.598886 0
0.216785 0.590951 0
0.331594 0.573663 0
0.435508 0.555047 0.00164797
0.517662 0.540856 0.0125124
0.601282 0.54287 0.0196078
0.686473 0.548623 0.0231022
0.755734 0.548852 0.0213016
0.818021 0.549416 0.0170901
0.850004 0.549722 0.0156558
0.862501 0.547875 0.0159762
0.874998 0.546334 0.0156558
0.887495 0.545861 0.0155032
0.899992 0.546349 0.0155947
0.912505 0.547601 0.0159609
0.925002 0.549462 0.0164645
0.937499 0.55201 0.0171359
0.949996 0.554986 0.0178836
0.962493 0.558511 0.0187381
0.975006 0.561608 0.0195621
0.987503 0.567407 0.0211185
1 0.573617 0.022797
0 0.611353 0
0.0124971 0.619135 0
0.0249943 0.626917 0
0.0374914 0.63476 0
0.0499886 0.642008 0
0.062501 0.64892 0
0.0749981 0.655055 0
0.0874952 0.663645 0
0.0999924 0.669779 0
0.11249 0.672221 0
0.125002 0.671107 0
0.137499 0.669139 0
0.195377 0.660243 0
0.309133 0.635538 0
0.419516 0.608347 0
0.506065 0.589929 0.00541695
0.584726 0.590829 0.0165103
0.675547 0.609293 0.0254673
0.745205 0.612619 0.0293126
0.803784 0.612619 0.0286107
0.847929 0.612802 0.0283207
0.862501 0.611749 0.0297704
0.874998 0.610193 0.029633
0.887495 0.609598 0.0294804
0.899992 0.610025 0.029633
0.912505 0.611185 0.0299229
0.925002 0.613016 0.0303807
0.937499 0.615305 0.0310674
0.949996 0.617929 0.0319982
0.962493 0.620813 0.0329442
0.975006 0.623697 0.0338445
0.987503 0.629191 0.0355383
1 0.63505 0.0373693
0 0.682277 0
0.0124971 0.689632 0
0.0249943 0.696986 0
0.0374914 0.70425 0
0.0499886 0.711101 0
0.062501 0.717433 0
0.0749981 0.722911 0
0.0874952 0.730663 0
0.0999924 0.736782 0
0.11249 0.73933 0
0.125002 0.738552 0
0.137499 0.736416 0
0.184115 0.725155 0
0.29987 0.689448 0
0.410819 0.666484 0
0.505409 0.661616 0.000137331
0.593576 0.669139 0.0114748
0.675456 0.675044 0.0252537
0.740093 0.673533 0.0330816
0.795911 0.672969 0.0367132
0.841672 0.672923 0.0410773
0.862501 0.672374 0.0460212
0.874998 0.671 0.0462806
0.887495 0.670481 0.0459602
0.899992 0.670726 0.0460365
0.912505 0.671321 0.0464027
0.925002 0.67248 0.0469825
0.937499 0.674189 0.0476997
0.949996 0.676158 0.0484627
0.962493 0.678386 0.0492714
0.975006 0.680339 0.0500496
0.987503 0.683955 0.0518044
1 0.688228 0.0538491
0 0.749249 0
0.0124971 0.756115 0
0.0249943 0.762966 0
0.0374914 0.769451 0
0.0499886 0.775402 0
0.062501 0.781308 0
0.0749981 0.786572 0
0.0874952 0.793729 0
0.0999924 0.798901 0
0.11249 0.801129 0
0.125002 0.800366 0
0.137499 0.798428 0
0.174258 0.795377 0
0.268727 0.785931 0
0.383764 0.76936 0
0.500984 0.752255 0
0.597742 0.738903 0.00555428
0.674815 0.73106 0.0223697
0.738109 0.727443 0.0341802
0.792355 0.725628 0.0417945
0.839048 0.724788 0.0526589
0.862501 0.723812 0.0630961
0.874998 0.722515 0.0647898
0.887495 0.721706 0.0644541
0.899992 0.721614 0.0644388
0.912505 0.722225 0.0647593
0.925002 0.723186 0.0652018
0.937499 0.724681 0.0658579
0.949996 0.726131 0.0667277
0.962493 0.727596 0.0677348
0.975006 0.728954 0.0686503
0.987503 0.731609 0.0702373
1 0.735088 0.0723125
0 0.810285 0
0.0124971 0.815579 0
0.0249943 0.821088 0
0.0374914 0.826612 0
0.0499886 0.831876 0
0.062501 0.836973 0
0.0749981 0.839353 0
0.0874952 0.842817 0
0.0999924 0.844648 0
0.11249 0.845228 0
0.125002 0.844846 0
0.137499 0.84448 0
0.17438 0.843839 0
0.260884 0.839857 0
0.370489 0.828443 0
0.491295 0.808728 0
0.595468 0.791196 0.000839246
0.674357 0.781323 0.0164492
0.737896 0.776593 0.0330205
0.791333 0.773495 0.0463569
0.838315 0.771405 0.0645762
0.862242 0.769711 0.0819867
0.874998 0.768322 0.0863203
0.887495 0.767559 0.0858015
0.899992 0.767315 0.0855421
0.912505 0.767742 0.0856794
0.925002 0.768322 0.0862287
0.937499 0.769192 0.0870069
0.949996 0.770184 0.0878309
0.962493 0.771298 0.0887007
0.975006 0.77232 0.0894484
0.987503 0.774273 0.0908675
1 0.777081 0.0929427
0 0.855528 0
0.0124971 0.857969 0
0.0249943 0.860426 0
0.0374914 0.862501 0
0.0499886 0.862501 0
0.062501 0.862501 0
0.0749981 0.862501 0
0.0874952 0.862501 0
0.0999924 0.862501 0
0.11249 0.862501 0
0.125002 0.862501 0
0.142855 0.862501 0
0.188907 0.862501 0
0.263279 0.862501 0
0.363806 0.862181 0
0.485237 0.85713 0
0.594675 0.839521 0
0.674632 0.827878 0.00967422
0.738949 0.821942 0.0323644
0.79147 0.8177 0.0537728
0.837766 0.814206 0.0801709
0.862165 0.811749 0.104356
0.874998 0.810101 0.10988
0.887495 0.809079 0.10901
0.899992 0.808515 0.108553
0.912505 0.808469 0.108522
0.925002 0.808789 0.108827
0.937499 0.809354 0.109331
0.949996 0.810025 0.109895
0.962493 0.810742 0.110491
0.975006 0.811505 0.111116
0.987503 0.812757 0.112139
1 0.814984 0.114015
0 0.874998 0
0.0127565 0.874998 0.000198367
0.026978 0.874998 0.00151064
0.0412146 0.874998 0.00285344
0.0553597 0.874998 0.00411994
0.0694285 0.874998 0.0053254
0.08336 0.874998 0.00640879
0.0959182 0.874998 0.00646983
0.108415 0.874998 0.00646983
0.120912 0.874998 0.00646983
0.133425 0.874998 0.00646983
0.154894 0.874998 0.00257877
0.206851 0.874998 0
0.276997 0.874998 0
0.36965 0.874998 0
0.48658 0.874998 0
0.594949 0.874311 0
0.676112 0.867918 0.00961318
0.740368 0.862196 0.0370947
0.792569 0.857023 0.0675669
0.838392 0.85301 0.100175
0.862501 0.850202 0.126864
0.874998 0.848234 0.132448
0.887495 0.846876 0.131319
0.899992 0.846082 0.130587
0.912505 0.845731 0.130236
0.925002 0.845701 0.13022
0.937499 0.84596 0.13048
0.949996 0.846418 0.130907
0.962493 0.84683 0.131289
0.975006 0.847318 0.131746
0.987503 0.848219 0.132555
1 0.849897 0.13402
0.00842298 0.887495 0.00646983
0.0209201 0.887495 0.00646983
0.0334173 0.887495 0.00646983
0.0459144 0.887495 0.00646983
0.0584115 0.887495 0.00646983
0.0709239 0.887495 0.00646983
0.0834211 0.887495 0.00646983
0.0959182 0.887495 0.00646983
0.108415 0.887495 0.00646983
0.120912 0.887495 0.00646983
0.133425 0.887495 0.00646983
0.152132 0.887495 0.00381476
0.20856 0.887495 0
0.276539 0.887495 0
0.372061 0.887495 0
0.488945 0.887495 0
0.595407 0.887495 0
0.677302 0.887495 0.0101015
0.740368 0.886168 0.0419013
0.792966 0.883116 0.0774548
0.838376 0.881285 0.113466
0.862501 0.879576 0.140124
0.874998 0.877974 0.147051
0.887495 0.876646 0.146548
0.899992 0.875685 0.145693
0.912505 0.875181 0.145235
0.925002 0.875013 0.145098
0.937499 0.875319 0.145342
0.949996 0.875898 0.145846
0.962493 0.876753 0.146578
0.975006 0.877806 0.147494
0.987503 0.879072 0.148592
1 0.880262 0.14963
0.00842298 0.899992 0.00646983
0.0209201 0.899992 0.00646983
0.0334173 0.899992 0.00646983
0.0459144 0.899992 0.00646983
0.0584115 0.899992 0.00646983
0.0709239 0.899992 0.00646983
0.0834211 0.899992 0.00646983
0.0959182 0.899992 0.00646983
0.108415 0.899992 0.00646983
0.120912 0.899992 0.00646983
0.133425 0.899992 0.00646983
0.156497 0.899992 0.00361639
0.21091 0.899992 0
0.279881 0.899992 0
0.374166 0.899992 0
0.490974 0.899992 0
0.597101 0.899992 0
0.677058 0.899992 0.00929274
0.739574 0.898589 0.0413367
0.792294 0.895628 0.0764172
0.836362 0.893889 0.112322
0.862501 0.893172 0.138827
0.874998 0.893065 0.148455
0.887495 0.893065 0.149905
0.899992 0.893065 0.149905
0.912505 0.893065 0.149905
0.925002 0.893065 0.149905
0.937499 0.893065 0.149905
0.949996 0.893065 0.149905
0.962493 0.893065 0.149905
0.975006 0.893065 0.149905
0.987503 0.893065 0.149905
1 0.893065 0.149905
0.00842298 0.912505 0.00646983
0.0209201 0.912505 0.00646983
0.0334173 0.912505 0.00646983
0.0459144 0.912505 0.00646983
0.0584115 0.912505 0.00646983
0.0709239 0.912505 0.00646983
0.0834211 0.912505 0.00646983
0.0959182 0.912505 0.00646983
0.108415 0.912505 0.00646983
0.120912 0.912505 0.00646983
0.133623 0.912505 0.00636301
0.160052 0.912505 0.00149538
0.214145 0.912505 0
0.282841 0.912505 0
0.378531 0.912505 0
0.495964 0.912505 0
0.601099 0.912505 0
0.677333 0.912505 0.0100557
0.739803 0.911009 0.0412299
0.79202 0.908171 0.0763256
0.836606 0.906432 0.111849
0.862196 0.905699 0.138109
0.874998 0.905562 0.148333
0.887495 0.905562 0.149905
0.899992 0.905562 0.149905
0.912505 0.905562 0.149905
0.925002 0.905562 0.149905
0.937499 0.905562 0.149905
0.949996 0.905562 0.149905
0.962493 0.905562 0.149905
0.975006 0.905562 0.149905
0.987503 0.905562 0.149905
1 0.905562 0.149905
0.00842298 0.925002 0.00646983
0.0209201 0.925002 0.00646983
0.0334173 0.925002 0.00646983
0.0459144 0.925002 0.00646983
0.0584115 0.925002 0.00646983
0.0709239 0.925002 0.00646983
0.0834211 0.925002 0.00646983
0.0959182 0.925002 0.00646983
0.108415 0.925002 0.00646983
0.120912 0.925002 0.00646983
0.133608 0.925002 0.00637827
0.161334 0.925002 0.000839246
0.217319 0.925002 0
0.285222 0.925002 0
0.384863 0.925002 0
0.502052 0.925002 0
0.602823 0.925002 0
0.678309 0.925002 0.0112459
0.740139 0.923659 0.0412757
0.791913 0.920699 0.076463
0.837293 0.918944 0.111635
0.861753 0.918181 0.13872
0.874998 0.918074 0.148791
0.887495 0.918074 0.149905
0.899992 0.918074 0.149905
0.912505 0.918074 0.149905
0.925002 0.918074 0.149905
0.937499 0.918074 0.149905
0.949996 0.918074 0.149905
0.962493 0.918074 0.149905
0.975006 0.918074 0.149905
0.987503 0.918074 0.149905
1 0.918074 0.149905
0.00842298 0.937499 0.00646983
0.0209201 0.937499 0.00646983
0.0334173 0.937499 0.00646983
0.0459144 0.937499 0.00646983
0.0584115 0.937499 0.00646983
0.0709239 0.937499 0.00646983
0.0834211 0.937499 0.00646983
0.0959182 0.937499 0.00646983
0.108415 0.937499 0.00646983
