datas/cubes/TC - RESOLUTE_20.cube
TITLE "Generate by Resolve"
LUT_3D_SIZE 5
0 0 0.000381476
0.216098 1.5259e-05 0.00047303
0.516976 0 0
0.778012 0 0
0.984253 0 0
0 0.222477 0
0.216007 0.220493 0.000167849
0.54406 0.202762 0
0.795346 0.210483 0
0.999237 0.223941 0.00248722
0 0.528939 0
0.200153 0.533471 0
0.543694 0.521096 0.000183108
0.8 0.534539 0.0138705
1 0.547265 0.0130312
0.0207065 0.8 0.0203403
0.22295 0.8 0.0205997
0.550591 0.799664 0.00857557
0.799954 0.794736 0.00933852
1 0.796796 0.0102083
0.0207218 1 0.0203708
0.234836 1 0.0217288
0.553689 1 0.00851453
0.799634 1 0.00869764
1 1 0.00949111
0 0.00173953 0.210864
0.212131 0 0.230961
0.517174 0 0.203845
0.779004 0 0.20032
0.985016 0 0.20293
0 0.22649 0.205417
0.210819 0.224247 0.215946
0.537118 0.207202 0.21323
0.798871 0.21706 0.223392
0.999878 0.231662 0.23917
0 0.532525 0.2
0.200366 0.53727 0.201709
0.546166 0.528099 0.220722
0.8 0.537148 0.21828
1 0.549615 0.221134
0.0213474 0.8 0.228855
0.223865 0.8 0.229358
0.545159 0.799847 0.210697
0.799298 0.795224 0.223957
1 0.796704 0.227283
0.0230869 1 0.238895
0.232868 1 0.238087
0.543954 1 0.211658
0.79704 1 0.211643
1 1 0.219013
0 0.00923171 0.451087
0.199985 9.15541e-05 0.514107
0.509346 0 0.512917
0.775952 0 0.499031
0.983032 0 0.510384
0 0.245548 0.414618
0.199985 0.247517 0.424552
0.535134 0.20499 0.531762
0.79881 0.216526 0.543587
0.999893 0.231327 0.561303
0 0.546014 0.400488
0.200229 0.550759 0.404227
0.534829 0.531533 0.528313
0.799603 0.54023 0.540658
1 0.551797 0.552224
0.035172 0.8 0.429511
0.236316 0.8 0.430762
0.518349 0.79968 0.520211
0.787381 0.791058 0.520104
0.998322 0.791119 0.53402
0.0341039 1 0.427832
0.24094 1 0.434134
0.512917 1 0.522866
0.77998 1 0.493172
0.995071 1 0.501427
0 0.0146181 0.704234
0.199985 0.00396735 0.757259
0.476783 0 0.783459
0.776638 0 0.770672
0.984283 0 0.776013
0 0.270649 0.619776
0.199985 0.268391 0.670649
0.510109 0.214801 0.793454
0.799786 0.220493 0.798245
1 0.236149 0.799985
0 0.56289 0.659678
0.199985 0.570382 0.635904
0.455863 0.563775 0.745342
0.799252 0.541695 0.79855
1 0.552468 0.79968
0.0145571 0.8 0.638605
0.215808 0.8 0.639094
0.502403 0.799985 0.729229
0.776196 0.790143 0.778714
0.991562 0.789151 0.78854
0.0130617 1 0.640101
0.217166 1 0.642817
0.503304 1 0.713558
0.769833 1 0.770901
0.983932 0.999924 0.782879
0 0.0188602 0.928603
0.199985 0.00907912 0.971695
0.449058 0 0.989624
0.7794 0 0.984268
0.985016 0 0.985367
0 0.28719 0.830808
0.199985 0.282826 0.892409
0.489845 0.227192 0.998703
0.799924 0.225956 0.999954
1 0.241306 1
0 0.576638 0.88249
0.199985 0.584482 0.845228
0.433265 0.579614 0.948623
0.797009 0.546502 1
1 0.554726 1
0.0129244 0.8 0.840223
0.21326 0.8 0.841596
0.48101 0.8 0.942916
0.753872 0.798611 0.975891
0.97406 0.795285 0.990677
0.0129397 1 0.840223
0.216312 1 0.843473
0.484474 1 0.926741
0.759731 1 0.971969
0.981094 1 0.985382
