datas/cubes/TC - INTREPID_40.cube
TITLE "Generate by Resolve"
LUT_3D_SIZE 33
0.00732433 0.0174563 0.0281071
0.0309453 0.0168154 0.0275578
0.0547189 0.0161746 0.0269627
0.0790723 0.0154574 0.0260319
0.10367 0.0147097 0.024979
0.129076 0.0138247 0.0235904
0.155444 0.0128023 0.0219577
0.183337 0.0115206 0.0199588
0.213245 0.00991836 0.0174716
0.245274 0.00801099 0.0145724
0.279652 0.00588998 0.0112917
0.318181 0.00299077 0.00732433
0.362188 0 0.00230411
0.412726 0 0
0.474495 0 0
0.565026 0 0
0.65069 0 0
0.708766 0 0
0.737499 0 0
0.756252 0 0
0.77499 0 0
0.793744 0 0
0.812497 0 0
0.83125 0 0
0.850004 0 0
0.868742 0 0
0.887495 0 0
0.906249 0 0
0.925002 0 0
0.943755 0 0
0.962493 0 0
0.981247 0 0
1 0 0
0.0052491 0.039765 0.0254215
0.0286412 0.0391394 0.0251774
0.0523842 0.0384527 0.024918
0.0767834 0.0376745 0.0242466
0.101457 0.0367895 0.0235294
0.126909 0.0357824 0.0223392
0.15349 0.0344244 0.0209964
0.181659 0.032639 0.0193484
0.2121 0.0302586 0.0171817
0.244541 0.0273442 0.0145876
0.278981 0.0247349 0.0114137
0.317403 0.0218662 0.00747692
0.361196 0.0187686 0.00244144
0.411765 0.0187381 0
0.472786 0.0187381 0
0.562982 0.0187381 0
0.649775 0.0187381 0
0.708217 0.0187381 0
0.737499 0.0187381 0
0.756252 0.0187381 0
0.77499 0.0187381 0
0.793744 0.0187381 0
0.812497 0.0187381 0
0.83125 0.0187381 0
0.850004 0.0187381 0
0.868742 0.0187381 0
0.887495 0.0187381 0
0.906249 0.0187381 0
0.925002 0.0187381 0
0.943755 0.0187381 0
0.962493 0.0187381 0
0.981247 0.0187381 0
1 0.0187381 0
0.00315862 0.0621805 0.0227359
0.0262608 0.0615396 0.0227512
0.0499886 0.060914 0.0227207
0.074342 0.0600748 0.0223545
0.0990616 0.059205 0.0218814
0.124559 0.0581521 0.0208896
0.151171 0.0568246 0.0197147
0.179522 0.0550088 0.0182803
0.210376 0.0525673 0.0162814
0.243458 0.0495155 0.0138857
0.278813 0.0459297 0.0110475
0.317098 0.0415198 0.00749218
0.360845 0.0375525 0.00250248
0.411246 0.0374914 0
0.472282 0.0374914 0
0.56257 0.0374914 0
0.649775 0.0374914 0
0.708385 0.0374914 0
0.737499 0.0374914 0
0.756252 0.0374914 0
0.77499 0.0374914 0
0.793744 0.0374914 0
0.812497 0.0374914 0
0.83125 0.0374914 0
0.850004 0.0374914 0
0.868742 0.0374914 0
0.887495 0.0374914 0
0.906249 0.0374914 0
0.925002 0.0374914 0
0.943755 0.0374914 0
0.962493 0.0374914 0
0.981247 0.0374914 0
1 0.0374914 0
0.00173953 0.0843366 0.0217899
0.0242771 0.0839094 0.0215152
0.0477913 0.0833448 0.02121
0.0719463 0.0826734 0.0206455
0.096376 0.0818952 0.0200809
0.12195 0.0808576 0.0191806
0.148577 0.0795148 0.0181888
0.177142 0.0777142 0.0169528
0.208347 0.0751507 0.015259
0.242542 0.0718395 0.0130312
0.278904 0.0679789 0.0104524
0.317647 0.0635843 0.00720226
0.361151 0.0585794 0.00256352
0.411261 0.0563973 0
0.472786 0.0562448 0
0.563592 0.0562448 0
0.650919 0.0562448 0
0.709239 0.0562448 0
0.737499 0.0562448 0
0.756252 0.0562448 0
0.77499 0.0562448 0
0.793744 0.0562448 0
0.812497 0.0562448 0
0.83125 0.0562448 0
0.850004 0.0562448 0
0.868742 0.0562448 0
0.887495 0.0562448 0
0.906249 0.0562448 0
0.925002 0.0562448 0
0.943755 0.0562448 0
0.962493 0.0562448 0
0.981247 0.0562448 0
1 0.0562448 0
0.00030518 0.106554 0.0208286
0.0221561 0.106249 0.0203861
0.0454566 0.105852 0.0197452
0.0693675 0.105318 0.0189822
0.0936294 0.104707 0.018204
0.119127 0.103777 0.0173953
0.145663 0.10251 0.0165255
0.17435 0.10074 0.0154726
0.205829 0.0982071 0.0140383
0.240681 0.0948653 0.0120851
0.278386 0.0907149 0.00976577
0.318288 0.0860914 0.00683604
0.361975 0.0804761 0.00256352
0.411826 0.0757763 0
0.472084 0.0749981 0
0.563409 0.0749981 0
0.652537 0.0749981 0
0.710796 0.0749981 0
0.737499 0.0749981 0
0.756252 0.0749981 0
0.77499 0.0749981 0
0.793744 0.0749981 0
0.812497 0.0749981 0
0.83125 0.0749981 0
0.850004 0.0749981 0
0.868742 0.0749981 0
0.887495 0.0749981 0
0.906249 0.0749981 0
0.925002 0.0749981 0
0.943755 0.0749981 0
0.962493 0.0749981 0
0.981247 0.0749981 0
1 0.0749981 0
0.00015259 0.129366 0.0188754
0.0208438 0.129122 0.018555
0.0432441 0.128878 0.0178225
0.0666056 0.128466 0.0170901
0.0907759 0.128008 0.0162814
0.115999 0.127214 0.0155184
0.142428 0.126101 0.014725
0.171115 0.124453 0.0137942
0.202838 0.12195 0.012665
0.238422 0.118456 0.0110323
0.277699 0.113939 0.0089723
0.318639 0.109178 0.00642405
0.362921 0.103716 0.00256352
0.412772 0.0973068 0
0.471397 0.0940108 0
0.559442 0.0937362 0
0.649516 0.0937362 0
0.712032 0.0937362 0
0.737499 0.0937362 0
0.756252 0.0937362 0
0.77499 0.0937362 0
0.793744 0.0937362 0
0.812497 0.0937362 0
0.83125 0.0937362 0
0.850004 0.0937362 0
0.868742 0.0937362 0
0.887495 0.0937362 0
0.906249 0.0937362 0
0.925002 0.0937362 0
0.943755 0.0937362 0
0.962493 0.0937362 0
0.981247 0.0937362 0
1 0.0937362 0
0 0.152422 0.016846
0.0195773 0.152346 0.0166171
0.0409705 0.152239 0.0158389
0.0634623 0.152026 0.0150759
0.0874647 0.151766 0.0142519
0.112413 0.151217 0.013489
0.138582 0.150347 0.012726
0.167285 0.148852 0.0119478
0.198993 0.146532 0.0110781
0.234974 0.143114 0.00984207
0.275715 0.138567 0.0081178
0.318441 0.133486 0.00596628
0.36376 0.127916 0.00262455
0.413886 0.121187 0
0.471717 0.11426 0
0.555245 0.11249 0
0.646143 0.11249 0
0.712123 0.11249 0
0.737499 0.11249 0
0.756252 0.11249 0
0.77499 0.11249 0
0.793744 0.11249 0
0.812497 0.11249 0
0.83125 0.11249 0
0.850004 0.11249 0
0.868742 0.11249 0
0.887495 0.11249 0
0.906249 0.11249 0
0.925002 0.11249 0
0.943755 0.11249 0
0.962493 0.11249 0
0.981247 0.11249 0
1 0.11249 0
0 0.176257 0.0146792
0.0187533 0.176318 0.0146487
0.0389563 0.176425 0.0137942
0.0597391 0.176501 0.0129549
0.0836042 0.176486 0.0121004
0.108171 0.176242 0.0113069
0.134005 0.175708 0.0105287
0.162417 0.174578 0.00987259
0.193927 0.172641 0.00921645
0.230198 0.169421 0.00839246
0.272114 0.164721 0.007187
0.317189 0.159319 0.00552377
0.364172 0.153613 0.00276188
0.414832 0.147219 3.0518e-05
0.471977 0.139696 0
0.550988 0.131807 0
0.642618 0.131243 0
0.71017 0.131243 0
0.737499 0.131243 0
0.756252 0.131243 0
0.77499 0.131243 0
0.793744 0.131243 0
0.812497 0.131243 0
0.83125 0.131243 0
0.850004 0.131243 0
0.868742 0.131243 0
0.887495 0.131243 0
0.906249 0.131243 0
0.925002 0.131243 0
0.943755 0.131243 0
0.962493 0.131243 0
0.981247 0.131243 0
1 0.131243 0
0 0.201022 0.0122683
0.0187381 0.20116 0.0122225
0.0377966 0.201495 0.0116579
0.057023 0.201923 0.0107271
0.0795148 0.202258 0.00981155
0.103243 0.202579 0.00886549
0.128786 0.202472 0.00807202
0.156603 0.201846 0.00746166
0.187579 0.200412 0.00703441
0.223636 0.197681 0.00668345
0.266575 0.193225 0.00610361
0.31429 0.187579 0.00505074
0.36347 0.181659 0.00302129
0.415335 0.175677 0.000289921
0.472419 0.168719 0
0.547265 0.15761 0
0.639429 0.150713 0
0.708522 0.149996 0
0.737499 0.149996 0
0.756252 0.149996 0
0.77499 0.149996 0
0.793744 0.149996 0
0.812497 0.149996 0
0.83125 0.149996 0
0.850004 0.149996 0
0.868742 0.149996 0
0.887495 0.149996 0
0.906249 0.149996 0
0.925002 0.149996 0
0.943755 0.149996 0
0.962493 0.149996 0
0.981247 0.149996 0
1 0.149996 0
0 0.227192 0.00955215
0.0187381 0.227558 0.00944533
0.0374914 0.227955 0.009308
0.0562448 0.228779 0.00836194
0.0760662 0.229648 0.00738537
0.098085 0.230426 0.00639353
0.122698 0.231006 0.00550851
0.149722 0.231205 0.00480659
0.179797 0.230655 0.00447089
0.215091 0.228794 0.00451667
0.258152 0.224994 0.00471504
0.308049 0.219501 0.00448615
0.360754 0.213581 0.00323491
0.41474 0.207736 0.00062562
0.472557 0.201678 0
0.543664 0.192599 0
0.635447 0.1794 0
0.707988 0.173266 0
0.737499 0.17174 0
0.756252 0.171389 0
0.77499 0.170016 0
0.793744 0.168841 0
0.812497 0.16875 0
0.83125 0.16875 0
0.850004 0.16875 0
0.868742 0.16875 0
0.887495 0.16875 0
0.906249 0.16875 0
0.925002 0.16875 0
0.943755 0.16875 0
0.962493 0.16875 0
0.981247 0.16875 0
1 0.171557 0
0 0.255711 0.00643931
0.0187381 0.256367 0.0062562
0.0374914 0.257191 0.00602731
0.0562448 0.258152 0.00561532
0.0749981 0.259358 0.00482185
0.0945449 0.260746 0.00390631
0.115862 0.262181 0.00294499
0.141802 0.263539 0.00207523
0.170718 0.264317 0.00166323
0.204669 0.263874 0.00190738
0.246754 0.261418 0.00274662
0.297566 0.256901 0.00344854
0.353948 0.251301 0.00303655
0.411475 0.246021 0.00129702
0.47068 0.240864 0
0.539223 0.233845 0
0.627253 0.222263 0
0.705974 0.213458 0
0.737499 0.210163 0
0.756252 0.210056 0
0.77499 0.206836 0
0.793744 0.203204 0
0.812497 0.20058 0
0.83125 0.198962 0
0.850004 0.19826 0
0.868742 0.198108 0
0.887495 0.198642 0
0.906249 0.199741 0
0.925002 0.201648 0
0.943755 0.205249 0
0.962493 0.209323 0
0.981247 0.213306 0
1 0.217304 0
0 0.287633 0.00277714
0.0187381 0.288808 0.00247196
0.0374914 0.290059 0.00213626
0.0562448 0.291463 0.00177005
0.0749981 0.292988 0.00131228
0.0937514 0.294759 0.000808728
0.11252 0.296986 0.000381476
0.135149 0.299443 0.000122072
0.162341 0.301839 1.5259e-05
0.194461 0.303426 0
0.234638 0.302922 0.00030518
0.28452 0.300191 0.00163272
0.343374 0.295506 0.00207523
0.4047 0.290822 0.00173953
0.466072 0.286671 0.000610361
0.533257 0.281651 0
0.615869 0.272892 0
0.700282 0.264485 0
0.737499 0.260014 0
0.756252 0.260319 0
0.77499 0.257893 0
0.793744 0.254185 0
0.812497 0.251621 0
0.83125 0.250065 0
0.850004 0.24918 0
0.868742 0.248981 0
0.887495 0.249699 0
0.906249 0.250675 0
0.925002 0.253117 0
0.943755 0.257145 0
0.962493 0.261494 0
0.981247 0.266041 0
1 0.270741 0
0 0.323796 0
0.0187381 0.325673 0
0.0374914 0.327672 0
0.0562448 0.329854 0
0.0749981 0.332158 0
0.0937362 0.334462 0
0.11249 0.337423 0
0.131701 0.340948 0
0.155276 0.34493 0
0.186481 0.348302 0
0.224735 0.350088 0
0.272801 0.349508 0.000274662
0.331258 0.346532 0.00117494
0.395041 0.342611 0.00143435
0.458427 0.339132 0.00122072
0.52517 0.335149 0.000106813
0.602472 0.328817 0
0.687037 0.321218 0
0.737499 0.31606 0
0.756252 0.31487 0
0.77499 0.31339 0
0.793744 0.309712 0
0.812497 0.307103 0
0.83125 0.305486 0
0.850004 0.304509 0
0.868742 0.304494 0
0.887495 0.30515 0
0.906249 0.306172 0
0.925002 0.308736 0
0.943755 0.313359 0
0.962493 0.318334 0
0.981247 0.323323 0
1 0.32842 0
0 0.365591 0
0.0187381 0.368353 0
0.0374914 0.371588 0
0.0562448 0.375097 0
0.0749981 0.378759 0
0.0937362 0.381918 0
0.11249 0.384787 0
0.131243 0.388479 0
0.151507 0.393332 0
0.180194 0.398169 0
0.217517 0.401495 0
0.263935 0.402823 0.000579843
0.320668 0.401663 0.00148013
0.384787 0.398566 0.00146487
0.449226 0.395575 0.00125124
0.515648 0.391959 0.000228885
0.588479 0.387259 0
0.667826 0.381094 0
0.735729 0.376104 0
0.756252 0.373068 0
0.77499 0.372274 0
0.793744 0.36875 0
0.812497 0.365789 0
0.83125 0.363943 0
0.850004 0.363119 0
0.868742 0.363516 0
0.887495 0.364614 0
0.906249 0.366171 0
0.925002 0.368338 0
0.943755 0.37377 0
0.962493 0.379507 0
0.981247 0.385245 0
1 0.39089 0
0 0.413779 0
0.0187381 0.417807 0
0.0374914 0.422019 0
0.0562448 0.426383 0
0.0749981 0.430762 0
0.0937362 0.435096 0
0.11249 0.438682 0
0.131243 0.4421 0
0.15024 0.446693 0
0.175418 0.452155 0
0.21294 0.456107 0.000213626
0.258289 0.458381 0.00236515
0.312963 0.458198 0.00341802
0.376272 0.455512 0.0028687
0.440574 0.452293 0.00207523
0.506615 0.448951 0.000549325
0.576898 0.444892 0
0.650843 0.440513 0
0.723079 0.436896 0
0.756252 0.434272 0
0.77499 0.433997 0
0.793744 0.431418 0
0.812497 0.428702 0
0.83125 0.427008 0
0.850004 0.426459 0
0.868742 0.427085 0
0.887495 0.428489 0
0.906249 0.430381 0
0.925002 0.432532 0
0.943755 0.438407 0
0.962493 0.444282 0
0.981247 0.45008 0
1 0.45568 0
0 0.467643 0
0.0187381 0.472435 0
0.0374914 0.477714 0
0.0562448 0.483177 0
0.0749981 0.488624 0
0.0937362 0.493767 0
0.11249 0.498131 0
0.131243 0.501793 0
0.149996 0.504997 0
0.170489 0.509422 0
0.205646 0.512993 0.00015259
0.250721 0.51519 0.00241093
0.304082 0.515145 0.00396735
0.3664 0.512642 0.0033875
0.43093 0.509743 0.00231937
0.496742 0.506767 0.000518807
0.565805 0.503288 0
0.636728 0.500069 0
0.705684 0.497642 0
0.755962 0.49633 0
0.77499 0.496315 0
0.793744 0.495232 0
0.812497 0.49305 0
0.83125 0.491493 0
0.850004 0.491417 0
0.868742 0.492149 0
0.887495 0.493614 0
0.906249 0.495277 0
0.925002 0.497658 0
0.943755 0.502983 0
0.962493 0.508629 0
0.981247 0.514046 0
1 0.519387 0
0 0.527611 0
0.0187381 0.533364 0
0.0374914 0.539422 0
0.0562448 0.545525 0
0.0749981 0.551583 0
0.0937362 0.557443 0
0.11249 0.562539 0
0.131243 0.566461 0
0.149996 0.568841 0
0.16875 0.570871 0
0.193591 0.572747 0
0.238804 0.573877 0.000289921
0.293278 0.573556 0.00369268
0.355566 0.571084 0.0041352
0.420432 0.568475 0.00277714
0.486076 0.565911 0.000167849
0.554757 0.562921 0
0.623575 0.560372 0
0.689219 0.558709 0
0.747066 0.558556 0
0.77499 0.558526 0
0.793744 0.558526 0
0.812497 0.556649 0
0.83125 0.555535 0
0.850004 0.555413 0
0.868742 0.556161 0
0.887495 0.557305 0
0.906249 0.559182 0
0.925002 0.561349 0
0.943755 0.565515 0
0.962493 0.570428 0
0.981247 0.575051 0
1 0.579782 0
0 0.591836 0
0.0187381 0.598352 0
0.0374914 0.60499 0
0.0562448 0.611383 0
0.0749981 0.617792 0
0.0937362 0.624002 0
0.11249 0.629374 0
0.131243 0.633387 0
0.149996 0.635721 0
0.16875 0.636652 0
0.187732 0.636713 0
0.219959 0.636378 0
0.276555 0.635019 0.00102235
0.341039 0.631693 0.00352483
0.408911 0.628046 0.00260929
0.475395 0.625086 6.10361e-05
0.544366 0.621668 0
0.612329 0.618524 0
0.675914 0.616983 0
0.732815 0.616907 0
0.773648 0.616907 0
0.793744 0.616876 0
0.812497 0.615717 0
0.83125 0.614954 0
0.850004 0.615045 0
0.868742 0.615625 0
0.887495 0.61648 0
0.906249 0.617761 0
0.925002 0.61941 0
0.943755 0.622522 0
0.962493 0.626596 0
0.981247 0.630076 0
1 0.633478 0
0 0.658213 0
0.0187381 0.664729 0
0.0374914 0.670863 0
0.0562448 0.676799 0
0.0749981 0.682643 0
0.0937362 0.688273 0
0.11249 0.693324 0
0.131243 0.697139 0
0.149996 0.699397 0
0.16875 0.700435 0
0.187488 0.700343 0
0.206714 0.699855 0
0.254032 0.698192 0
0.317433 0.694408 0.000381476
0.389456 0.688609 0.000595102
0.460792 0.683238 0
0.531777 0.677928 0
0.601694 0.673228 0
0.665492 0.670222 0
0.720623 0.6692 0
0.767529 0.66894 0
0.793744 0.66833 0
0.812497 0.667521 0
0.83125 0.666865 0
0.850004 0.666712 0
0.868742 0.66714 0
0.887495 0.667933 0
0.906249 0.668925 0
0.925002 0.669993 0
0.943755 0.671626 0
0.962493 0.67454 0
0.981247 0.677394 0
1 0.68011 0
0 0.720623 0
0.0187381 0.726192 0
0.0374914 0.731685 0
0.0562448 0.737118 0
0.0749981 0.741482 0
0.0937362 0.745632 0
0.11249 0.749584 0
0.131243 0.752926 0
0.149996 0.755703 0
0.16875 0.75552 0
0.187488 0.755642 0
0.206241 0.755764 0
0.237919 0.754955 0
0.292607 0.753033 0
0.359976 0.747799 0
0.437919 0.739696 0
0.514076 0.731502 0
0.588785 0.723796 0
0.656031 0.718242 0
0.711818 0.71548 0
0.758526 0.714137 0
0.793088 0.712978 0
0.812497 0.712154 0
0.83125 0.711498 0
0.850004 0.711192 0
0.868742 0.711269 0
0.887495 0.711589 0
0.906249 0.712184 0
0.925002 0.713024 0
0.943755 0.713954 0
0.962493 0.71606 0
0.981247 0.717922 0
1 0.719692 0
0 0.773709 0
0.0187381 0.77499 0
0.0374914 0.77499 0
0.0562448 0.77499 0
0.0749981 0.77499 0
0.0937362 0.77499 0
0.11249 0.77499 0
0.131243 0.77499 0
0.149996 0.77499 0
0.16875 0.77499 0
0.187488 0.77499 0
0.206241 0.77499 0
0.232166 0.77499 0
0.277897 0.77499 0
0.334035 0.77499 0
0.40766 0.77499 0
0.490181 0.773114 0
0.570672 0.768856 0
0.644526 0.762097 0
0.703731 0.756832 0
0.750866 0.753811 0
0.790768 0.75198 0
0.812497 0.750652 0
0.83125 0.749859 0
0.850004 0.749523 0
0.868742 0.749508 0
0.887495 0.749767 0
0.906249 0.750057 0
0.925002 0.750454 0
0.943755 0.75082 0
0.962493 0.752163 0
0.981247 0.753567 0
1 0.754894 0
0 0.793744 0
0.0187381 0.793744 0
0.0374914 0.793744 0
0.0562448 0.793744 0
0.0749981 0.793744 0
0.0937362 0.793744 0
0.11249 0.793744 0
0.131243 0.793744 0
0.149996 0.793744 0
0.16875 0.793744 0
0.187488 0.793744 0
0.206241 0.793744 0
0.232364 0.793744 0
0.274983 0.793744 0
0.321477 0.793744 0
0.382132 0.793744 0
0.465614 0.793744 0
0.550423 0.793744 0
0.631098 0.793729 0
0.695964 0.793179 0
0.744427 0.789731 0
0.785306 0.787289 0
0.812497 0.78558 0
0.83125 0.784375 0
0.850004 0.783871 0
0.868742 0.783597 0
0.887495 0.783536 0
0.906249 0.783627 0
0.925002 0.783886 0
0.943755 0.784085 0
0.962493 0.784863 0
0.981247 0.785901 0
1 0.786908 0
0 0.812497 0
0.0187381 0.812497 0
0.0374914 0.812497 0
0.0562448 0.812497 0
0.0749981 0.812497 0
0.0937362 0.812497 0
0.11249 0.812497 0
0.131243 0.812497 0
0.149996 0.812497 0
0.16875 0.812497 0
0.187488 0.812497 0
0.206241 0.812497 0
0.231327 0.812497 0
0.273732 0.812497 0
0.318379 0.812497 0
0.373877 0.812497 0
0.451209 0.812497 0
0.536538 0.812497 0
0.619455 0.812497 0
0.687602 0.812497 0
0.738155 0.812497 0
0.779507 0.812497 0
0.811734 0.812497 0
0.83125 0.812497 0
0.850004 0.812161 0
0.868742 0.811566 0
0.887495 0.811185 0
0.906249 0.811032 0
0.925002 0.811063 0
0.943755 0.811307 0
0.962493 0.811719 0
0.981247 0.812192 0
1 0.812497 0
0 0.83125 0
0.0187381 0.83125 0
0.0374914 0.83125 0
0.0562448 0.83125 0
0.0749981 0.83125 0
0.0937362 0.83125 0
0.11249 0.83125 0
0.131243 0.83125 0
0.149996 0.83125 0
0.16875 0.83125 0
0.187488 0.83125 0
0.206241 0.83125 0
0.230228 0.83125 0
0.272602 0.83125 0
0.31603 0.83125 0
0.369345 0.83125 0
0.44271 0.83125 0
0.526482 0.83125 0
0.609323 0.83125 0
0.679194 0.83125 0
0.731868 0.83125 0
0.773983 0.83125 0
0.808225 0.83125 0
0.83125 0.83125 0
0.850004 0.83125 0
0.868742 0.83125 0
0.887495 0.83125 0
0.906249 0.83125 0
0.925002 0.83125 0
0.943755 0.83125 0
0.962493 0.83125 0
0.981247 0.83125 0
1 0.83125 0
0 0.850004 0
0.0187381 0.850004 0
0.0374914 0.850004 0
0.0562448 0.850004 0
0.0749981 0.850004 0
0.0937362 0.850004 0
0.11249 0.850004 0
0.131243 0.850004 0
0.149996 0.850004 0
0.16875 0.850004 0
0.187488 0.850004 0
0.206241 0.850004 0
0.23093 0.850004 0
0.272084 0.850004 0
0.315099 0.850004 0
0.367819 0.850004 0
0.439933 0.850004 0
0.522606 0.850004 0
0.604517 0.850004 0
0.67425 0.850004 0
0.727794 0.850004 0
0.769863 0.850004 0
0.805814 0.850004 0
0.831235 0.850004 0
0.850004 0.850004 0
0.868742 0.850004 0
0.887495 0.850004 0
0.906249 0.850004 0
0.925002 0.850004 0
0.943755 0.850004 0
0.962493 0.850004 0
0.981247 0.850004 0
1 0.850004 0
0 0.868742 0
0.0187381 0.868742 0
0.0374914 0.868742 0
0.0562448 0.868742 0
0.0749981 0.868742 0
0.0937362 0.868742 0
0.11249 0.868742 0
0.131243 0.868742 0
0.149996 0.868742 0
0.16875 0.868742 0
0.187488 0.868742 0
0.206241 0.868742 0
0.23064 0.868742 0
0.272068 0.868742 0
0.315251 0.868742 0
0.366781 0.868742 0
0.438926 0.868742 0
0.520989 0.868742 0
0.602579 0.868742 0
0.672099 0.868742 0
0.725978 0.868742 0
0.767651 0.868742 0
0.804349 0.868742 0
0.830564 0.868742 0
0.850004 0.868742 0
0.868742 0.868742 0
0.887495 0.868742 0
0.906249 0.868742 0
0.925002 0.868742 0
0.943755 0.868742 0
0.962493 0.868742 0
0.981247 0.868742 0
1 0.868742 0
0 0.887495 0
0.0187381 0.887495 0
0.0374914 0.887495 0
0.0562448 0.887495 0
0.0749981 0.887495 0
0.0937362 0.887495 0
0.11249 0.887495 0
0.131243 0.887495 0
0.149996 0.887495 0
0.16875 0.887495 0
0.187488 0.887495 0
0.206241 0.887495 0
0.230137 0.887495 0
0.272206 0.887495 0
0.315267 0.887495 0
0.366781 0.887495 0
0.43801 0.887495 0
0.519646 0.887495 0
0.600717 0.887495 0
0.670573 0.887495 0
0.7243 0.887495 0
0.766232 0.887495 0
0.802777 0.887495 0
0.830014 0.887495 0
0.850004 0.887495 0
0.868742 0.887495 0
0.887495 0.887495 0
0.906249 0.887495 0
0.925002 0.887495 0
0.943755 0.887495 0
0.962493 0.887495 0
0.981247 0.887495 0
1 0.887495 0
0 0.906249 0
0.0187381 0.906249 0
0.0374914 0.906249 0
0.0562448 0.906249 0
0.0749981 0.906249 0
0.0937362 0.906249 0
0.11249 0.906249 0
0.131243 0.906249 0
0.149996 0.906249 0
