datas/cubes/TC - EDITORIAL_60.cube
TITLE "Generate by Resolve"
LUT_3D_SIZE 9
0 0.00436408 0.0159915
0.0588388 0.000915541 0.0126192
0.160891 0.000289921 0.00267033
0.352972 0 0
0.620523 0 0
0.816983 0 0
0.871015 0 0
0.921019 0 0
0.971023 0 0
0.000122072 0.0746166 0.00680552
0.0517128 0.0729992 0.00552377
0.154803 0.0648356 0.00077821
0.353445 0.0499886 0
0.631174 0.0499886 0
0.819074 0.0499886 0
0.871015 0.0499886 0
0.921019 0.0499886 0
0.971023 0.0499886 0
0 0.1608 0
0.0499886 0.163577 0
0.144762 0.159045 0.00125124
0.351705 0.136339 0
0.653864 0.102617 0
0.821591 0.0999924 0
0.871229 0.0999924 0
0.921019 0.0999924 0
0.97113 0.0999924 0
0 0.295674 0
0.0499886 0.310048 0
0.10074 0.324071 0
0.338643 0.299947 0.00701915
0.646998 0.276646 0.00135805
0.849027 0.267704 0.0012665
0.896483 0.253056 0.000106813
0.94818 0.25594 0
0.999664 0.27013 0.00146487
0 0.531319 0
0.0499886 0.555352 0
0.0999924 0.582452 0
0.236088 0.580056 0
0.64654 0.523552 0.0252842
0.850004 0.535912 0.0444343
0.899992 0.531792 0.0418708
0.949996 0.540276 0.0438392
1 0.556558 0.0471656
0.0155795 0.801663 0.0142061
0.0710002 0.823972 0.0195773
0.125566 0.841016 0.0240787
0.209751 0.83801 0.0248722
0.593194 0.798321 0.00756847
0.849012 0.7673 0.0429999
0.899992 0.759503 0.0587625
0.949996 0.763592 0.0585946
1 0.772671 0.0581521
0.0314183 0.899992 0.0298161
0.0814221 0.899992 0.0298161
0.131411 0.899992 0.0298161
0.191608 0.899992 0.0302281
0.527749 0.899992 0.0110475
0.826261 0.883253 0.0259251
0.899992 0.877195 0.0524605
0.949996 0.877089 0.0531167
1 0.877089 0.0531167
0.0314183 0.949996 0.0298161
0.0814221 0.949996 0.0298161
0.131411 0.949996 0.0298161
0.215946 0.949996 0.0307927
0.55642 0.949996 0.00915541
0.823926 0.933333 0.0254826
0.899992 0.927352 0.0514687
0.949996 0.927092 0.0531167
1 0.927092 0.0531167
0.0314183 1 0.0298161
0.0814221 1 0.0298161
0.131411 1 0.0298161
0.244541 1 0.0309606
0.594125 1 0.00717174
0.832975 0.982635 0.0278782
0.899992 0.97731 0.0517433
0.949996 0.977096 0.0531167
1 0.977096 0.0531167
0 0.00234989 0.0991836
0.0568856 9.15541e-05 0.0959487
0.159915 4.57771e-05 0.0838788
0.352377 0 0.0501717
0.620111 0 0.0499886
0.816999 0 0.0499886
0.871015 0 0.0499886
0.921019 0 0.0499886
0.971023 0 0.0499886
0 0.0743877 0.0862898
0.0503853 0.0729076 0.0852827
0.154635 0.0643168 0.0788434
0.355581 0.0499886 0.0499886
0.634058 0.0499886 0.0499886
0.81944 0.0499886 0.0499886
0.871015 0.0499886 0.0499886
0.921019 0.0499886 0.0499886
0.971023 0.0499886 0.0499886
7.62951e-05 0.161456 0.0661173
0.0500649 0.16492 0.0673686
0.143816 0.161913 0.0664073
0.358862 0.13814 0.0499886
0.660273 0.103716 0.0499886
0.821851 0.0999924 0.0499886
0.87129 0.0999924 0.0499886
0.921019 0.0999924 0.0499886
0.971237 0.0999924 0.0499886
0 0.299947 0.0499886
0.0499886 0.316228 0.0499886
0.101091 0.331121 0.0499886
0.349371 0.306569 0.0572213
0.656977 0.284688 0.0523537
0.849454 0.275395 0.0522164
0.897566 0.260533 0.0502327
0.949508 0.264225 0.0499886
1 0.279789 0.0526894
0 0.538888 0.0499886
0.0499886 0.565194 0.0499886
0.0999924 0.592294 0.0499886
0.245472 0.588373 0.0499886
0.654017 0.53077 0.0762036
0.850004 0.544701 0.096025
0.899992 0.540291 0.0937514
0.949996 0.549279 0.0958572
1 0.565057 0.0987869
0.0173495 0.80885 0.0659495
0.0727855 0.830884 0.0713359
0.126848 0.844388 0.0753338
0.216846 0.84181 0.0762036
0.603754 0.803159 0.0579385
0.849241 0.773022 0.0932326
0.899992 0.764935 0.108492
0.949996 0.768917 0.108339
1 0.777493 0.107774
0.0314183 0.899992 0.0798199
0.0814221 0.899992 0.0798199
0.131411 0.899992 0.0798199
0.193301 0.899992 0.0802777
0.538308 0.899992 0.06009
0.829633 0.883024 0.0766461
0.899992 0.87715 0.102739
0.949996 0.877089 0.103105
1 0.877089 0.103105
0.0314183 0.949996 0.0798199
0.0814221 0.949996 0.0798199
0.131411 0.949996 0.0798199
0.221378 0.949996 0.0808728
0.565362 0.949996 0.0586252
0.826429 0.93315 0.076112
0.899992 0.927337 0.10161
0.949996 0.927092 0.103105
1 0.927092 0.103105
0.0314183 1 0.0798199
0.0814221 1 0.0798199
0.131411 1 0.0798199
0.24799 1 0.0808728
0.597482 1 0.0570535
0.833402 0.982605 0.0780041
0.899992 0.977295 0.101762
0.949996 0.977096 0.103105
1 0.977096 0.103105
0 0 0.224247
0.0514839 0 0.220096
0.15404 0 0.202289
0.346853 0 0.153094
0.617456 0 0.100267
0.817304 0 0.0999924
0.871015 0 0.0999924
0.921019 0 0.0999924
0.971023 0 0.0999924
0 0.0694896 0.209964
0.0500496 0.0684825 0.208713
0.150423 0.061326 0.19733
0.353231 0.0499886 0.154376
0.635065 0.0499886 0.100954
0.820294 0.0499886 0.0999924
0.872023 0.0499886 0.0999924
0.921141 0.0499886 0.0999924
0.971557 0.0499886 0.0999924
0 0.161425 0.170993
0.0499886 0.165545 0.174716
0.137041 0.163455 0.179675
0.362371 0.138491 0.152895
0.665354 0.104479 0.108064
0.822965 0.0999924 0.0999924
0.871885 0.0999924 0.0999924
0.921874 0.0999924 0.0999924
0.972 0.0999924 0.0999924
0 0.303532 0.12166
0.0499886 0.321401 0.125963
0.101671 0.336828 0.129885
0.346395 0.315938 0.139635
0.661768 0.292256 0.115969
0.84979 0.281102 0.107454
0.898238 0.265568 0.101015
0.949996 0.269749 0.101823
1 0.285496 0.104952
0 0.545998 0.0999924
0.0499886 0.573297 0.0999924
0.0999924 0.599664 0.0999924
0.252766 0.594263 0.0999924
0.658854 0.537408 0.131868
0.850004 0.551049 0.147158
0.899992 0.546197 0.145052
0.949996 0.554681 0.146883
1 0.569635 0.14963
0.0188907 0.815259 0.117494
0.0739757 0.834989 0.122515
0.127672 0.84625 0.126146
0.222583 0.844099 0.127092
0.613077 0.802976 0.108263
0.849607 0.776959 0.143435
0.899992 0.768292 0.158312
0.949996 0.77171 0.158175
1 0.779507 0.157626
0.0314183 0.899992 0.129809
0.0814221 0.899992 0.129809
0.131411 0.899992 0.129809
0.196567 0.899992 0.130373
0.546441 0.899992 0.109422
0.831785 0.882872 0.127108
0.899992 0.877134 0.152834
0.949996 0.877089 0.153109
1 0.877089 0.153109
0.0314183 0.949996 0.129809
0.0814221 0.949996 0.129809
0.131411 0.949996 0.129809
0.222965 0.949996 0.130892
0.566659 0.949996 0.108537
0.826062 0.933181 0.126009
0.899992 0.927321 0.151629
0.949996 0.927092 0.153109
1 0.927092 0.153109
0.0314183 1 0.129809
0.0814221 1 0.129809
0.131411 1 0.129809
0.246235 1 0.130938
0.592935 1 0.107225
0.831418 0.982773 0.127398
0.899992 0.97731 0.15169
0.949996 0.977096 0.153109
1 0.977096 0.153109
0 0 0.488716
0.0499886 0 0.484321
0.135454 0 0.461082
0.321355 0 0.390814
0.603784 0 0.282734
0.817502 0 0.214099
0.874525 0 0.185138
0.92398 0 0.17203
0.973907 0 0.170291
0 0.0551766 0.473854
0.0499886 0.054612 0.473152
0.13402 0.0506752 0.458061
0.330724 0.0499886 0.398459
0.625406 0.0499886 0.30016
0.823285 0.0499886 0.237736
0.875471 0.0499886 0.212284
0.925383 0.0499886 0.208606
0.975662 0.0499886 0.219455
0 0.147967 0.428946
0.0499886 0.152453 0.439658
0.126772 0.152026 0.444144
0.349722 0.129854 0.406836
0.661799 0.101106 0.332723
0.827359 0.0999924 0.284092
0.876509 0.0999924 0.261219
0.92665 0.0999924 0.262028
0.976654 0.0999924 0.278996
0 0.30338 0.30425
0.0499886 0.321904 0.318883
0.0999924 0.338155 0.333776
0.310567 0.325399 0.356924
0.658305 0.294865 0.314733
0.850004 0.283101 0.291066
0.899977 0.268269 0.272374
0.949996 0.272938 0.275212
1 0.288731 0.291844
0 0.549416 0.22948
0.0499886 0.576288 0.243366
0.0999924 0.60264 0.260639
0.244495 0.602518 0.273014
0.634775 0.55198 0.287709
0.846738 0.562173 0.268772
0.899992 0.556161 0.257557
0.949996 0.564767 0.26038
1 0.5794 0.270268
0.0204166 0.816602 0.213092
0.0754864 0.83563 0.228031
0.129366 0.846677 0.245869
0.223682 0.844617 0.244419
0.58764 0.786999 0.243427
0.831617 0.762005 0.259907
0.899992 0.769528 0.23769
0.949996 0.772457 0.236866
1 0.779431 0.239292
0.031693 0.899992 0.197238
0.0818494 0.899992 0.206867
0.132082 0.899992 0.21857
0.197498 0.899992 0.214206
0.534997 0.899992 0.182071
0.82678 0.884047 0.189212
0.899992 0.877562 0.207782
0.949996 0.877379 0.207019
1 0.877287 0.205737
0.0320134 0.949996 0.214618
0.0823987 0.949996 0.232609
0.132555 0.949996 0.240101
0.219287 0.949996 0.227558
0.547097 0.949996 0.183719
0.819303 0.934157 0.181827
0.899992 0.927413 0.201862
0.949996 0.927092 0.203113
1 0.927092 0.203113
0.0327611 1 0.248936
0.0830701 1 0.264134
0.133059 1 0.263539
0.238758 1 0.243259
0.56553 1 0.191241
0.822919 0.984131 0.185946
0.899992 0.977462 0.201633
0.949996 0.977096 0.203113
1 0.977096 0.203113
0 0 0.765072
0.0499886 0 0.762737
0.11429 0 0.747921
0.288899 0 0.69398
0.574075 0 0.606119
0.804562 0 0.52517
0.875868 0 0.476432
0.926085 0 0.459403
0.976043 0 0.461616
0 0.0499886 0.758007
0.0499886 0.0499886 0.75877
0.114641 0.0499886 0.749722
0.300557 0.0499886 0.705257
0.600397 0.0499886 0.629511
0.818265 0.0499886 0.569543
0.875105 0.0499886 0.535088
0.925017 0.0499886 0.540764
0.974746 0.0499886 0.569131
0 0.131426 0.731472
0.0499886 0.13666 0.74374
0.113039 0.137911 0.749401
0.327413 0.118074 0.723949
0.645014 0.0999924 0.672145
0.82504 0.0999924 0.642588
0.874464 0.0999924 0.623407
0.924422 0.0999924 0.636591
0.97464 0.0999924 0.659998
0 0.286534 0.655344
0.0499886 0.30576 0.675853
0.0999924 0.323735 0.690883
0.299611 0.314061 0.70193
0.650843 0.283497 0.674937
0.850004 0.272023 0.658045
0.899992 0.258183 0.642512
0.949996 0.26276 0.65655
1 0.278096 0.681575
0 0.550805 0.516274
0.0499886 0.577279 0.544121
0.0999924 0.603281 0.572641
0.224002 0.601419 0.591501
0.588693 0.570901 0.605325
0.831342 0.561715 0.585977
0.899992 0.555322 0.576089
0.949996 0.563348 0.585977
1 0.577462 0.606119
0.0209506 0.813764 0.470054
0.0742657 0.832654 0.498543
0.126101 0.844465 0.528862
0.217029 0.841901 0.535164
0.529625 0.819272 0.534401
0.793606 0.766949 0.536034
0.899992 0.772503 0.526513
0.949996 0.775021 0.530739
1 0.781308 0.54255
0.0332494 0.899992 0.449607
0.0827039 0.899992 0.477317
0.131945 0.899992 0.50135
0.194522 0.899992 0.495979
0.481682 0.899992 0.485176
0.762951 0.897063 0.481682
0.899992 0.886778 0.513649
0.949996 0.884962 0.460273
1 0.88484 0.454688
0.0317082 0.949996 0.502892
0.0801556 0.949996 0.534096
0.129473 0.949996 0.545525
0.209583 0.949996 0.527718
0.484871 0.949996 0.498924
0.758373 0.947265 0.441428
0.899992 0.937011 0.495384
0.949996 0.934829 0.454932
1 0.933974 0.411292
0.0279088 1 0.567147
0.076112 1 0.588556
0.126497 1 0.584604
0.224277 1 0.55816
0.496818 1 0.517632
0.759304 0.997406 0.449805
0.899977 0.987198 0.499428
0.949996 0.984741 0.450996
1 0.983795 0.401984
0 0 0.840208
0.0499886 0 0.840208
0.101228 0 0.840223
0.260624 0 0.83888
0.546166 0 0.822736
0.792142 0 0.821942
0.876677 0 0.8112
0.926482 0 0.803555
0.976623 0 0.8094
0 0.0499886 0.840208
0.0499886 0.0499886 0.840208
0.103243 0.0499886 0.840223
0.274067 0.0499886 0.838285
0.577356 0.0499886 0.821347
0.814435 0.0499886 0.82768
0.877104 0.0499886 0.827268
0.927123 0.0499886 0.828229
0.977142 0.0499886 0.828733
0 0.116808 0.84007
0.0499886 0.122423 0.840116
0.104311 0.124651 0.840299
0.305409 0.109087 0.837232
0.629023 0.0999924 0.821164
0.826337 0.0999924 0.828717
0.87715 0.0999924 0.828733
0.927153 0.0999924 0.828733
0.977142 0.0999924 0.828733
0 0.27097 0.839109
0.0499886 0.28896 0.83772
0.0999924 0.306889 0.835782
0.287175 0.300313 0.850004
0.639323 0.271992 0.849638
0.84979 0.26273 0.850004
0.899992 0.250309 0.850004
0.949996 0.255299 0.850004
1 0.269413 0.850004
0 0.544259 0.809506
0.0499886 0.569986 0.806302
0.0999924 0.596048 0.804318
0.210727 0.593133 0.82977
0.58114 0.563684 0.850004
0.828763 0.551705 0.850004
0.899992 0.545525 0.850004
0.949996 0.553353 0.850004
1 0.566796 0.850004
3.0518e-05 0.81355 0.79794
0.05066 0.832074 0.812833
0.102022 0.843641 0.814313
0.185489 0.841321 0.81854
0.49572 0.816953 0.830274
0.761913 0.782666 0.832013
0.899931 0.772488 0.827482
0.949966 0.774411 0.833204
1 0.780301 0.844877
0.0107424 0.899992 0.778729
0.0582589 0.899992 0.79913
0.106538 0.899992 0.813428
0.16524 0.899992 0.808606
0.45066 0.899992 0.807935
0.718944 0.899992 0.791104
0.894713 0.896193 0.788022
0.949996 0.895155 0.785794
1 0.895155 0.785962
0.00717174 0.949996 0.808148
0.0565042 0.949996 0.813672
0.106401 0.949996 0.814633
0.176974 0.949996 0.813489
0.447242 0.949996 0.810864
0.700954 0.949996 0.780133
0.882338 0.946151 0.765911
0.949996 0.944228 0.773678
1 0.943313 0.760266
0.00627146 1 0.815686
0.05626 1 0.815686
0.106264 1 0.815686
0.188647 1 0.818616
0.455863 1 0.817014
0.701778 1 0.784161
0.879118 0.996231 0.762402
0.949996 0.993973 0.769909
1 0.99321 0.758953
0 0 0.890211
0.0499886 0 0.890211
0.0999924 0 0.890211
0.239841 0 0.889647
0.522744 0 0.874098
0.77705 0 0.874708
0.87715 0 0.878737
0.927153 0 0.878737
0.977142 0 0.878737
0 0.0499886 0.890211
0.0499886 0.0499886 0.890211
0.0999924 0.0499886 0.890211
0.255299 0.0499886 0.889174
0.558938 0.0499886 0.872114
0.804196 0.0499886 0.876844
0.87715 0.0499886 0.878737
0.927153 0.0499886 0.878737
0.977142 0.0499886 0.878737
0 0.10454 0.890043
0.0499886 0.111315 0.890059
0.0999924 0.114656 0.890105
0.290883 0.103655 0.887587
0.617121 0.0999924 0.870756
0.823362 0.0999924 0.878431
0.87715 0.0999924 0.878737
0.927153 0.0999924 0.878737
0.977142 0.0999924 0.878737
0 0.257389 0.889891
0.0499886 0.275761 0.888747
0.0999924 0.294209 0.887083
0.276097 0.287633 0.899931
0.627024 0.259831 0.898253
0.846265 0.25182 0.899992
0.899992 0.24065 0.899992
0.949996 0.247791 0.899992
1 0.263813 0.899992
0 0.531975 0.861341
0.0499886 0.558129 0.857755
0.0999924 0.584985 0.855085
0.202991 0.581827 0.87892
0.571969 0.553765 0.899992
0.823133 0.542077 0.899992
0.899992 0.536782 0.899992
0.949996 0.545815 0.899992
1 0.56025 0.899992
0 0.806607 0.862257
0.0502174 0.82652 0.863813
0.101411 0.840375 0.864912
0.178637 0.838666 0.869444
0.484382 0.8112 0.888487
0.754665 0.775479 0.898802
0.899901 0.765316 0.899992
0.949996 0.766491 0.899992
1 0.772305 0.899992
0.00627146 0.899992 0.86569
0.05626 0.899992 0.86569
0.106264 0.899992 0.86569
0.159884 0.899992 0.866194
0.434363 0.899992 0.88307
0.704509 0.899992 0.884352
0.884962 0.899992 0.898207
0.949996 0.899977 0.899992
1 0.899748 0.899992
0.00627146 0.949996 0.86569
0.05626 0.949996 0.86569
0.106264 0.949996 0.86569
0.171069 0.949996 0.86772
0.427283 0.949996 0.883192
0.680323 0.949996 0.883162
0.861784 0.949996 0.895216
0.949996 0.949996 0.899992
1 0.949996 0.899992
0.00627146 1 0.86569
0.05626 1 0.86569
0.106264 1 0.86569
0.180407 1 0.868986
0.434882 1 0.883146
0.679393 1 0.883101
0.855863 1 0.894438
0.949996 1 0.899992
1 1 0.899992
0 0 0.940215
0.0499886 0 0.940215
0.0999924 0 0.940215
0.234379 0 0.939803
0.514031 0 0.924666
0.770275 0 0.924193
0.87715 0 0.92874
0.927153 0 0.92874
0.977142 0 0.92874
0 0.0499886 0.940215
0.0499886 0.0499886 0.940215
0.0999924 0.0499886 0.940215
0.255177 0.0499886 0.939193
0.559792 0.0499886 0.922042
0.803967 0.0499886 0.926833
0.87715 0.0499886 0.92874
0.927153 0.0499886 0.92874
0.977142 0.0499886 0.92874
0 0.104616 0.940063
0.0499886 0.112642 0.940063
0.0999924 0.116579 0.940124
0.297505 0.103853 0.93724
0.623377 0.0999924 0.920775
0.82414 0.0999924 0.928481
0.87715 0.0999924 0.92874
0.927153 0.0999924 0.92874
0.977142 0.0999924 0.92874
0 0.258824 0.939879
0.0499886 0.280797 0.938308
0.0999924 0.300145 0.936492
0.282872 0.29369 0.949966
0.634379 0.265263 0.948852
0.84773 0.257343 0.949996
0.899992 0.246799 0.949996
0.949996 0.254749 0.949996
1 0.271077 0.949996
0 0.535393 0.910735
0.0499886 0.564141 0.907103
0.0999924 0.592386 0.904479
0.207736 0.589166 0.929412
0.577737 0.559976 0.949996
0.825513 0.548547 0.949996
0.899992 0.543496 0.949996
0.949996 0.552056 0.949996
1 0.566079 0.949996
0 0.809537 0.912551
0.0503395 0.830686 0.914076
0.101823 0.843473 0.915145
0.182803 0.842237 0.920119
0.489616 0.814298 0.93814
0.756024 0.778225 0.948775
0.89987 0.767529 0.949996
0.949996 0.768856 0.949996
0.999985 0.77467 0.949996
0.00627146 0.899992 0.915679
0.05626 0.899992 0.915679
0.106264 0.899992 0.915679
0.160494 0.899992 0.916274
0.436866 0.899992 0.933074
0.704372 0.899992 0.93434
0.884627 0.899992 0.948165
0.949996 0.899962 0.949996
1 0.899687 0.949996
0.00627146 0.949996 0.915679
0.05626 0.949996 0.915679
0.106264 0.949996 0.915679
0.171939 0.949996 0.91783
0.426947 0.949996 0.933196
0.678294 0.949996 0.933089
0.859068 0.949996 0.944869
0.949996 0.949996 0.949996
1 0.949996 0.949996
0.00627146 1 0.915679
0.05626 1 0.915679
0.106264 1 0.915679
0.179629 1 0.918883
0.43238 1 0.933165
0.676204 1 0.932998
0.85214 1 0.943969
0.949981 1 0.949996
1 1 0.949996
0 0 0.990219
0.0499886 0 0.990219
0.0999924 0 0.990219
0.234836 0 0.989807
0.51635 0 0.974517
0.772915 0 0.97438
0.87715 0 0.978744
0.927153 0 0.978744
0.977142 0 0.978744
0 0.0499886 0.990219
0.0499886 0.0499886 0.990219
0.0999924 0.0499886 0.990219
0.259663 0.0499886 0.989029
0.568643 0.0499886 0.971603
0.80856 0.0499886 0.977203
0.87715 0.0499886 0.978744
0.927153 0.0499886 0.978744
0.977142 0.0499886 0.978744
0 0.106813 0.990051
0.0499886 0.115557 0.990082
0.0999924 0.1196 0.990173
0.306767 0.104448 0.986786
0.632136 0.0999924 0.97084
0.825223 0.0999924 0.978592
0.87715 0.0999924 0.978744
0.927153 0.0999924 0.978744
0.977142 0.0999924 0.978744
0 0.265019 0.989548
0.0499886 0.289281 0.987564
0.0999924 0.308186 0.985687
0.291279 0.301213 1
0.64419 0.272663 0.999512
0.849149 0.264912 1
0.899992 0.25417 1
0.949996 0.262196 1
1 0.278508 1
0 0.544762 0.959426
0.0499886 0.574823 0.955978
0.0999924 0.602335 0.95375
0.21384 0.598947 0.980026
0.585199 0.568002 1
0.828824 0.556588 1
0.899992 0.550912 1
0.949996 0.55848 1
1 0.571984 1
1.5259e-05 0.817151 0.963119
0.0507362 0.836774 0.964553
0.102419 0.84683 0.965408
0.18793 0.846265 0.970916
0.496849 0.818708 0.98764
0.759106 0.782834 0.998764
0.899931 0.771588 1
0.949996 0.772412 1
0.999985 0.777539 1
0.00627146 0.899992 0.965682
0.05626 0.899992 0.965682
0.106264 0.899992 0.965682
0.162982 0.899992 0.966613
0.44152 0.899992 0.983063
0.706416 0.899992 0.984451
0.885786 0.899992 0.998322
0.949996 0.899962 1
1 0.899718 1
0.00627146 0.949996 0.965682
0.05626 0.949996 0.965682
0.106264 0.949996 0.965682
0.173236 0.949996 0.968017
0.428382 0.949996 0.983185
0.678492 0.949996 0.983093
0.858747 0.949996 0.994812
0.949996 0.949996 1
1 0.949996 1
0.00627146 1 0.965682
0.05626 1 0.965682
0.106264 1 0.965682
0.179629 1 0.968887
0.431525 1 0.983169
0.675059 1 0.982956
0.85124 1 0.993851
0.949966 1 1
1 1 1
