datas/cubes/TC - EDITORIAL_40.cube
TITLE "Generate by Resolve"
LUT_3D_SIZE 33
0 0.00291447 0.0106508
0.0187381 0.00244144 0.0102388
0.038056 0.00177005 0.00959792
0.0585489 0.00108339 0.00894179
0.0808881 0.000610361 0.00842298
0.105699 0.000213626 0.00755322
0.131899 0.000106813 0.00616464
0.15996 0.00015259 0.00428778
0.190585 0.000198367 0.00177005
0.224643 9.15541e-05 0.000213626
0.262562 0 0
0.307149 0 0
0.360311 0 0
0.417121 0 0
0.472038 0 0
0.52604 0 0
0.580346 0 0
0.63151 0 0
0.677653 0 0
0.720088 0 0
0.752987 0 0
0.774426 0 0
0.793179 0 0
0.811933 0 0
0.830686 0 0
0.849424 0 0
0.868177 0 0
0.886931 0 0
0.905684 0 0
0.924437 0 0
0.943175 0 0
0.961929 0 0
0.980682 0 0
0 0.0245212 0.00848402
0.0187381 0.0242161 0.00822461
0.0377203 0.0236973 0.00787366
0.0577401 0.0231174 0.00756847
0.0796521 0.0225681 0.0074464
0.10454 0.0218662 0.00660716
0.130755 0.0211337 0.00534066
0.158877 0.0203098 0.00363165
0.189654 0.0194858 0.00135805
0.223896 0.0189059 9.15541e-05
0.261921 0.0187381 0
0.306661 0.0187381 0
0.360067 0.0187381 0
0.417258 0.0187381 0
0.472343 0.0187381 0
0.526528 0.0187381 0
0.581048 0.0187381 0
0.632242 0.0187381 0
0.678462 0.0187381 0
0.720653 0.0187381 0
0.75314 0.0187381 0
0.774426 0.0187381 0
0.793179 0.0187381 0
0.811933 0.0187381 0
0.830686 0.0187381 0
0.849424 0.0187381 0
0.868177 0.0187381 0
0.886931 0.0187381 0
0.905684 0.0187381 0
0.924437 0.0187381 0
0.943175 0.0187381 0
0.961929 0.0187381 0
0.980682 0.0187381 0
0 0.0464637 0.00686656
0.0187533 0.0462196 0.00669871
0.0376135 0.0458076 0.00643931
0.0572518 0.045304 0.00624094
0.0784466 0.04477 0.00624094
0.103517 0.0438697 0.00579843
0.12961 0.0429084 0.00453193
0.157671 0.0415961 0.00282292
0.188571 0.0399329 0.000885023
0.222919 0.0384527 0
0.261006 0.037644 0
0.305806 0.0374914 0
0.359091 0.0374914 0
0.416648 0.0374914 0
0.472084 0.0374914 0
0.526574 0.0374914 0
0.581506 0.0374914 0
0.633036 0.0374914 0
0.679469 0.0374914 0
0.721477 0.0374914 0
0.753368 0.0374914 0
0.774426 0.0374914 0
0.793179 0.0374914 0
0.811933 0.0374914 0
0.830686 0.0374914 0
0.849424 0.0374914 0
0.868177 0.0374914 0
0.886931 0.0374914 0
0.905684 0.0374914 0
0.924437 0.0374914 0
0.943175 0.0374914 0
0.961929 0.0374914 0
0.980682 0.0374914 0
3.0518e-05 0.0687419 0.00564584
0.0187686 0.0685283 0.00549325
0.0376135 0.0681621 0.00523384
0.0569314 0.0677501 0.00500496
0.0772869 0.0673075 0.00494392
0.102434 0.0663157 0.00474556
0.128679 0.0652323 0.00386053
0.156664 0.0638132 0.0021973
0.187472 0.061738 0.000579843
0.222019 0.0592355 0
0.260548 0.0569314 0
0.30573 0.0562753 0
0.35967 0.0562448 0
0.417762 0.0562448 0
0.473594 0.0562448 0
0.528466 0.0562448 0
0.583535 0.0562448 0
0.635126 0.0562448 0
0.68127 0.0562448 0
0.722957 0.0562448 0
0.753735 0.0562448 0
0.774426 0.0562448 0
0.793179 0.0562448 0
0.811933 0.0562448 0
0.830686 0.0562448 0
0.849424 0.0562448 0
0.868177 0.0562448 0
0.886931 0.0562448 0
0.905684 0.0562448 0
0.924437 0.0562448 0
0.943175 0.0562448 0
0.961929 0.0562448 0
0.980682 0.0562448 0
7.62951e-05 0.0914015 0.00454719
0.0188144 0.091249 0.00440986
0.037583 0.0909438 0.00418097
0.0565652 0.0906386 0.00390631
0.0761273 0.0903182 0.00369268
0.100877 0.0894636 0.00296025
0.128298 0.0879835 0.0033875
0.156176 0.0866865 0.0021973
0.186542 0.0848859 0.000518807
0.221073 0.0820783 0
0.259846 0.0784009 0
0.30573 0.0752117 0
0.360632 0.0749981 0
0.419501 0.0749981 0
0.475929 0.0749981 0
0.531731 0.0749981 0
0.587442 0.0749981 0
0.638911 0.0749981 0
0.68481 0.0749981 0
0.725673 0.0749981 0
0.754376 0.0749981 0
0.774426 0.0749981 0
0.793179 0.0749981 0
0.811933 0.0749981 0
0.830686 0.0749981 0
0.849424 0.0749981 0
0.868177 0.0749981 0
0.886931 0.0749981 0
0.905684 0.0749981 0
0.924437 0.0749981 0
0.943175 0.0749981 0
0.961929 0.0749981 0
0.980682 0.0749981 0
6.10361e-05 0.114733 0.00276188
0.0188144 0.114641 0.00265507
0.0375677 0.114458 0.00247196
0.0563516 0.114275 0.00227359
0.0753185 0.114153 0.00210575
0.0990463 0.113481 0.00157168
0.127062 0.111879 0.00164797
0.156176 0.110185 0.00215152
0.186282 0.108598 0.00112917
0.220218 0.106111 0.000122072
0.259205 0.102281 0
0.305486 0.0973983 0
0.361791 0.0940566 0
0.421683 0.0937362 0
0.478981 0.0937362 0
0.535897 0.0937362 0
0.592493 0.0937362 0
0.643687 0.0937362 0
0.689723 0.0937362 0
0.729076 0.0937362 0
0.755047 0.0937362 0
0.774426 0.0937362 0
0.793179 0.0937362 0
0.811933 0.0937362 0
0.830686 0.0937362 0
0.849424 0.0937362 0
0.868177 0.0937362 0
0.886931 0.0937362 0
0.905684 0.0937362 0
0.924437 0.0937362 0
0.943175 0.0937362 0
0.961929 0.0937362 0
0.980682 0.0937362 0
6.10361e-05 0.138827 0.000961318
0.0187991 0.138811 0.000915541
0.0375525 0.138796 0.000823987
0.0563058 0.138781 0.000732433
0.0750591 0.138796 0.000656138
0.0973678 0.138354 0.000427253
0.12398 0.137194 0.000396735
0.154467 0.135241 0.00143435
0.18616 0.133257 0.00216678
0.219715 0.131243 0.000900282
0.258228 0.127947 6.10361e-05
0.304891 0.122789 0
0.362707 0.116258 0
0.423789 0.113161 0
0.482185 0.11249 0
0.540352 0.11249 0
0.597574 0.11249 0
0.648066 0.11249 0
0.694286 0.11249 0
0.73167 0.11249 0
0.755398 0.11249 0
0.774426 0.11249 0
0.793179 0.11249 0
0.811933 0.11249 0
0.830686 0.11249 0
0.849424 0.11249 0
0.868177 0.11249 0
0.886931 0.11249 0
0.905684 0.11249 0
0.924437 0.11249 0
0.943175 0.11249 0
0.961929 0.11249 0
0.980682 0.11249 0
3.0518e-05 0.163973 7.62951e-05
0.0187686 0.164111 7.62951e-05
0.0375219 0.164279 6.10361e-05
0.05626 0.164477 6.10361e-05
0.0750134 0.164721 4.57771e-05
0.0956283 0.16463 1.5259e-05
0.119783 0.164019 0
0.150225 0.162341 0.000427253
0.18468 0.159899 0.0021973
0.219699 0.15761 0.00265507
0.257237 0.155077 0.000732433
0.303441 0.150591 0
0.362112 0.143526 0
0.424659 0.136416 0
0.484337 0.132555 0
0.543832 0.131319 0
0.601328 0.131243 0
0.651408 0.131243 0
0.697566 0.131243 0
0.733288 0.131243 0
0.755642 0.131243 0
0.774426 0.131243 0
0.793179 0.131243 0
0.811933 0.131243 0
0.830686 0.131243 0
0.849424 0.131243 0
0.868177 0.131243 0
0.886931 0.131243 0
0.905684 0.131243 0
0.924437 0.131243 0
0.943175 0.131243 0
0.961929 0.131243 0
0.980682 0.131243 0
0 0.190524 0
0.0187381 0.190814 0
0.0374914 0.191241 0
0.0562448 0.19176 0
0.0749981 0.192386 0
0.0942245 0.192767 0
0.115373 0.192676 0
0.143557 0.191775 0
0.179843 0.189349 0.000839246
0.218616 0.186282 0.00332647
0.257328 0.183673 0.00317388
0.30135 0.180377 0.00047303
0.359457 0.174228 0
0.423148 0.166644 0
0.483894 0.15903 0
0.544518 0.153933 0
0.602564 0.151736 0
0.653071 0.150439 0
0.699214 0.149996 0
0.734478 0.149996 0
0.756069 0.149996 0
0.774701 0.149996 0
0.793423 0.149996 0
0.812146 0.149996 0
0.830808 0.149996 0
0.84947 0.149996 0
0.868177 0.149996 0
0.886931 0.149996 0
0.905684 0.149996 0
0.924437 0.149996 0
0.943221 0.149996 0
0.96199 0.149996 0
0.980743 0.149996 0
0 0.218936 0
0.0187381 0.219471 0
0.0374914 0.220142 0
0.0562448 0.221057 0
0.0749981 0.222141 0
0.0937362 0.223133 0
0.112886 0.223667 0
0.137362 0.223468 0
0.171542 0.221912 4.57771e-05
0.21355 0.218463 0.00166323
0.256947 0.214725 0.00479133
0.301381 0.211582 0.00363165
0.356283 0.20705 0.000274662
0.419379 0.200488 0
0.481071 0.193561 0
0.54255 0.186801 0
0.601892 0.181521 0
0.653193 0.177844 0
0.699702 0.175845 0
0.736263 0.174548 0
0.758068 0.1729 0
0.77641 0.171176 0
0.794858 0.169558 0
0.813321 0.16875 0
0.831815 0.16875 0
0.850416 0.16875 0
0.869139 0.16875 0
0.887907 0.16875 0
0.906722 0.1691 0
0.925612 0.169665 0
0.944488 0.170062 0
0.963241 0.170291 0
0.982208 0.170642 0
0 0.249683 0
0.0187381 0.250462 0
0.0374914 0.25156 0
0.0562448 0.252827 0
0.0749981 0.254475 0
0.0937362 0.256153 0
0.11249 0.257237 0
0.133196 0.257572 0
0.162158 0.256977 0
0.203677 0.254383 0.000183108
0.252125 0.249866 0.00273136
0.301701 0.245304 0.00631724
0.355932 0.241276 0.00341802
0.416419 0.236561 0.000122072
0.47808 0.230915 0
0.53959 0.224994 0
0.600214 0.220295 0
0.652644 0.217227 0
0.699977 0.215 0
0.739116 0.212818 0
0.762234 0.209552 0
0.78027 0.206241 0
0.798444 0.20351 0
0.816739 0.201587 0
0.835142 0.200031 0
0.853635 0.198581 0
0.872404 0.198474 0
0.891325 0.199115 0
0.910292 0.200092 0
0.929335 0.201465 0
0.948379 0.202899 0
0.967437 0.204364 0
0.986587 0.206409 0
0 0.283421 0
0.0187381 0.284489 0
0.0374914 0.286229 0
0.0562448 0.288106 0
0.0749981 0.29041 0
0.0937362 0.292866 0
0.11249 0.294759 0
0.131319 0.295705 0
0.154665 0.29572 0
0.19115 0.294499 0
0.240986 0.290288 3.0518e-05
0.296773 0.284169 0.00389105
0.356527 0.278447 0.00701915
0.417075 0.27451 0.00347906
0.476905 0.270802 0.000274662
0.537133 0.266255 0
0.598474 0.262455 0
0.652155 0.260212 0
0.700465 0.258717 0
0.742428 0.257252 0
0.768444 0.254337 0
0.786343 0.25098 0
0.80444 0.248341 0
0.822675 0.24625 0
0.841047 0.244678 0
0.859617 0.243885 0
0.878401 0.243992 0
0.897337 0.244724 0
0.916411 0.246036 0
0.935546 0.247608 0
0.954726 0.249348 0
0.973907 0.251118 0
0.99324 0.253513 0
0 0.322118 0
0.0187381 0.323629 0
0.0374914 0.326024 0
0.0562448 0.328527 0
0.0749981 0.331701 0
0.0937362 0.335195 0
0.11249 0.338323 0
0.131243 0.340337 0
0.1505 0.341039 0
0.179004 0.340658 0
0.224475 0.33846 0
0.283497 0.332723 0
0.350759 0.324971 0.00466926
0.418997 0.31873 0.00822461
0.480507 0.314946 0.00598154
0.538323 0.311955 0.00177005
0.598001 0.309422 0.000915541
0.65182 0.30779 0.000549325
0.70045 0.306752 0.000579843
0.744595 0.305821 0.000762951
0.77435 0.303471 0.000854505
0.792554 0.300206 0.000701915
0.810773 0.297505 0.000518807
0.829129 0.295293 0.000274662
0.847654 0.29369 6.10361e-05
0.866392 0.292912 0
0.885359 0.293111 0
0.904509 0.294087 0
0.923781 0.295613 0
0.943114 0.297505 0
0.962356 0.299657 6.10361e-05
0.981003 0.302144 0.000518807
0.999771 0.305089 0.000976577
0 0.366506 0
0.0187381 0.368566 0
0.0374914 0.371557 0
0.0562448 0.37496 0
0.0749981 0.37908 0
0.0937362 0.383642 0
0.11249 0.387808 0
0.131243 0.390646 0
0.149996 0.391806 0
0.171618 0.391806 0
0.209415 0.391379 0
0.264958 0.388098 0
0.336919 0.379797 0.000823987
0.414084 0.371115 0.00657664
0.484413 0.365484 0.0112612
0.544656 0.362676 0.0108949
0.600778 0.361532 0.00796521
0.652216 0.36051 0.0059968
0.699825 0.359716 0.00552377
0.74377 0.358816 0.00585946
0.77499 0.35697 0.00607309
0.793744 0.35375 0.0055848
0.812497 0.350668 0.00500496
0.83125 0.348424 0.00457771
0.850004 0.346868 0.00437934
0.868742 0.346136 0.00437934
0.887495 0.346548 0.00453193
0.906249 0.34786 0.00476081
0.925002 0.350042 0.00509651
0.943755 0.352605 0.00550851
0.962493 0.355612 0.0059968
0.981247 0.35848 0.00646983
1 0.361837 0.00703441
0 0.415763 0
0.0187381 0.418433 0
0.0374914 0.422217 0
0.0562448 0.426215 0
0.0749981 0.430869 0
0.0937362 0.435843 0
0.11249 0.440497 0
0.131243 0.443824 0
0.149996 0.445579 0
0.168841 0.445747 0
0.199603 0.446021 0
0.249165 0.445151 0
0.318288 0.438987 7.62951e-05
0.402426 0.429343 0.00268559
0.482551 0.421729 0.00982681
0.549615 0.416831 0.015198
0.60531 0.414847 0.0162661
0.654536 0.414679 0.0149996
0.699901 0.415 0.0135958
0.742336 0.414847 0.0128939
0.77499 0.413931 0.012665
0.793744 0.411337 0.012253
0.812497 0.408347 0.0117189
0.83125 0.406332 0.0113527
0.850004 0.404974 0.0111086
0.868742 0.404471 0.0110475
0.887495 0.405264 0.0112306
0.906249 0.407034 0.0115663
0.925002 0.409613 0.0120241
0.943755 0.412619 0.0125734
0.962493 0.415961 0.0131533
0.981247 0.419196 0.0137331
1 0.422766 0.0143587
0 0.468147 0
0.0187381 0.471015 0
0.0374914 0.474922 0
0.0562448 0.47921 0
0.0749981 0.483711 0
0.0937362 0.488746 0
0.11249 0.493538 0
0.131243 0.496986 0
0.149996 0.499016 0
0.16875 0.499153 0
0.19202 0.499199 0
0.236561 0.499596 0
0.299062 0.49633 0
0.383017 0.487541 0
0.471748 0.477653 0.00494392
0.54641 0.470329 0.0133211
0.606714 0.467674 0.0197757
0.658289 0.467735 0.0229191
0.703151 0.468894 0.0230259
0.743877 0.47013 0.022034
0.77499 0.470817 0.0210117
0.793744 0.469932 0.0203098
0.812497 0.467567 0.0197757
0.83125 0.465782 0.0193637
0.850004 0.464683 0.0191348
0.868742 0.464607 0.0191501
0.887495 0.465614 0.0194095
0.906249 0.467628 0.0198978
0.925002 0.470375 0.0205386
0.943755 0.473503 0.0212711
0.962493 0.476768 0.0220188
0.981247 0.48014 0.022797
1 0.483574 0.0235752
0 0.520867 0
0.0187381 0.523674 0
0.0374914 0.52781 0
0.0562448 0.532189 0
0.0749981 0.536889 0
0.0937362 0.542321 0
0.11249 0.548119 0
0.131243 0.552529 0
0.149996 0.554971 0
0.16875 0.555276 0
0.187488 0.554711 0
0.226001 0.554986 0
0.282383 0.553368 0
0.358892 0.545266 0
0.451255 0.531334 0.000915541
0.531807 0.517937 0.00808728
0.597681 0.515709 0.016846
0.656886 0.519738 0.0245212
0.705089 0.521218 0.0288396
0.746517 0.522362 0.0300755
0.77499 0.523934 0.0296178
0.793744 0.52459 0.0288396
0.812497 0.523186 0.0283665
0.83125 0.521904 0.0280613
0.850004 0.521202 0.0279088
0.868742 0.521385 0.0279545
0.887495 0.52253 0.0282292
0.906249 0.524453 0.0286717
0.925002 0.526848 0.029221
0.943755 0.529702 0.0298772
0.962493 0.532341 0.0304265
0.981247 0.535042 0.0309453
1 0.537697 0.0314488
0 0.576455 0
0.0187381 0.579934 0
0.0374914 0.584558 0
0.0562448 0.589487 0
0.0749981 0.594491 0
0.0937362 0.600259 0
0.11249 0.605997 0
0.131243 0.6103 0
0.149996 0.612757 0
0.16875 0.613184 0
0.187488 0.61236 0
0.219928 0.612085 0
0.273182 0.609796 0
0.342718 0.599084 0
0.432502 0.581308 0
0.518029 0.565759 0.00335698
0.588922 0.568017 0.0119936
0.652247 0.574456 0.0213321
0.703746 0.575006 0.0288701
0.747158 0.574701 0.0332494
0.77499 0.575219 0.0349584
0.793744 0.575769 0.0351568
0.812497 0.575265 0.0348669
0.83125 0.57435 0.034699
0.850004 0.573846 0.0346532
0.868742 0.573999 0.0347143
0.887495 0.574884 0.0349126
0.906249 0.576562 0.0352178
0.925002 0.578592 0.035462
0.943755 0.580972 0.0357671
0.962493 0.583627 0.0361028
0.981247 0.58613 0.0364233
1 0.588708 0.0367437
0 0.634363 0
0.0187381 0.637507 0
0.0375372 0.642054 0
0.0564126 0.646815 0
0.0753948 0.651637 6.10361e-05
0.0945602 0.656809 0.000366217
0.113909 0.662287 0.000900282
0.133196 0.666438 0.00137331
0.1523 0.66894 0.00167849
0.17113 0.669703 0.00173953
0.189654 0.668818 0.00149538
0.218479 0.668025 0.00189212
0.268208 0.667292 0.00321965
0.329625 0.661967 0.00294499
0.410559 0.651804 0.000732433
0.504768 0.641596 0.00102235
0.586114 0.635279 0.00775158
0.647776 0.631769 0.0165255
0.700084 0.629114 0.0250401
0.74519 0.627329 0.0315251
0.77499 0.626459 0.0356451
0.793744 0.626291 0.0379492
0.812497 0.626032 0.0386664
0.83125 0.62533 0.0387121
0.850004 0.624811 0.0387121
0.868742 0.62475 0.0386664
0.887495 0.625513 0.0386969
0.906249 0.626886 0.0387732
0.925002 0.628748 0.03888
0.943755 0.630671 0.0389868
0.962493 0.632746 0.0391089
0.981247 0.634791 0.0392309
1 0.636942 0.039353
0.00201419 0.690166 0.00175479
0.0215 0.693172 0.00241093
0.0411994 0.697383 0.00317388
0.0610513 0.701823 0.00407416
0.0809033 0.706172 0.005066
0.100877 0.710948 0.0062562
0.120912 0.715953 0.0075227
0.140688 0.719966 0.00854505
0.160082 0.72253 0.00918593
0.178988 0.723156 0.00933852
0.197559 0.722469 0.00915541
0.221027 0.721065 0.00915541
0.266255 0.720897 0.0104219
0.321874 0.719356 0.0103456
0.392676 0.713939 0.00727855
0.486259 0.702602 0.0031281
0.575921 0.690455 0.00531014
0.641215 0.683238 0.0121462
0.695079 0.679011 0.020264
0.741466 0.67631 0.0273747
0.77499 0.67425 0.032929
0.793744 0.673091 0.0370184
0.812497 0.672328 0.0391699
0.83125 0.671519 0.0397192
0.850004 0.670939 0.039765
0.868742 0.670893 0.0397498
0.887495 0.67155 0.0397345
0.906249 0.67277 0.0397192
0.925002 0.674357 0.0397192
0.943755 0.676066 0.0397192
0.962493 0.677836 0.0397192
0.981247 0.679576 0.0397345
1 0.681407 0.0397345
0.0103761 0.742763 0.00946059
0.0298009 0.74551 0.0101472
0.0495155 0.749447 0.0110933
0.0692912 0.753628 0.0121004
0.0890059 0.757656 0.0130617
0.108766 0.761822 0.0140536
0.128466 0.765377 0.0149844
0.147906 0.767788 0.015671
0.167041 0.769009 0.0160525
0.185916 0.769223 0.0161746
0.204562 0.768658 0.016083
0.224567 0.767636 0.0159152
0.26482 0.766995 0.0165713
0.317769 0.765896 0.0164492
0.381918 0.762585 0.01355
0.469017 0.754086 0.00747692
0.562127 0.740551 0.00505074
0.632547 0.731167 0.00874342
0.688914 0.725887 0.01561
0.737011 0.722637 0.0226139
0.774334 0.719875 0.0286564
0.793744 0.717769 0.033753
0.812497 0.716274 0.0372625
0.83125 0.715221 0.0388495
0.850004 0.714672 0.0391852
0.868742 0.714611 0.0391852
0.887495 0.715175 0.0391546
0.906249 0.716152 0.0391089
0.925002 0.717388 0.0390631
0.943755 0.718944 0.0390021
0.962493 0.72047 0.0389258
0.981247 0.721981 0.0388647
1 0.723445 0.0387579
0.0172732 0.788617 0.0162814
0.0365606 0.790677 0.0168154
0.0561074 0.792966 0.0175937
0.0754101 0.793744 0.018143
0.0945144 0.793744 0.0184939
0.113619 0.793744 0.0188296
0.132677 0.793744 0.0191348
0.151614 0.793744 0.0193179
0.170459 0.793744 0.0194095
0.189227 0.793744 0.01944
0.207965 0.793744 0.0194095
0.227741 0.793744 0.019379
0.262547 0.793744 0.0198215
0.313191 0.793744 0.0198367
0.373205 0.793744 0.0174868
0.455116 0.791699 0.0110323
0.547372 0.784268 0.00570687
0.622385 0.775998 0.00622568
0.68162 0.77023 0.0112459
0.731533 0.766461 0.0178378
0.771176 0.763272 0.0240482
0.793744 0.760693 0.0295872
0.812497 0.75874 0.0341039
0.83125 0.757443 0.0368505
0.850004 0.756741 0.037583
0.868742 0.756481 0.0376135
0.887495 0.756802 0.0375982
0.906249 0.757626 0.0375372
0.925002 0.758724 0.0374456
0.943755 0.760067 0.0373388
0.962493 0.761227 0.0372473
0.981247 0.762264 0.0371405
1 0.763256 0.0370184
0.0208286 0.812497 0.0197604
0.0396887 0.812497 0.0198825
0.0584421 0.812497 0.0198825
0.0771954 0.812497 0.0198825
0.0959335 0.812497 0.0198825
0.114687 0.812497 0.0198825
0.13344 0.812497 0.0198825
0.152193 0.812497 0.0198825
0.170947 0.812497 0.0198825
0.189685 0.812497 0.0198825
0.208438 0.812497 0.0198825
0.227863 0.812497 0.0198978
0.25861 0.812497 0.0202945
0.307759 0.812497 0.0205844
0.365469 0.812497 0.0187991
0.443656 0.812497 0.0128023
0.534508 0.811917 0.00640879
0.612512 0.808164 0.00489815
0.673503 0.803281 0.00831617
0.724605 0.799985 0.0142824
0.767254 0.797604 0.0203555
0.793744 0.795743 0.0259709
0.812497 0.794293 0.03093
0.83125 0.793133 0.0345769
0.850004 0.792508 0.0357977
0.868742 0.792264 0.0359503
0.887495 0.792477 0.035935
0.906249 0.793057 0.035874
0.925002 0.793912 0.0357824
0.943755 0.79472 0.0356909
0.962493 0.795193 0.0356451
0.981247 0.795651 0.035584
1 0.795895 0.0355535
0.0209506 0.83125 0.0198825
0.0396887 0.83125 0.0198825
0.0584421 0.83125 0.0198825
0.0771954 0.83125 0.0198825
0.0959335 0.83125 0.0198825
0.114687 0.83125 0.0198825
0.13344 0.83125 0.0198825
0.152193 0.83125 0.0198825
0.170947 0.83125 0.0198825
0.189685 0.83125 0.0198825
0.208438 0.83125 0.0198825
0.227253 0.83125 0.0198825
0.255711 0.83125 0.0202335
0.303059 0.83125 0.0206912
0.360433 0.83125 0.0190738
0.43563 0.83125 0.0136416
0.524987 0.83125 0.00697337
0.604547 0.829496 0.00444038
0.665614 0.824781 0.00715648
0.71751 0.821744 0.0125277
0.763912 0.819715 0.0184787
0.793393 0.818204 0.024094
0.812497 0.81706 0.0291447
0.83125 0.816175 0.0332341
0.850004 0.815763 0.0350958
0.868742 0.815656 0.0354467
0.887495 0.815702 0.0354314
0.906249 0.815808 0.0354314
0.925002 0.815961 0.0354009
0.943755 0.815976 0.0354009
0.962493 0.815976 0.0354009
0.981247 0.815976 0.0354009
1 0.815976 0.0354009
0.0209506 0.850004 0.0198825
0.0396887 0.850004 0.0198825
0.0584421 0.850004 0.0198825
0.0771954 0.850004 0.0198825
0.0959335 0.850004 0.0198825
0.114687 0.850004 0.0198825
0.13344 0.850004 0.0198825
0.152193 0.850004 0.0198825
0.170947 0.850004 0.0198825
0.189685 0.850004 0.0198825
0.208438 0.850004 0.0198825
0.227192 0.850004 0.0198825
0.252735 0.850004 0.0201419
0.300557 0.850004 0.0206607
0.357641 0.850004 0.0192111
0.430777 0.850004 0.0140993
0.518486 0.850004 0.00737011
0.598184 0.8495 0.00430304
0.659403 0.844221 0.00654612
0.711543 0.840986 0.011429
0.759182 0.838834 0.0172885
0.792065 0.837247 0.0229191
0.812497 0.836072 0.0280003
0.83125 0.835233 0.0323186
0.850004 0.834791 0.0349737
0.868742 0.83473 0.0354009
0.887495 0.83473 0.0354009
0.906249 0.83473 0.0354009
0.925002 0.83473 0.0354009
0.943755 0.83473 0.0354009
0.962493 0.83473 0.0354009
0.981247 0.83473 0.0354009
1 0.83473 0.0354009
0.0209506 0.868742 0.0198825
0.0396887 0.868742 0.0198825
0.0584421 0.868742 0.0198825
0.0771954 0.868742 0.0198825
0.0959335 0.868742 0.0198825
0.114687 0.868742 0.0198825
0.13344 0.868742 0.0198825
0.152193 0.868742 0.0198825
0.170947 0.868742 0.0198825
0.189685 0.868742 0.0198825
0.208438 0.868742 0.0198825
0.227192 0.868742 0.0198825
0.249622 0.868742 0.0200198
0.300816 0.868742 0.0205997
0.357443 0.868742 0.0192111
0.429801 0.868742 0.0141756
0.515984 0.868742 0.0074464
0.593957 0.867979 0.00450141
0.655573 0.863416 0.00621042
0.707744 0.860059 0.0107424
0.755566 0.857816 0.0165103
0.79205 0.856199 0.0221103
0.812497 0.854978 0.0272221
0.83125 0.854093 0.0316777
0.850004 0.853544 0.0350195
0.868742 0.853483 0.0353857
0.887495 0.853483 0.0354009
0.906249 0.853483 0.0354009
0.925002 0.853483 0.0354009
0.943755 0.853483 0.0354009
0.962493 0.853483 0.0354009
0.981247 0.853483 0.0354009
1 0.853483 0.0354009
0.0209506 0.887495 0.0198825
0.0396887 0.887495 0.0198825
0.0584421 0.887495 0.0198825
0.0771954 0.887495 0.0198825
0.0959335 0.887495 0.0198825
0.114687 0.887495 0.0198825
0.13344 0.887495 0.0198825
0.152193 0.887495 0.0198825
0.170947 0.887495 0.0198825
0.189685 0.887495 0.0198825
0.208438 0.887495 0.0198825
0.227222 0.887495 0.0198825
0.254444 0.887495 0.0201724
0.303349 0.887495 0.0205692
0.359854 0.887495 0.0190738
0.432059 0.887495 0.013962
0.515923 0.887495 0.00753796
0.592721 0.886397 0.00462348
0.653681 0.882383 0.00602731
0.705852 0.878965 0.0103914
0.753597 0.876692 0.0160678
0.79353 0.875044 0.0216678
0.812497 0.873838 0.0267643
0.83125 0.872923 0.0312505
0.850004 0.872312 0.0348058
0.868742 0.872236 0.0353246
0.887495 0.872221 0.0354009
0.906249 0.872221 0.0354009
0.925002 0.872221 0.0354009
0.943755 0.872221 0.0354009
0.962493 0.872221 0.0354009
0.981247 0.872221 0.0354009
1 0.872221 0.0354009
0.0209506 0.906249 0.0198825
0.0396887 0.906249 0.0198825
0.0584421 0.906249 0.0198825
0.0771954 0.906249 0.0198825
0.0959335 0.906249 0.0198825
0.114687 0.906249 0.0198825
0.13344 0.906249 0.0198825
0.152193 0.906249 0.0198825
0.170947 0.906249 0.0198825
