datas/cubes/TC - CLARITY_40.cube
TITLE "Generate by Resolve"
LUT_3D_SIZE 9
0 0 0
0.0825971 1.5259e-05 3.0518e-05
0.174121 0 6.10361e-05
0.33463 0.00271611 0.0135348
0.542275 4.57771e-05 0.0209659
0.77499 0 0.016495
0.850004 0 0.0161746
0.925002 0 0.0159609
1 0 0.0157626
4.57771e-05 0.0818952 0
0.0817731 0.0816358 0
0.172229 0.0804608 0
0.338064 0.0810864 0.0144808
0.558862 0.0749981 0.0204013
0.77499 0.0749981 0.0164492
0.850004 0.0749981 0.016083
0.925002 0.0749981 0.0158083
1 0.0749981 0.0153964
0 0.16968 0
0.0792706 0.171038 0
0.169085 0.1691 0
0.342824 0.166171 0.0162509
0.570214 0.155261 0.0216068
0.77499 0.149996 0.0152438
0.850004 0.149996 0.0148165
0.925002 0.149996 0.0156252
1 0.151873 0.0198825
0.00419623 0.310918 0.00541695
0.0844587 0.32076 0.00834669
0.171115 0.326909 0.00941482
0.335103 0.326604 0.0225986
0.546899 0.320165 0.0416114
0.77499 0.300587 0.00866712
0.850004 0.312428 0.00407416
0.925002 0.335073 0.00375372
1 0.3626 0.00556954
0.0342565 0.496193 0.0363928
0.109682 0.514809 0.035462
0.196719 0.524773 0.0375219
0.359426 0.524346 0.0684367
0.532982 0.530571 0.0846571
0.717861 0.534844 0.0349584
0.811566 0.547097 0.0257572
0.894804 0.567056 0.0305638
0.967559 0.585473 0.043183
0 0.734859 0
0.0749981 0.75201 0
0.149996 0.758801 0
0.336538 0.735714 0.0075227
0.555901 0.713497 0.105638
0.703105 0.722988 0.0703746
0.805539 0.733928 0.0480964
0.89221 0.744976 0.045716
0.970825 0.752743 0.0478981
0 0.850004 0
0.0749981 0.850004 0
0.149996 0.850004 0
0.333028 0.850004 0
0.55108 0.841398 0.0677501
0.698665 0.843351 0.060502
0.807919 0.847135 0.0383307
0.892912 0.848066 0.0343023
0.970794 0.848661 0.0343175
0 0.925002 0
0.0749981 0.925002 0
0.156802 0.925002 0
0.354681 0.925002 0
0.552239 0.925002 0.0616312
0.696468 0.925002 0.0572518
0.807309 0.925002 0.0343938
0.892973 0.925002 0.0284428
0.969879 0.925002 0.0278019
0 1 0
0.0749981 1 0
0.173816 1 0
0.374884 1 0.00332647
0.560204 1 0.0679179
0.698314 1 0.0560616
0.807828 1 0.0324254
0.892912 1 0.026154
0.969421 1 0.0252842
0 0 0.0831769
0.0824445 1.5259e-05 0.0829633
0.172107 0 0.0819715
0.334127 0.00259403 0.0910658
0.542611 4.57771e-05 0.0959335
0.77499 0 0.0914931
0.850004 0 0.0911574
0.925002 0 0.0909438
1 0 0.0907454
6.10361e-05 0.0817578 0.0822003
0.0816815 0.0815442 0.082002
0.170962 0.0804608 0.0814069
0.338308 0.0811475 0.0925612
0.560662 0.0749981 0.0965438
0.77499 0.0749981 0.0914321
0.850004 0.0749981 0.0910658
0.925002 0.0749981 0.0922103
1 0.0749981 0.0949111
0 0.17023 0.0792401
0.0793011 0.17174 0.0796979
0.169909 0.169619 0.0801556
0.344747 0.166735 0.0958419
0.573205 0.156085 0.100847
0.77499 0.149996 0.0950332
0.850004 0.149996 0.0968948
0.925002 0.149996 0.100862
1 0.155062 0.104585
0.00503548 0.314137 0.0821393
0.0861524 0.324926 0.0871443
0.172702 0.332143 0.0899062
0.339452 0.33315 0.10367
0.549584 0.327504 0.123644
0.77499 0.30956 0.0930037
0.850004 0.320409 0.0897993
0.925002 0.344289 0.0893263
1 0.372885 0.0946059
0.0345159 0.502388 0.111696
0.110719 0.520821 0.112673
0.198016 0.53077 0.116976
0.364446 0.529488 0.150134
0.536934 0.53579 0.16643
0.714733 0.541161 0.124636
0.806714 0.553979 0.120989
0.890837 0.573419 0.126329
0.963302 0.59057 0.140063
0 0.741207 0.0749981
0.0749981 0.757168 0.0749981
0.149996 0.76321 0.0749981
0.342565 0.739376 0.0950179
0.55845 0.717449 0.190326
0.702937 0.725856 0.16408
0.805814 0.736324 0.144854
0.892088 0.74609 0.142397
0.970031 0.753323 0.145312
0 0.850004 0.0749981
0.0749981 0.850004 0.0749981
0.149996 0.850004 0.0749981
0.335241 0.850004 0.0752117
0.55259 0.839948 0.160327
0.697993 0.841581 0.158953
0.808011 0.846006 0.135134
0.892943 0.847288 0.13051
0.970443 0.848035 0.130617
0 0.925002 0.0749981
0.0749981 0.925002 0.0749981
0.15462 0.925002 0.0749981
0.35462 0.925002 0.0780194
0.552865 0.92491 0.153948
0.695705 0.925002 0.155215
0.806134 0.925002 0.131762
0.892622 0.925002 0.124636
0.96939 0.925002 0.123888
0 1 0.0749981
0.0749981 1 0.0749981
0.170672 1 0.0749981
0.373129 1 0.0880751
0.560342 1 0.160418
0.69723 1 0.153918
0.806149 1 0.129915
0.891844 1 0.122652
0.968322 1 0.121736
0 0 0.200946
0.0811322 0 0.201297
0.168078 0 0.195911
0.332036 0.00215152 0.183017
0.528115 0.000869764 0.182025
0.77499 0 0.17528
0.850004 0 0.173877
0.925002 0 0.174212
1 0 0.175891
0 0.0810407 0.193622
0.0809644 0.0809796 0.194354
0.167529 0.0801862 0.190753
0.336904 0.080766 0.183719
0.54548 0.0754559 0.18616
0.77499 0.0749981 0.178454
0.850004 0.0749981 0.180606
0.925002 0.0749981 0.187945
1 0.0749981 0.200397
0 0.169268 0.177935
0.0808118 0.170871 0.181262
0.169467 0.169116 0.181033
0.345525 0.166873 0.185031
0.562753 0.15938 0.19173
0.77499 0.149996 0.189136
0.850004 0.149996 0.197314
0.925002 0.149996 0.217792
1 0.157671 0.239933
0.0043946 0.316472 0.166323
0.0865644 0.328573 0.17174
0.17348 0.336721 0.17464
0.341863 0.338354 0.1879
0.547372 0.334096 0.210727
0.774746 0.317372 0.18526
0.850004 0.328237 0.184756
0.925002 0.353582 0.197559
0.999512 0.383307 0.22417
0.0356451 0.507027 0.19559
0.113024 0.525338 0.197986
0.201465 0.534386 0.203479
0.366613 0.533562 0.234348
0.538277 0.539849 0.251987
0.707759 0.546563 0.225467
0.800443 0.559442 0.222827
0.885267 0.578058 0.229404
0.957794 0.593744 0.245731
0 0.74519 0.149996
0.0749981 0.760983 0.149996
0.149996 0.766445 0.149996
0.3467 0.740948 0.186709
0.559411 0.719051 0.282368
0.700374 0.726024 0.270191
0.805295 0.736522 0.251774
0.891112 0.745327 0.249882
0.968765 0.752026 0.253346
0 0.850004 0.149996
0.0749981 0.850004 0.149996
0.149996 0.850004 0.149996
0.334981 0.850004 0.157641
0.553567 0.837369 0.258946
0.696696 0.838361 0.267201
0.807019 0.843534 0.244083
0.892653 0.845121 0.238117
0.970001 0.845808 0.238056
0 0.925002 0.149996
0.0749981 0.925002 0.149996
0.149996 0.925002 0.149996
0.351354 0.925002 0.164828
0.55285 0.9243 0.252583
0.694575 0.923568 0.263325
0.803983 0.924956 0.241535
0.892149 0.925002 0.232029
0.969009 0.925002 0.231083
0 1 0.149996
0.0749981 1 0.150652
0.164584 1 0.149996
0.368536 1 0.177981
0.559579 0.999847 0.2589
0.695583 1 0.261997
0.803555 1 0.23949
0.89044 1 0.230564
0.967071 1 0.229389
0.000610361 0.000976577 0.361669
0.0798657 0.00131228 0.362402
0.16231 0.00181582 0.358343
0.313039 0.00529488 0.349874
0.489418 0.00865187 0.338033
0.752697 0 0.364462
0.850004 0 0.36286
0.925002 0 0.369207
1 0 0.381201
0.00161746 0.0809796 0.357046
0.081117 0.0814374 0.358633
0.163729 0.0815442 0.35671
0.319646 0.083299 0.352682
0.501808 0.0839246 0.349752
0.764843 0.0749981 0.390524
0.850004 0.0749981 0.399466
0.925002 0.0749981 0.416587
1 0.0749981 0.43566
0.00332647 0.166171 0.346746
0.0834669 0.16875 0.352529
0.167376 0.168017 0.355032
0.332097 0.169467 0.356161
0.518868 0.172122 0.362661
0.760647 0.149996 0.410742
0.850004 0.149996 0.428244
0.925002 0.149996 0.448905
1 0.165698 0.462928
0.020676 0.308202 0.342473
0.105425 0.32079 0.359762
0.193729 0.329 0.373251
0.348974 0.336629 0.364691
0.544732 0.336873 0.378317
0.708202 0.338552 0.398993
0.799741 0.35079 0.413199
0.879484 0.375906 0.434897
0.951598 0.400504 0.452979
0.0409705 0.508232 0.322683
0.123461 0.524453 0.344152
0.212696 0.532403 0.360723
0.359335 0.538231 0.354864
0.54049 0.541527 0.373007
0.703914 0.547204 0.390219
0.796811 0.559747 0.407736
0.882872 0.576974 0.430716
0.960845 0.591119 0.448478
0 0.741512 0.258076
0.0749981 0.757382 0.278309
0.150362 0.758892 0.298665
0.365972 0.72958 0.349981
0.558312 0.716167 0.407889
0.695888 0.720394 0.419455
0.803403 0.72961 0.428763
0.889708 0.737697 0.442695
0.968643 0.743832 0.453651
0 0.850004 0.277882
0.0749981 0.850004 0.296529
0.149996 0.850004 0.305806
0.348684 0.848737 0.329381
0.559701 0.82974 0.40322
0.696742 0.830564 0.422309
0.803388 0.83473 0.421775
0.893675 0.837278 0.423911
0.971405 0.837781 0.428824
0 0.925002 0.346303
0.0749981 0.925002 0.360281
0.149996 0.925002 0.355154
0.367788 0.925002 0.356298
0.561151 0.915679 0.405921
0.696193 0.914702 0.420859
0.801389 0.918379 0.413306
0.892454 0.920897 0.40824
0.969772 0.92108 0.40882
0 1 0.401328
0.0749981 1 0.404135
0.166751 1 0.388708
0.390036 1 0.383261
0.567102 0.991272 0.415396
0.697139 0.993286 0.420737
0.800595 0.997894 0.406912
0.89044 0.999405 0.398459
0.967605 0.999496 0.397559
0 0 0.662821
0.0749981 0 0.661082
0.157214 0 0.640192
0.305196 0.0016022 0.55465
0.49456 0.00332647 0.529732
0.7308 0 0.57055
0.850004 0 0.58265
0.925002 0 0.590387
1 0 0.600732
0 0.0751354 0.647623
0.0750591 0.0751202 0.648249
0.158099 0.0752728 0.634043
0.314229 0.0788586 0.560357
0.520882 0.0753338 0.556313
0.76466 0.0749981 0.605249
0.850004 0.0749981 0.616785
0.925002 0.0749981 0.633204
1 0.0749981 0.653956
0 0.159335 0.605051
0.075227 0.162036 0.616007
0.160525 0.161837 0.613886
0.32549 0.168261 0.554223
0.541741 0.162432 0.570367
0.774075 0.149996 0.631907
0.850004 0.149996 0.652705
0.925002 0.149996 0.6748
1 0.159564 0.691981
0.025391 0.307637 0.517632
0.108995 0.322255 0.536721
0.198123 0.331853 0.547784
0.342428 0.340658 0.545663
0.536294 0.342504 0.553002
0.699748 0.346334 0.572519
0.791836 0.35964 0.588952
0.877882 0.384039 0.611139
0.953445 0.407889 0.627482
0.0718395 0.501396 0.546532
0.155413 0.517311 0.567437
0.246021 0.52459 0.578271
0.377676 0.532387 0.572915
0.548501 0.538842 0.572702
0.718715 0.542779 0.585962
0.816159 0.556542 0.604593
0.903319 0.572702 0.624857
0.98323 0.585489 0.640269
0.0170596 0.714214 0.574746
0.0975052 0.728511 0.600763
0.203738 0.728222 0.614359
0.388495 0.715221 0.59527
0.540719 0.72076 0.573465
0.691661 0.720287 0.577417
0.811093 0.726253 0.589166
0.904891 0.733989 0.601968
0.983948 0.740032 0.610254
0 0.844297 0.613321
0.0877546 0.841657 0.635721
0.194659 0.837613 0.646113
0.393332 0.826032 0.617594
0.549355 0.831205 0.591699
0.68893 0.833524 0.582803
0.801938 0.834928 0.590997
0.899916 0.837064 0.597147
0.981781 0.83798 0.600198
0.0106661 0.925002 0.676204
0.10695 0.923751 0.684016
0.207935 0.919921 0.68217
0.410697 0.90985 0.638285
0.552514 0.915526 0.601022
0.689448 0.916732 0.586358
0.800458 0.917418 0.591104
0.897398 0.919081 0.595026
0.97789 0.919432 0.596292
0.0268254 0.998306 0.69955
0.118364 0.99588 0.699992
0.219837 0.992493 0.697292
0.422751 0.983673 0.646738
0.556176 0.992828 0.605127
0.690944 0.995758 0.587671
0.80029 0.997101 0.590784
0.896223 0.998688 0.593927
0.975479 0.998901 0.59472
0 0 0.77499
0.0749981 0 0.77499
0.153307 0 0.77499
0.306401 0 0.77499
0.536553 0 0.77499
0.742718 0 0.77499
0.850004 0 0.77499
0.925002 0 0.77499
1 0 0.77499
0 0.0749981 0.77499
0.0749981 0.0749981 0.77499
0.153994 0.0749981 0.77499
0.319554 0.0749981 0.77499
0.559258 0.0749981 0.77499
0.764858 0.0749981 0.77499
0.850004 0.0749981 0.77499
0.925002 0.0749981 0.77499
1 0.0749981 0.77499
0 0.15404 0.77499
0.0749981 0.156573 0.77499
0.154513 0.157321 0.77499
0.336812 0.151843 0.77499
0.582254 0.149996 0.77499
0.77499 0.149996 0.77499
0.850004 0.149996 0.77499
0.925002 0.149996 0.77499
1 0.160449 0.77499
0 0.309773 0.77499
0.0749981 0.327214 0.77499
0.158556 0.336996 0.77499
0.335912 0.340932 0.741573
0.539696 0.343297 0.712627
0.730831 0.338231 0.749218
0.819455 0.353628 0.750057
0.893126 0.381826 0.742397
0.959289 0.408362 0.736477
0.0377661 0.512428 0.771115
0.119127 0.528496 0.77499
0.216571 0.534081 0.77499
0.379507 0.535866 0.730724
0.541299 0.54406 0.728786
0.702678 0.54818 0.738872
0.812436 0.560525 0.743481
0.89984 0.574594 0.750134
0.979034 0.586145 0.756588
0.0333104 0.707149 0.77499
0.111437 0.721523 0.77499
0.209674 0.723674 0.77499
0.408011 0.707759 0.774838
0.564126 0.709514 0.76286
0.689662 0.715404 0.765148
0.80824 0.720699 0.766796
0.913634 0.726741 0.767803
0.994141 0.732311 0.768917
0.0240482 0.828977 0.77499
0.110735 0.831296 0.77499
0.204654 0.831373 0.77499
0.405295 0.818753 0.77499
0.570153 0.820722 0.77499
0.690639 0.828885 0.774334
0.799146 0.832959 0.772457
0.900145 0.835264 0.767788
0.989975 0.836484 0.76492
0.0309758 0.919142 0.77499
0.115679 0.918807 0.77499
0.207141 0.917723 0.77499
0.4159 0.904341 0.77499
0.572839 0.904753 0.77499
0.691051 0.91223 0.77499
0.796155 0.916274 0.772396
0.894926 0.918441 0.766033
0.983932 0.919234 0.762768
0.0352178 0.993957 0.77499
0.119005 0.993652 0.77499
0.210529 0.992401 0.77499
0.425879 0.979232 0.77499
0.575875 0.983078 0.77499
0.691402 0.992676 0.77499
0.793805 0.997894 0.769924
0.891218 0.999832 0.762417
0.978576 1 0.759808
0 0 0.850004
0.0749981 0 0.850004
0.152605 0 0.850004
0.299031 0 0.850004
0.532235 0 0.850004
0.736156 0 0.850004
0.850004 0 0.850004
0.925002 0 0.850004
1 0 0.850004
0 0.0749981 0.850004
0.0749981 0.0749981 0.850004
0.15349 0.0749981 0.850004
0.314076 0.0749981 0.850004
0.555261 0.0749981 0.850004
0.762722 0.0749981 0.850004
0.850004 0.0749981 0.850004
0.925002 0.0749981 0.850004
1 0.0749981 0.850004
0 0.153414 0.850004
0.0749981 0.156466 0.850004
0.154421 0.158053 0.850004
0.335988 0.15198 0.850004
0.585916 0.149996 0.850004
0.77499 0.149996 0.850004
0.850004 0.149996 0.850004
0.925002 0.151324 0.850004
1 0.165637 0.850004
0 0.312779 0.850004
0.0749981 0.331243 0.850004
0.157794 0.341894 0.850004
0.335348 0.345235 0.844572
0.543374 0.347082 0.806683
0.734249 0.342519 0.839704
0.823148 0.359243 0.839841
0.895415 0.388144 0.831739
0.961532 0.414343 0.82475
0.0247044 0.518517 0.850004
0.11133 0.533043 0.850004
0.208881 0.538979 0.850004
0.378317 0.539635 0.826047
0.540093 0.547967 0.813626
0.698909 0.551934 0.823819
0.812696 0.564416 0.829297
0.899702 0.578302 0.83595
0.978332 0.589395 0.842252
0.0269169 0.711513 0.850004
0.108431 0.724697 0.850004
0.200855 0.728145 0.850004
0.397375 0.711604 0.850004
0.563653 0.71017 0.847822
0.688197 0.715282 0.849287
0.802762 0.721035 0.850004
0.909957 0.72668 0.850004
0.99205 0.731838 0.850004
0.0255131 0.828916 0.850004
0.111101 0.831403 0.850004
0.200763 0.832303 0.850004
0.388846 0.821591 0.850004
0.567773 0.820127 0.850004
0.689967 0.827451 0.850004
0.796384 0.831739 0.850004
0.896132 0.834226 0.850004
0.987732 0.835691 0.850004
0.030808 0.918914 0.850004
0.115373 0.918593 0.850004
0.204135 0.918105 0.850004
0.399268 0.906844 0.850004
0.570169 0.903914 0.850004
0.690394 0.910552 0.850004
0.793851 0.914656 0.850004
0.891371 0.916869 0.850004
0.983154 0.918151 0.850004
0.0346685 0.993744 0.850004
0.118349 0.993439 0.850004
0.206455 0.992981 0.850004
0.410346 0.981674 0.850004
0.573068 0.982498 0.850004
0.691218 0.99115 0.850004
0.792523 0.996048 0.850004
0.888853 0.998413 0.850004
0.978897 0.999573 0.850004
0 0 0.925002
0.0749981 0 0.925002
0.152422 0 0.925002
0.297322 0 0.925002
0.530221 0 0.925002
0.734478 0 0.925002
0.850004 0 0.925002
0.925002 0 0.925002
1 0 0.925002
0 0.0749981 0.925002
0.0749981 0.0749981 0.925002
0.153521 0.0749981 0.925002
0.314672 0.0749981 0.925002
0.556725 0.0749981 0.925002
0.764874 0.0749981 0.925002
0.850004 0.0749981 0.925002
0.925002 0.0749981 0.925002
1 0.0749981 0.925002
0 0.153582 0.925002
0.0749981 0.158358 0.925002
0.154772 0.160128 0.925002
0.341299 0.152651 0.925002
0.591104 0.149996 0.925002
0.77499 0.149996 0.925002
0.850004 0.149996 0.925002
0.925002 0.15613 0.925002
1 0.173434 0.925002
0 0.319371 0.925002
0.0749981 0.338918 0.925002
0.160372 0.349966 0.925002
0.340749 0.353735 0.924849
0.548165 0.355123 0.891524
0.735576 0.351629 0.921767
0.821683 0.369619 0.918456
0.89337 0.397726 0.911055
0.961074 0.421775 0.902586
0.0220035 0.525154 0.925002
0.109407 0.539376 0.925002
0.206394 0.5458 0.925002
0.384237 0.545892 0.912398
0.543557 0.554376 0.896498
0.700633 0.557916 0.906554
0.814115 0.570092 0.912337
0.900359 0.583139 0.918456
0.978821 0.593149 0.922744
0.0264134 0.717479 0.925002
0.109163 0.728878 0.925002
0.199481 0.733166 0.925002
0.394385 0.717418 0.925002
0.5664 0.714015 0.924971
0.691051 0.718135 0.925002
0.802686 0.723949 0.925002
0.908919 0.729091 0.925002
0.9906 0.7337 0.925002
0.0262455 0.829664 0.925002
0.111681 0.831998 0.925002
0.201251 0.832746 0.925002
0.383047 0.823468 0.925002
0.568078 0.820462 0.925002
0.691081 0.827329 0.925002
0.796445 0.831571 0.925002
0.895384 0.834043 0.925002
0.986481 0.835492 0.925002
0.0311284 0.918791 0.925002
0.115587 0.918471 0.925002
0.204273 0.917998 0.925002
0.391836 0.908476 0.925002
0.569696 0.903899 0.925002
0.691066 0.910109 0.925002
0.793606 0.914183 0.925002
0.89044 0.916457 0.925002
0.982452 0.91783 0.925002
0.0346685 0.993667 0.925002
0.118303 0.993378 0.925002
0.206332 0.99292 0.925002
0.402853 0.983093 0.925002
0.572305 0.982406 0.925002
0.691752 0.990677 0.925002
0.792386 0.995499 0.925002
0.888075 0.997955 0.925002
0.979019 0.999451 0.925002
0 0 1
0.0749981 0 1
0.152361 0 1
0.297047 0 1
0.53048 0 1
0.735195 0 1
0.850004 0 1
0.925002 0 1
1 0 1
0 0.0749981 1
0.0749981 0.0749981 1
0.153689 0.0749981 1
0.316701 0.0749981 1
0.559716 0.0749981 1
0.768612 0.0749981 1
0.850004 0.0749981 1
0.925002 0.0749981 1
1 0.0749981 1
0 0.154864 1
0.0749981 0.161059 1
0.155261 0.163348 1
0.347921 0.154147 1
0.597147 0.150088 1
0.77499 0.149996 1
0.850004 0.149996 1
0.925002 0.161318 1
1 0.180545 1
0 0.327565 1
0.0750744 0.347219 1
0.163394 0.357946 1
0.348226 0.36231 0.999313
0.553262 0.363287 0.970428
0.733639 0.361868 0.993484
0.817655 0.380179 0.99295
0.889128 0.406958 0.981231
0.959945 0.428931 0.976196
0.0208438 0.53225 1
0.108339 0.546181 1
0.206394 0.552163 1
0.391333 0.551995 0.992798
0.547478 0.560555 0.976471
0.703212 0.563561 0.986145
0.816129 0.574975 0.990662
0.901625 0.58677 0.995026
0.979843 0.596094 0.998871
0.0258335 0.724178 1
0.109957 0.733059 1
0.200381 0.736171 1
0.395956 0.722194 1
0.569177 0.717739 1
0.69398 0.721111 1
0.803281 0.726833 1
0.908888 0.731212 1
0.990066 0.735225 1
0.0270848 0.830533 1
0.112428 0.832746 1
0.201907 0.833371 1
0.384329 0.824094 1
0.568811 0.820905 1
0.692164 0.82742 1
0.796841 0.83154 1
0.895125 0.834028 1
0.98558 0.835447 1
0.0316625 0.918761 1
0.116014 0.918456 1
0.204578 0.917983 1
0.393591 0.908492 1
0.569818 0.904036 1
0.691676 0.909911 1
0.793851 0.913924 1
0.890013 0.916228 1
0.981659 0.917617 1
0.0348516 0.993667 1
0.118425 0.993378 1
0.206424 0.99292 1
0.403189 0.983063 1
0.572213 0.982406 1
0.692226 0.990417 1
0.792645 0.995148 1
0.887846 0.997696 1
0.978683 0.999268 1
