datas/cubes/TC - EDITORIAL_40.cube
TITLE "Generate by Resolve"
LUT_3D_SIZE 5
0 0.00291447 0.0106508
0.190585 0.000198367 0.00177005
0.580346 0 0
0.830686 0 0
0.980682 0 0
0 0.190524 0
0.179843 0.189349 0.000839246
0.602564 0.151736 0
0.830808 0.149996 0
0.980743 0.149996 0
0 0.520867 0
0.149996 0.554971 0
0.597681 0.515709 0.016846
0.850004 0.521202 0.0279088
1 0.537697 0.0314488
0.0209506 0.850004 0.0198825
0.170947 0.850004 0.0198825
0.518486 0.850004 0.00737011
0.850004 0.834791 0.0349737
1 0.83473 0.0354009
0.0209506 1 0.0198825
0.170947 1 0.0198825
0.562737 1 0.00479133
0.850004 0.984863 0.0345006
1 0.984726 0.0354009
0 0 0.232822
0.186023 0 0.218189
0.578302 0 0.150179
0.830686 0 0.149996
0.980682 0 0.149996
0 0.190936 0.19733
0.174701 0.192294 0.203113
0.610239 0.152972 0.155383
0.831266 0.149996 0.149996
0.981323 0.149996 0.149996
0 0.530663 0.149996
0.149996 0.566445 0.149996
0.60589 0.524941 0.171237
0.850004 0.5308 0.180026
1 0.54641 0.183093
0.0209506 0.850004 0.169879
0.170947 0.850004 0.169879
0.530968 0.850004 0.156268
0.850004 0.83476 0.185229
1 0.83473 0.185397
0.0209506 1 0.169879
0.170947 1 0.169879
0.561959 1 0.154818
0.850004 0.984878 0.184451
1 0.984726 0.185397
0 0 0.676722
0.159533 0 0.665278
0.549386 0 0.570748
0.833921 0 0.484291
0.984024 0 0.474418
0 0.170947 0.654322
0.158694 0.17528 0.666255
0.596674 0.149996 0.614771
0.832975 0.149996 0.582269
0.983093 0.149996 0.606668
0 0.533867 0.510857
0.149996 0.568841 0.548424
0.559136 0.547265 0.570214
0.850004 0.536889 0.550713
1 0.551644 0.570733
0.0221561 0.850004 0.466392
0.171298 0.850004 0.500893
0.487785 0.850004 0.49012
0.850004 0.841184 0.509087
1 0.839887 0.469795
0.018616 1 0.544762
0.167651 1 0.55639
0.497871 1 0.511742
0.849973 0.99147 0.499626
1 0.989197 0.434653
0 0 0.843473
0.149996 0 0.843473
0.51516 0 0.832731
0.83476 0 0.835828
0.984771 0 0.835828
0 0.153033 0.843366
0.149996 0.159777 0.843412
0.578088 0.149996 0.830503
0.83476 0.149996 0.835828
0.984771 0.149996 0.835828
0 0.521309 0.824231
0.149996 0.556649 0.82005
0.547982 0.535851 0.850004
0.850004 0.524529 0.850004
1 0.540169 0.850004
0.00418097 0.850004 0.827115
0.154177 0.850004 0.827115
0.45623 0.850004 0.838712
0.839963 0.850004 0.848798
1 0.849836 0.850004
0.00418097 1 0.827115
0.154177 1 0.827115
0.45658 1 0.838758
0.820569 1 0.846296
1 1 0.850004
0 0 0.993469
0.149996 0 0.993469
0.510887 0 0.983017
0.83476 0 0.985824
0.984771 0 0.985824
0 0.154543 0.993378
0.149996 0.163073 0.993454
0.588083 0.149996 0.98056
0.83476 0.149996 0.985824
0.984771 0.149996 0.985824
0 0.529839 0.972961
0.149996 0.568231 0.969177
0.556802 0.545327 1
0.850004 0.533928 1
1 0.547997 1
0.00418097 0.850004 0.977127
0.154177 0.850004 0.977127
0.461021 0.850004 0.988708
0.840513 0.850004 0.998886
1 0.849821 1
0.00418097 1 0.977127
0.154177 1 0.977127
0.454337 1 0.988769
0.817502 1 0.995911
1 1 1
