datas/cubes/TC - SELECT_40.cube
TITLE "Generate by Resolve"
LUT_3D_SIZE 5
0.00352483 0.00453193 0.00987259
0.257984 0.00479133 0.00610361
0.699992 0 0
0.850004 0 0
1 0 0
0.000396735 0.243854 0.0235447
0.243885 0.234058 0.0103914
0.666728 0.194461 0.000381476
0.850004 0.155596 0
1 0.154894 0
0 0.567941 0.0565957
0.164172 0.568292 0.0602579
0.577295 0.541955 0.054078
0.850004 0.510521 0
1 0.508003 0
0 0.850004 0.0399176
0.149996 0.850004 0.0399176
0.405661 0.850004 0
0.850004 0.846616 0
1 0.841306 0
0 1 0.0399176
0.149996 1 0.0399176
0.356832 1 0
0.850004 0.996872 0
1 0.996628 0
0.00448615 0.000381476 0.261463
0.253956 0.00488289 0.249805
0.698299 0 0.209827
0.850004 0 0.156542
1 0 0.150393
0.0087892 0.237888 0.243732
0.235676 0.234409 0.2224
0.634241 0.201984 0.194293
0.850004 0.155261 0.149996
1 0.154788 0.152041
0 0.567163 0.212314
0.167636 0.567285 0.216541
0.577935 0.542321 0.203845
0.850004 0.511086 0.149996
1 0.508324 0.149996
0 0.850004 0.189914
0.149996 0.850004 0.189914
0.405081 0.850004 0.149996
0.850004 0.846204 0.149996
1 0.839002 0.149996
0 1 0.189914
0.149996 1 0.189914
0.35259 1 0.149996
0.850004 0.996933 0.149996
1 0.996628 0.149996
0.00181582 0 0.699992
0.265583 0 0.693339
0.687251 0 0.657847
0.850004 0 0.610132
1 0 0.603464
0.00151064 0.223499 0.664729
0.230701 0.223987 0.588312
0.598749 0.201541 0.579065
0.850004 0.150301 0.600565
1 0.149996 0.601923
0.0298314 0.550942 0.581003
0.201541 0.550439 0.576822
0.554574 0.543694 0.543313
0.808774 0.527367 0.530083
0.9579 0.524071 0.526665
0 0.850004 0.560403
0.149996 0.850004 0.561761
0.493812 0.845731 0.547112
0.850004 0.837934 0.483833
1 0.828473 0.456779
0 1 0.535332
0.149996 1 0.527153
0.415 1 0.485817
0.850004 0.997253 0.347982
1 0.997299 0.305684
0.00228885 0 0.850004
0.252705 0 0.850004
0.670802 0 0.850004
0.850004 0 0.850004
1 0 0.850004
0 0.208988 0.850004
0.218051 0.203449 0.850004
0.651957 0.166064 0.850004
0.850004 0.149996 0.850004
1 0.149996 0.850004
0 0.554513 0.850004
0.149996 0.555993 0.850004
0.549523 0.540047 0.820523
0.81091 0.525231 0.823621
0.960113 0.521202 0.822263
0 0.850004 0.850004
0.149996 0.850004 0.850004
0.520027 0.839384 0.848203
0.848371 0.837293 0.807584
0.999054 0.823362 0.79585
0 1 0.850004
0.149996 1 0.850004
0.458457 0.993591 0.828962
0.827863 0.999039 0.766445
1 0.99646 0.760861
0.00228885 0 1
0.247456 0 1
0.664805 0 1
0.850004 0 1
1 0 1
0 0.205798 1
0.216068 0.201129 1
0.650111 0.164141 1
0.850004 0.149996 1
1 0.149996 1
0 0.551751 1
0.149996 0.553338 1
0.547234 0.537484 0.969696
0.810544 0.522545 0.974456
0.959808 0.518013 0.973678
0 0.850004 1
0.149996 0.850004 1
0.508415 0.841489 1
0.843122 0.833204 1
0.993973 0.818051 1
0 1 1
0.149996 1 1
0.413443 1 1
0.814343 1 1
0.991302 1 1
