datas/cubes/TC - EDITORIAL_20.cube
TITLE "Generate by Resolve"
LUT_3D_SIZE 9
0 0.00144961 0.0053254
0.102937 0.00030518 0.00421149
0.220295 9.15541e-05 0.000885023
0.367651 0 0
0.540169 0 0
0.688991 0 0
0.790341 0 0
0.890333 0 0
0.990341 0 0
4.57771e-05 0.108202 0.00227359
0.100557 0.107652 0.00184634
0.218265 0.104936 0.000259403
0.367803 0.0999924 0
0.543725 0.0999924 0
0.689693 0.0999924 0
0.790341 0.0999924 0
0.890333 0.0999924 0
0.990341 0.0999924 0
0 0.220264 0
0.0999924 0.22118 0
0.214908 0.219669 0.000411994
0.367224 0.2121 0
0.551278 0.20087 0
0.690532 0.199985 0
0.790402 0.199985 0
0.890333 0.199985 0
0.990372 0.199985 0
0 0.348547 0
0.0999924 0.353338 0
0.200244 0.358022 0
0.362875 0.349981 0.00233463
0.548989 0.342214 0.000457771
0.699672 0.339223 0.000427253
0.798825 0.33434 3.0518e-05
0.899397 0.335302 0
0.999893 0.340032 0.000488289
0 0.51043 0
0.0999924 0.518441 0
0.199985 0.527474 0
0.328695 0.52668 0
0.548836 0.507851 0.00842298
0.699992 0.511971 0.0148165
0.8 0.510597 0.013962
0.899992 0.51342 0.0146181
1 0.518853 0.0157168
0.00518807 0.683879 0.0047303
0.106996 0.691325 0.00653086
0.208515 0.697002 0.00802625
0.319905 0.695994 0.00828565
0.53106 0.682765 0.00251774
0.699672 0.672435 0.0143282
0.8 0.669825 0.0195926
0.899992 0.671199 0.0195315
1 0.67422 0.019379
0.0104677 0.8 0.00993362
0.11046 0.8 0.00993362
0.210468 0.8 0.00993362
0.313863 0.8 0.010071
0.509239 0.8 0.00367742
0.692088 0.794415 0.00863661
0.8 0.792401 0.0174868
0.899992 0.792355 0.0177005
1 0.792355 0.0177005
0.0104677 0.899992 0.00993362
0.11046 0.899992 0.00993362
0.210468 0.899992 0.00993362
0.321981 0.899992 0.0102693
0.518807 0.899992 0.0030518
0.69131 0.894438 0.00849927
0.8 0.892454 0.0171511
0.899992 0.892363 0.0177005
1 0.892363 0.0177005
0.0104677 1 0.00993362
0.11046 1 0.00993362
0.210468 1 0.00993362
0.331502 1 0.0103151
0.531365 1 0.00239567
0.694316 0.994217 0.00929274
0.8 0.992432 0.0172427
0.899992 0.99237 0.0177005
1 0.99237 0.0177005
0 0.00077821 0.116381
0.102281 3.0518e-05 0.115312
0.219959 1.5259e-05 0.111284
0.367453 0 0.100053
0.540032 0 0.0999924
0.688991 0 0.0999924
0.790341 0 0.0999924
0.890333 0 0.0999924
0.990341 0 0.0999924
0 0.108125 0.112093
0.100114 0.107622 0.111757
0.218204 0.104768 0.109606
0.368521 0.0999924 0.0999924
0.544686 0.0999924 0.0999924
0.689815 0.0999924 0.0999924
0.790341 0.0999924 0.0999924
0.890333 0.0999924 0.0999924
0.990341 0.0999924 0.0999924
3.0518e-05 0.220478 0.105364
0.100008 0.221637 0.105776
0.214603 0.22063 0.105455
0.369619 0.212711 0.0999924
0.553414 0.201236 0.0999924
0.690608 0.199985 0.0999924
0.790433 0.199985 0.0999924
0.890333 0.199985 0.0999924
0.990417 0.199985 0.0999924
0 0.349981 0.0999924
0.0999924 0.355398 0.0999924
0.200351 0.360372 0.0999924
0.366445 0.352178 0.102403
0.552316 0.344884 0.100771
0.699809 0.341787 0.100725
0.799191 0.336843 0.100069
0.89984 0.338064 0.0999924
1 0.343252 0.100893
0 0.512963 0.0999924
0.0999924 0.521721 0.0999924
0.199985 0.530755 0.0999924
0.331823 0.529458 0.0999924
0.551339 0.510246 0.108721
0.699992 0.5149 0.115328
0.8 0.51342 0.11458
0.899992 0.516426 0.115282
1 0.521675 0.116258
0.00578317 0.686275 0.105303
0.107591 0.693629 0.107103
0.208942 0.698131 0.108431
0.322271 0.697261 0.108721
0.534585 0.684382 0.102632
0.699748 0.674342 0.114397
0.8 0.671641 0.119493
0.899992 0.672969 0.119432
1 0.675822 0.119249
0.0104677 0.8 0.109926
0.11046 0.8 0.109926
0.210468 0.8 0.109926
0.314427 0.8 0.110079
0.512764 0.8 0.103349
0.693202 0.794339 0.108873
0.8 0.792386 0.117571
0.899992 0.792355 0.117693
1 0.792355 0.117693
0.0104677 0.899992 0.109926
0.11046 0.899992 0.109926
0.210468 0.899992 0.109926
0.323781 0.899992 0.110277
0.521782 0.899992 0.102861
0.692134 0.894377 0.10869
0.8 0.892439 0.117189
0.899992 0.892363 0.117693
1 0.892363 0.117693
0.0104677 1 0.109926
0.11046 1 0.109926
0.210468 1 0.109926
0.332662 1 0.110277
0.532494 1 0.102342
0.694469 0.994202 0.109331
0.8 0.992432 0.11725
0.899992 0.99237 0.117693
1 0.99237 0.117693
0 0 0.241413
0.100481 0 0.240024
0.218006 0 0.234089
0.365606 0 0.217685
0.539147 0 0.200076
0.689097 0 0.199985
0.790341 0 0.199985
0.890333 0 0.199985
0.990341 0 0.199985
0 0.106493 0.236652
0.100008 0.106157 0.236225
0.2168 0.103761 0.232441
0.367742 0.0999924 0.218112
0.545022 0.0999924 0.200305
0.690089 0.0999924 0.199985
0.790677 0.0999924 0.199985
0.890379 0.0999924 0.199985
0.990524 0.0999924 0.199985
0 0.220462 0.223651
0.0999924 0.221836 0.224903
0.212345 0.221149 0.226551
0.370779 0.212818 0.217624
0.555108 0.20148 0.202686
0.69099 0.199985 0.199985
0.790631 0.199985 0.199985
0.890623 0.199985 0.199985
0.990662 0.199985 0.199985
0 0.351171 0.207218
0.0999924 0.357122 0.208652
0.200549 0.362264 0.209949
0.365454 0.355306 0.213199
0.553918 0.347417 0.20531
0.699931 0.343694 0.202472
0.799405 0.338521 0.200336
0.899992 0.33991 0.200595
1 0.345159 0.201648
0 0.515328 0.199985
0.0999924 0.524422 0.199985
0.199985 0.533211 0.199985
0.334249 0.531411 0.199985
0.552941 0.512459 0.21062
0.699992 0.517006 0.215717
0.8 0.515389 0.215015
0.899992 0.518227 0.215625
1 0.523201 0.216541
0.00630198 0.688411 0.205829
0.107988 0.694987 0.207492
0.209216 0.698741 0.208713
0.324193 0.698024 0.209018
0.537682 0.684321 0.202747
0.69987 0.675654 0.214466
0.8 0.672755 0.219425
0.899992 0.673899 0.219379
1 0.676493 0.219196
0.0104677 0.8 0.209934
0.11046 0.8 0.209934
0.210468 0.8 0.209934
0.315511 0.8 0.210117
0.51548 0.8 0.203128
0.693919 0.794293 0.209033
0.8 0.79237 0.217609
0.899992 0.792355 0.2177
1 0.792355 0.2177
0.0104677 0.899992 0.209934
0.11046 0.899992 0.209934
0.210468 0.899992 0.209934
0.324315 0.899992 0.210285
0.52221 0.899992 0.202838
0.692012 0.894392 0.208667
0.8 0.892439 0.217197
0.899992 0.892363 0.2177
1 0.892363 0.2177
0.0104677 1 0.209934
0.11046 1 0.209934
0.210468 1 0.209934
0.332067 1 0.2103
0.530968 1 0.202396
0.693797 0.994263 0.209125
0.8 0.992432 0.217227
0.899992 0.99237 0.2177
1 0.99237 0.2177
0 0 0.412894
0.0999924 0 0.411429
0.21181 0 0.403693
0.357107 0 0.38027
0.534585 0 0.344244
0.689158 0 0.321355
0.791501 0 0.311711
0.891325 0 0.307332
0.991302 0 0.306752
0 0.101717 0.40795
0.0999924 0.101534 0.407706
0.211337 0.100221 0.402686
0.360235 0.0999924 0.382818
0.541802 0.0999924 0.350042
0.691096 0.0999924 0.329244
0.791821 0.0999924 0.32076
0.891798 0.0999924 0.319524
0.991882 0.0999924 0.32314
0 0.215976 0.392981
0.0999924 0.217472 0.396551
0.208911 0.217334 0.398047
0.366567 0.209949 0.385611
0.553933 0.200366 0.360906
0.692454 0.199985 0.344686
0.792172 0.199985 0.337072
0.89221 0.199985 0.337331
0.992218 0.199985 0.342992
0 0.351125 0.351415
0.0999924 0.35729 0.356283
0.199985 0.362707 0.361257
0.353521 0.358465 0.368963
0.552758 0.348287 0.35491
0.699992 0.344366 0.347021
0.799985 0.339422 0.34078
0.899992 0.340978 0.341726
1 0.346242 0.34728
0 0.516472 0.326482
0.0999924 0.525429 0.331121
0.199985 0.534203 0.336873
0.331487 0.534173 0.340993
0.544915 0.517327 0.345892
0.698909 0.520714 0.33959
0.8 0.518715 0.335851
0.899992 0.521584 0.336782
1 0.526467 0.340078
0.00680552 0.688869 0.321019
0.108492 0.695201 0.326009
0.209781 0.698894 0.331945
0.324559 0.698207 0.331472
0.529213 0.678996 0.331136
0.693874 0.670665 0.336629
0.8 0.673167 0.329229
0.899992 0.674144 0.328954
1 0.676478 0.329763
0.0105592 0.8 0.31574
0.110613 0.8 0.318944
0.210681 0.8 0.32285
0.315831 0.8 0.321401
0.511666 0.8 0.310689
0.692256 0.794675 0.313069
0.8 0.792523 0.319249
0.899992 0.792462 0.319005
1 0.792432 0.318578
0.0106661 0.899992 0.321538
0.110796 0.899992 0.327535
0.210849 0.899992 0.330022
0.323095 0.899992 0.325841
0.515694 0.899992 0.311238
0.689769 0.894713 0.310597
0.8 0.89247 0.317281
0.899992 0.892363 0.317693
1 0.892363 0.317693
0.0109255 1 0.332967
0.111009 1 0.338033
0.211017 1 0.337835
0.32958 1 0.331075
0.521843 1 0.313741
0.690974 0.994705 0.311971
0.8 0.992493 0.317205
0.899992 0.99237 0.317693
1 0.99237 0.317693
0 0 0.588357
0.0999924 0 0.587579
0.204761 0 0.582635
0.346288 0 0.56466
0.524681 0 0.535363
0.684855 0 0.508385
0.791959 0 0.492134
0.892027 0 0.486458
0.99202 0 0.487205
0 0.0999924 0.585992
0.0999924 0.0999924 0.586252
0.204868 0.0999924 0.58323
0.350179 0.0999924 0.568414
0.533455 0.0999924 0.54316
0.689418 0.0999924 0.523171
0.791699 0.0999924 0.511696
0.891676 0.0999924 0.513588
0.991577 0.0999924 0.523033
0 0.210468 0.577157
0.0999924 0.212207 0.581247
0.204334 0.212634 0.583124
0.359136 0.206012 0.574639
0.548333 0.199985 0.557382
0.691676 0.199985 0.547524
0.791485 0.199985 0.541131
0.891478 0.199985 0.545525
0.991547 0.199985 0.553323
0 0.34551 0.551781
0.0999924 0.351919 0.558618
0.199985 0.3579 0.563622
0.349859 0.354681 0.5673
0.550271 0.344488 0.558312
0.699992 0.340673 0.552682
0.8 0.336049 0.547494
0.899992 0.337575 0.552178
1 0.342687 0.560525
0 0.51693 0.505425
0.0999924 0.52575 0.514702
0.199985 0.534417 0.524208
0.324666 0.533806 0.530495
0.529564 0.523629 0.535103
0.693782 0.520562 0.528649
0.8 0.518441 0.525353
0.899992 0.521111 0.528649
1 0.525811 0.535363
0.00698863 0.687922 0.490013
0.10808 0.694209 0.499504
0.208698 0.698146 0.509621
0.322332 0.697292 0.511711
0.509865 0.689754 0.511467
0.681193 0.672312 0.512001
0.8 0.674159 0.508827
0.899992 0.674998 0.510246
1 0.677104 0.514183
0.0110781 0.8 0.483192
0.110887 0.8 0.492439
0.210636 0.8 0.50045
0.314839 0.8 0.49865
0.493889 0.8 0.495048
0.670985 0.799023 0.493889
0.8 0.79559 0.50454
0.899992 0.79498 0.486748
1 0.794949 0.484886
0.0105745 0.899992 0.500954
0.110048 0.899992 0.51136
0.209812 0.899992 0.515175
0.31986 0.899992 0.509239
0.494957 0.899992 0.499641
0.669459 0.899092 0.480476
0.8 0.895674 0.498451
0.899992 0.894942 0.484977
1 0.894652 0.47042
0.009308 1 0.522377
0.10869 1 0.529519
0.20882 1 0.528191
0.324758 1 0.519387
0.498939 1 0.505867
0.669764 0.99913 0.483268
0.799985 0.995727 0.499809
0.899992 0.994919 0.483665
1 0.994598 0.467323
0 0 0.696727
0.0999924 0 0.696727
0.200397 0 0.696742
0.336873 0 0.696284
0.515389 0 0.690913
0.680705 0 0.690639
0.792218 0 0.687068
0.892164 0 0.68452
0.992203 0 0.686458
0 0.0999924 0.696727
0.0999924 0.0999924 0.696727
0.201068 0.0999924 0.696742
0.341344 0.0999924 0.696086
0.52578 0.0999924 0.69044
0.688136 0.0999924 0.692561
0.79237 0.0999924 0.692424
0.892378 0.0999924 0.692744
0.992386 0.0999924 0.692912
0 0.2056 0.696681
0.0999924 0.207462 0.696696
0.201434 0.208209 0.696757
0.351797 0.203021 0.695735
0.543008 0.199985 0.690379
0.692103 0.199985 0.692897
0.792386 0.199985 0.692912
0.892378 0.199985 0.692912
0.992386 0.199985 0.692912
0 0.340322 0.696361
0.0999924 0.346319 0.695903
0.199985 0.352285 0.695262
0.345724 0.350103 0.699992
0.546441 0.340658 0.69987
0.699931 0.337575 0.699992
0.8 0.333425 0.699992
0.899992 0.335088 0.699992
1 0.339803 0.699992
0 0.514748 0.686503
0.0999924 0.523323 0.685435
0.199985 0.532006 0.684764
0.320241 0.531044 0.693248
0.527047 0.521218 0.699992
0.692912 0.517235 0.699992
0.8 0.515175 0.699992
0.899992 0.517784 0.699992
1 0.522255 0.699992
1.5259e-05 0.687846 0.682643
0.100206 0.694026 0.687602
0.200671 0.697871 0.688106
0.311818 0.697108 0.689509
0.498573 0.688975 0.693416
0.670634 0.677546 0.693996
0.799969 0.674159 0.692485
0.899992 0.6748 0.694392
1 0.676768 0.698283
0.00358587 0.8 0.676234
0.102739 0.8 0.68304
0.202167 0.8 0.6878
0.305074 0.8 0.686198
0.483543 0.8 0.685969
0.656306 0.8 0.680369
0.79823 0.798733 0.679332
0.899992 0.798383 0.678599
1 0.798383 0.678645
0.00239567 0.899992 0.686046
0.102159 0.899992 0.687892
0.202121 0.899992 0.688212
0.30898 0.899992 0.687831
0.482414 0.899992 0.686946
0.650309 0.899992 0.676707
0.79411 0.898711 0.671962
0.899992 0.89807 0.674556
1 0.897765 0.670085
0.00209049 1 0.688563
0.102083 1 0.688563
0.202075 1 0.688563
0.312871 1 0.68954
0.485283 1 0.689006
0.650584 1 0.67805
0.793042 0.998749 0.670802
0.899992 0.997986 0.673304
1 0.997742 0.669642
0 0 0.796735
0.0999924 0 0.796735
0.199985 0 0.796735
0.329946 0 0.796551
0.507576 0 0.791363
0.675685 0 0.791562
0.792386 0 0.792905
0.892378 0 0.792905
0.992386 0 0.792905
0 0.0999924 0.796735
0.0999924 0.0999924 0.796735
0.199985 0.0999924 0.796735
0.335088 0.0999924 0.796384
0.519646 0.0999924 0.790707
0.684733 0.0999924 0.792279
0.792386 0.0999924 0.792905
0.892378 0.0999924 0.792905
0.992386 0.0999924 0.792905
0 0.201511 0.796674
0.0999924 0.203769 0.796689
0.199985 0.204883 0.796704
0.34696 0.201205 0.795865
0.53904 0.199985 0.790249
0.691112 0.199985 0.792813
0.792386 0.199985 0.792905
0.892378 0.199985 0.792905
0.992386 0.199985 0.792905
0 0.33579 0.796628
0.0999924 0.341909 0.796246
0.199985 0.348058 0.795697
0.342031 0.345876 0.799969
0.542336 0.336599 0.79942
0.698756 0.333928 0.8
0.8 0.330205 0.8
0.899992 0.332586 0.8
1 0.337926 0.8
0 0.510658 0.787106
0.0999924 0.519371 0.785916
0.199985 0.528328 0.785031
0.317662 0.527276 0.792966
0.52398 0.517922 0.8
0.691035 0.514015 0.8
0.8 0.512261 0.8
0.899992 0.515267 0.8
1 0.520073 0.8
0 0.685527 0.787411
0.100069 0.692164 0.78793
0.200458 0.696788 0.788296
0.309545 0.696223 0.789807
0.494789 0.687068 0.796155
0.668223 0.675151 0.799603
0.799969 0.671763 0.8
0.899992 0.67216 0.8
1 0.674098 0.8
0.00209049 0.8 0.788556
0.102083 0.8 0.788556
0.202075 0.8 0.788556
0.303288 0.8 0.788724
0.478111 0.8 0.794354
0.651499 0.8 0.794781
0.79498 0.8 0.799405
0.899992 0.799985 0.8
1 0.799908 0.8
0.00209049 0.899992 0.788556
0.102083 0.899992 0.788556
0.202075 0.899992 0.788556
0.307012 0.899992 0.789242
0.475761 0.899992 0.7944
0.643442 0.899992 0.794385
0.787259 0.899992 0.798398
0.899992 0.899992 0.8
1 0.899992 0.8
0.00209049 1 0.788556
0.102083 1 0.788556
0.202075 1 0.788556
0.310124 1 0.789654
0.478294 1 0.794385
0.643122 1 0.794369
0.78529 1 0.798138
0.899992 1 0.8
1 1 0.8
0 0 0.896742
0.0999924 0 0.896742
0.199985 0 0.896742
0.328115 0 0.896605
0.504677 0 0.891554
0.673426 0 0.891402
0.792386 0 0.892912
0.892378 0 0.892912
0.992386 0 0.892912
0 0.0999924 0.896742
0.0999924 0.0999924 0.896742
0.199985 0.0999924 0.896742
0.335058 0.0999924 0.896391
0.519921 0.0999924 0.890684
0.684657 0.0999924 0.892271
0.792386 0.0999924 0.892912
0.892378 0.0999924 0.892912
0.992386 0.0999924 0.892912
0 0.201526 0.896681
0.0999924 0.204211 0.896681
0.199985 0.205524 0.896712
0.349157 0.201282 0.89575
0.541115 0.199985 0.890257
0.691371 0.199985 0.892821
0.792386 0.199985 0.892912
0.892378 0.199985 0.892912
0.992386 0.199985 0.892912
0 0.336263 0.89662
0.0999924 0.343587 0.896101
0.199985 0.350042 0.895491
0.344289 0.34789 0.899992
0.544793 0.338415 0.899611
0.699245 0.335775 0.899992
0.8 0.332265 0.899992
0.899992 0.334905 0.899992
1 0.340352 0.899992
0 0.511788 0.886915
0.0999924 0.52137 0.885695
0.199985 0.530785 0.884825
0.319234 0.529717 0.893141
0.525902 0.519982 0.899992
0.691829 0.516182 0.899992
0.8 0.514488 0.899992
0.899992 0.517342 0.899992
1 0.522026 0.899992
0 0.686503 0.88751
0.100099 0.693553 0.888029
0.200595 0.697826 0.88838
0.310933 0.697414 0.890043
0.496529 0.68809 0.89604
0.668666 0.676066 0.899596
0.799954 0.672511 0.899992
0.899992 0.672953 0.899992
1 0.674891 0.899992
0.00209049 0.8 0.888563
0.102083 0.8 0.888563
0.202075 0.8 0.888563
0.303487 0.8 0.888762
0.47895 0.8 0.894362
0.651453 0.8 0.894774
0.794873 0.8 0.899382
0.899992 0.799985 0.899992
1 0.799893 0.899992
0.00209049 0.899992 0.888563
0.102083 0.899992 0.888563
0.202075 0.899992 0.888563
0.307301 0.899992 0.889281
0.475639 0.899992 0.894392
0.642756 0.899992 0.894362
0.786358 0.899992 0.898283
0.899992 0.899992 0.899992
1 0.899992 0.899992
0.00209049 1 0.888563
0.102083 1 0.888563
0.202075 1 0.888563
0.309865 1 0.889632
0.477455 1 0.894392
0.642069 1 0.894331
0.784039 1 0.897993
0.899992 1 0.899992
1 1 0.899992
0 0 0.996735
0.0999924 0 0.996735
0.199985 0 0.996735
0.328267 0 0.996597
0.50544 0 0.991501
0.674296 0 0.991455
0.792386 0 0.99292
0.892378 0 0.99292
0.992386 0 0.99292
0 0.0999924 0.996735
0.0999924 0.0999924 0.996735
0.199985 0.0999924 0.996735
0.336553 0.0999924 0.996338
0.522881 0.0999924 0.990539
0.686183 0.0999924 0.992401
0.792386 0.0999924 0.99292
0.892378 0.0999924 0.99292
0.992386 0.0999924 0.99292
0 0.202258 0.996689
0.0999924 0.205173 0.996689
0.199985 0.206531 0.996719
0.352255 0.20148 0.99559
0.544045 0.199985 0.99028
0.691737 0.199985 0.992859
0.792386 0.199985 0.99292
0.892378 0.199985 0.99292
0.992386 0.199985 0.99292
0 0.338338 0.996521
0.0999924 0.346426 0.99585
0.199985 0.352728 0.995224
0.347082 0.350393 1
0.548058 0.340887 0.999832
0.699718 0.338293 1
0.8 0.334722 1
0.899992 0.337392 1
1 0.342824 1
0 0.514916 0.986481
0.0999924 0.524941 0.985321
0.199985 0.534112 0.984588
0.321279 0.532982 0.993347
0.528389 0.522667 1
0.692943 0.518853 1
0.8 0.51696 1
0.899992 0.519493 1
1 0.523995 1
0 0.689052 0.987701
0.100237 0.695583 0.98819
0.200793 0.69894 0.988464
0.312642 0.698756 0.990311
0.498939 0.68957 0.99588
0.669703 0.677607 0.999588
0.799969 0.673854 1
0.899992 0.674128 1
1 0.675837 1
0.00209049 0.8 0.988556
0.102083 0.8 0.988556
0.202075 0.8 0.988556
0.304326 0.8 0.988876
0.480507 0.8 0.994354
0.65214 0.8 0.994812
0.795254 0.8 0.999435
0.899992 0.799985 1
1 0.799908 1
0.00209049 0.899992 0.988556
0.102083 0.899992 0.988556
0.202075 0.899992 0.988556
0.307744 0.899992 0.989334
0.476127 0.899992 0.9944
0.642832 0.899992 0.994369
0.786252 0.899992 0.998276
0.899992 0.899992 1
1 0.899992 1
0.00209049 1 0.988556
0.102083 1 0.988556
0.202075 1 0.988556
0.309865 1 0.989624
0.477165 1 0.994385
0.641688 1 0.994324
0.783749 1 0.997955
0.899992 1 1
1 1 1
