datas/cubes/TC - EDITORIAL_60.cube
TITLE "Generate by Resolve"
LUT_3D_SIZE 33
0 0.00436408 0.0159915
0.0124971 0.00367742 0.0153506
0.0258488 0.00263981 0.0144045
0.04094 0.00163272 0.0134279
0.0588388 0.000915541 0.0126192
0.0804456 0.000320439 0.0113375
0.104112 0.00015259 0.00923171
0.130571 0.000213626 0.00642405
0.160891 0.000289921 0.00267033
0.196338 0.000122072 0.000320439
0.237598 0 0
0.288853 0 0
0.352972 0 0
0.422553 0 0
0.489326 0 0
0.554681 0 0
0.620523 0 0
0.681651 0 0
0.735241 0 0
0.783261 0 0
0.816983 0 0
0.833524 0 0
0.846021 0 0
0.858518 0 0
0.871015 0 0
0.883528 0 0
0.896025 0 0
0.908522 0 0
0.921019 0 0
0.933516 0 0
0.946029 0 0
0.958526 0 0
0.971023 0 0
0 0.021149 0.0127108
0.0124971 0.0206912 0.0123445
0.0253452 0.0199283 0.0118105
0.0397345 0.0190585 0.0113527
0.0569924 0.0182193 0.0111543
0.078706 0.0171664 0.0099031
0.102388 0.0160678 0.00802625
0.128954 0.0148318 0.00543221
0.159472 0.0136263 0.00202945
0.195239 0.0127413 0.00015259
0.236652 0.0124971 0
0.288121 0.0124971 0
0.35259 0.0124971 0
0.422766 0.0124971 0
0.489784 0.0124971 0
0.555413 0.0124971 0
0.621576 0.0124971 0
0.68275 0.0124971 0
0.736446 0.0124971 0
0.784115 0.0124971 0
0.817212 0.0124971 0
0.833524 0.0124971 0
0.846021 0.0124971 0
0.858518 0.0124971 0
0.871015 0.0124971 0
0.883528 0.0124971 0
0.896025 0.0124971 0
0.908522 0.0124971 0
0.921019 0.0124971 0
0.933516 0.0124971 0
0.946029 0.0124971 0
0.958526 0.0124971 0
0.971023 0.0124971 0
1.5259e-05 0.0384527 0.0103151
0.0124971 0.0381018 0.0100404
0.0251926 0.0374609 0.0096437
0.0390173 0.0367285 0.00935378
0.0551919 0.0359045 0.00935378
0.0771649 0.0345464 0.00869764
0.100664 0.0331273 0.00680552
0.127138 0.0311589 0.00424201
0.15787 0.0286412 0.00134279
0.193759 0.0264286 0
0.235279 0.0252384 0
0.286824 0.0250095 0
0.351125 0.0249943 0
0.421851 0.0249943 0
0.489387 0.0249943 0
0.555474 0.0249943 0
0.622248 0.0249943 0
0.683925 0.0249943 0
0.737942 0.0249943 0
0.785351 0.0249943 0
0.817548 0.0249943 0
0.833524 0.0249943 0
0.846021 0.0249943 0
0.858518 0.0249943 0
0.871015 0.0249943 0
0.883528 0.0249943 0
0.896025 0.0249943 0
0.908522 0.0249943 0
0.921019 0.0249943 0
0.933516 0.0249943 0
0.946029 0.0249943 0
0.958526 0.0249943 0
0.971023 0.0249943 0
3.0518e-05 0.05626 0.0084535
0.0125429 0.0559396 0.00822461
0.0251926 0.0553902 0.00784314
0.0385443 0.0547494 0.0075227
0.0534218 0.0541085 0.00741588
0.0755474 0.0526131 0.0071107
0.0992599 0.0509957 0.00578317
0.125643 0.0488594 0.00329595
0.156222 0.0457465 0.000885023
0.192401 0.0419928 0
0.234562 0.038529 0
0.286717 0.0375372 0
0.351995 0.0374914 0
0.423529 0.0374914 0
0.491661 0.0374914 0
0.558328 0.0374914 0
0.625299 0.0374914 0
0.687053 0.0374914 0
0.740642 0.0374914 0
0.787579 0.0374914 0
0.818097 0.0374914 0
0.833524 0.0374914 0
0.846021 0.0374914 0
0.858518 0.0374914 0
0.871015 0.0374914 0
0.883528 0.0374914 0
0.896025 0.0374914 0
0.908522 0.0374914 0
0.921019 0.0374914 0
0.933516 0.0374914 0
0.946029 0.0374914 0
0.958526 0.0374914 0
0.971023 0.0374914 0
0.000122072 0.0746166 0.00680552
0.0126192 0.0743877 0.00662242
0.0251469 0.07393 0.0062562
0.0379644 0.0734569 0.00585946
0.0517128 0.0729992 0.00552377
0.0732128 0.0717021 0.00445563
0.0987106 0.0694896 0.00509651
0.12488 0.0675364 0.00328069
0.154803 0.0648356 0.00077821
0.190997 0.0606088 0
0.233524 0.0551003 0
0.286717 0.0503243 0
0.353445 0.0499886 0
0.426123 0.0499886 0
0.495155 0.0499886 0
0.56321 0.0499886 0
0.631174 0.0499886 0
0.69276 0.0499886 0
0.745983 0.0499886 0
0.791623 0.0499886 0
0.819074 0.0499886 0
0.833524 0.0499886 0
0.846021 0.0499886 0
0.858518 0.0499886 0
0.871015 0.0499886 0
0.883528 0.0499886 0
0.896025 0.0499886 0
0.908522 0.0499886 0
0.921019 0.0499886 0
0.933516 0.0499886 0
0.946029 0.0499886 0
0.958526 0.0499886 0
0.971023 0.0499886 0
0.000106813 0.0939803 0.0041352
0.0125887 0.0938277 0.00396735
0.0251011 0.0935836 0.00370794
0.0376593 0.0933089 0.00341802
0.0504921 0.0930953 0.00317388
0.0704662 0.0921187 0.00236515
0.0968643 0.0897078 0.0024567
0.124895 0.0871748 0.00321965
0.154421 0.0847791 0.00169375
0.189715 0.0810407 0.000167849
0.232563 0.0753185 0
0.286366 0.0679789 0
0.3552 0.062974 0
0.429389 0.062501 0
0.499718 0.062501 0
0.569467 0.062501 0
0.638758 0.062501 0
0.699916 0.062501 0
0.753338 0.062501 0
0.79675 0.062501 0
0.820081 0.062501 0
0.833524 0.062501 0
0.846021 0.062501 0
0.858518 0.062501 0
0.871015 0.062501 0
0.883528 0.062501 0
0.896025 0.062501 0
0.908522 0.062501 0
0.921019 0.062501 0
0.933516 0.062501 0
0.946029 0.062501 0
0.958526 0.062501 0
0.971023 0.062501 0
9.15541e-05 0.114488 0.00144961
0.0125887 0.114473 0.00135805
0.0250858 0.114443 0.00123598
0.037583 0.114427 0.00109865
0.0500801 0.114458 0.000976577
0.0679484 0.113802 0.000640879
0.0922408 0.112047 0.000595102
0.122332 0.109117 0.00215152
0.154238 0.106142 0.00323491
0.188952 0.103105 0.00135805
0.231113 0.0981918 9.15541e-05
0.285481 0.0904555 0
0.356573 0.0806439 0
0.432563 0.0759899 0
0.504524 0.0749981 0
0.57615 0.0749981 0
0.646372 0.0749981 0
0.706493 0.0749981 0
0.760189 0.0749981 0
0.800626 0.0749981 0
0.820615 0.0749981 0
0.833524 0.0749981 0
0.846021 0.0749981 0
0.858518 0.0749981 0
0.871015 0.0749981 0
0.883528 0.0749981 0
0.896025 0.0749981 0
0.908522 0.0749981 0
0.921019 0.0749981 0
0.933516 0.0749981 0
0.946029 0.0749981 0
0.958526 0.0749981 0
0.971023 0.0749981 0
4.57771e-05 0.136584 0.000106813
0.0125277 0.136782 0.000106813
0.0250248 0.137057 0.000106813
0.0375372 0.137346 9.15541e-05
0.0500343 0.137697 6.10361e-05
0.0653391 0.13756 1.5259e-05
0.0859236 0.136675 0
0.115984 0.134127 0.000640879
0.15201 0.13048 0.00328069
0.188922 0.127047 0.00396735
0.229618 0.123232 0.00111391
0.283299 0.116533 0
0.355673 0.105928 0
0.43386 0.0952468 0
0.507744 0.0894636 0
0.581369 0.087602 0
0.651987 0.0874952 0
0.711482 0.0874952 0
0.765103 0.0874952 0
0.803052 0.0874952 0
0.820966 0.0874952 0
0.833524 0.0874952 0
0.846021 0.0874952 0
0.858518 0.0874952 0
0.871015 0.0874952 0
0.883528 0.0874952 0
0.896025 0.0874952 0
0.908522 0.0874952 0
0.921019 0.0874952 0
0.933516 0.0874952 0
0.946029 0.0874952 0
0.958526 0.0874952 0
0.971023 0.0874952 0
0 0.1608 0
0.0124971 0.161227 0
0.0249943 0.161868 0
0.0374914 0.162631 0
0.0499886 0.163577 0
0.0632029 0.164172 0
0.0793011 0.164004 0
0.105974 0.162676 0
0.144762 0.159045 0.00125124
0.187289 0.154437 0.00497444
0.229755 0.1505 0.00476081
0.280156 0.145586 0.000717174
0.351705 0.136339 0
0.431601 0.124956 0
0.507103 0.113558 0
0.582406 0.105898 0
0.653864 0.102617 0
0.714 0.100679 0
0.767575 0.0999924 0
0.804852 0.0999924 0
0.821591 0.0999924 0
0.833936 0.0999924 0
0.846403 0.0999924 0
0.858839 0.0999924 0
0.871229 0.0999924 0
0.883574 0.0999924 0
0.896025 0.0999924 0
0.908522 0.0999924 0
0.921019 0.0999924 0
0.933516 0.0999924 0
0.946075 0.0999924 0
0.958602 0.0999924 0
0.97113 0.0999924 0
0 0.187778 0
0.0124971 0.188602 0
0.0249943 0.189593 0
0.0374914 0.190967 0
0.0499886 0.192584 0
0.062501 0.194064 0
0.0755779 0.194888 0
0.0966659 0.194598 0
0.132311 0.192248 7.62951e-05
0.17969 0.187091 0.00250248
0.229175 0.181476 0.00717174
0.280217 0.176745 0.00544747
0.346944 0.16997 0.000427253
0.42594 0.160113 0
0.502861 0.149706 0
0.579446 0.139574 0
0.652827 0.13167 0
0.714168 0.126162 0
0.768292 0.123156 0
0.807538 0.121187 0
0.824598 0.118746 0
0.8365 0.116152 0
0.848524 0.113725 0
0.860624 0.11249 0
0.872724 0.11249 0
0.885008 0.11249 0
0.897475 0.11249 0
0.909972 0.11249 0
0.922591 0.113024 0
0.935302 0.113878 0
0.947967 0.114473 0
0.960479 0.114809 0
0.973327 0.115343 0
0 0.218265 0
0.0124971 0.21944 0
0.0249943 0.221103 0
0.0374914 0.223011 0
0.0499886 0.225467 0
0.062501 0.22797 0
0.0749981 0.229618 0
0.090425 0.230106 0
0.118242 0.229221 0
0.164904 0.22533 0.000289921
0.221958 0.21854 0.00408942
0.28069 0.211719 0.00947585
0.346395 0.205661 0.00514229
0.4215 0.198596 0.000167849
0.49836 0.190143 0
0.575006 0.181231 0
0.650309 0.174197 0
0.713329 0.169604 0
0.768719 0.166247 0
0.81181 0.162982 0
0.830869 0.158068 0
0.842298 0.153124 0
0.85391 0.149035 0
0.865736 0.146151 0
0.877699 0.143816 0
0.889845 0.141619 0
0.902373 0.141482 0
0.915099 0.142428 0
0.927932 0.143877 0
0.940887 0.145968 0
0.953826 0.148104 0
0.966766 0.150301 0
0.979889 0.153353 0
0 0.253269 0
0.0124971 0.254871 0
0.0249943 0.257481 0
0.0374914 0.260304 0
0.0499886 0.263737 0
0.062501 0.26743 0
0.0749981 0.270268 0
0.087602 0.271702 0
0.106996 0.271702 0
0.14612 0.269886 0
0.205234 0.263569 3.0518e-05
0.273274 0.254398 0.00582895
0.34728 0.245792 0.0105287
0.422507 0.239887 0.00523384
0.49662 0.234348 0.000396735
0.571328 0.227497 0
0.6477 0.221805 0
0.712612 0.218433 0
0.769467 0.216205 0
0.816785 0.214008 0
0.840162 0.209628 0
0.851392 0.204593 0
0.862898 0.200626 0
0.874632 0.197513 0
0.886564 0.195163 0
0.898787 0.193942 0
0.91136 0.19411 0
0.924147 0.195224 0
0.937133 0.197192 0
0.95021 0.199527 0
0.963348 0.202152 0
0.976501 0.204807 0
0.989868 0.208408 0
0 0.295674 0
0.0124971 0.297963 0
0.0249943 0.301549 0
0.0374914 0.305303 0
0.0499886 0.310048 0
0.062501 0.315312 0
0.0749981 0.319982 0
0.0874952 0.323018 0
0.10074 0.324071 0
0.127901 0.323491 0
0.180484 0.32018 0
0.253376 0.311604 0
0.338643 0.299947 0.00701915
0.425361 0.290608 0.0123293
0.502022 0.284916 0.00898756
0.573098 0.28043 0.00265507
0.646998 0.276646 0.00135805
0.712108 0.274174 0.000839246
0.769421 0.272633 0.000869764
0.82002 0.271229 0.00115969
0.849027 0.267704 0.0012665
0.860716 0.262806 0.00106813
0.872419 0.258778 0.000762951
0.884306 0.255436 0.000396735
0.896483 0.253056 0.000106813
0.908965 0.251881 0
0.921798 0.252186 0
0.93489 0.25362 0
0.94818 0.25594 0
0.961563 0.258762 0
0.974792 0.261982 7.62951e-05
0.987137 0.265721 0.000793469
0.999664 0.27013 0.00146487
0 0.346654 0
0.0124971 0.349737 0
0.0249943 0.354208 0
0.0374914 0.359335 0
0.0499886 0.365499 0
0.062501 0.372335 0
0.0749981 0.378576 0
0.0874952 0.382834 0
0.0999924 0.384604 0
0.116808 0.384604 0
0.157885 0.383963 0
0.225559 0.379019 0
0.317891 0.366567 0.00125124
0.418006 0.353552 0.00987259
0.507866 0.345098 0.0168765
0.58262 0.340902 0.0163424
0.651179 0.339193 0.0119326
0.712703 0.337652 0.00898756
0.768475 0.336446 0.00830091
0.818769 0.335103 0.00880446
0.850004 0.332341 0.0091249
0.862501 0.327504 0.0083772
0.874998 0.322896 0.00750744
0.887495 0.319509 0.00688182
0.899992 0.317189 0.00656138
0.912505 0.316075 0.00656138
0.925002 0.316686 0.00679026
0.937499 0.318654 0.00714122
0.949996 0.321935 0.00766003
0.962493 0.32578 0.00825513
0.975006 0.330282 0.00898756
0.987503 0.3346 0.00968948
1 0.339651 0.010544
0 0.404913 0
0.0124971 0.408911 0
0.0249943 0.414572 0
0.0374914 0.420584 0
0.0499886 0.427543 0
0.062501 0.435019 0
0.0749981 0.442008 0
0.0874952 0.446998 0
0.0999924 0.449622 0
0.112642 0.449882 0
0.143175 0.450278 0
0.201877 0.448997 0
0.289952 0.43975 0.000106813
0.400504 0.425284 0.00404364
0.505074 0.413855 0.0147555
0.590051 0.4065 0.022797
0.657969 0.403525 0.0244144
0.716167 0.403281 0.0225071
0.768612 0.403754 0.0204013
0.816648 0.40351 0.0193484
0.850004 0.402152 0.0190127
0.862501 0.398245 0.0183871
0.874998 0.39379 0.0175937
0.887495 0.390753 0.0170443
0.899992 0.388724 0.0166629
0.912505 0.387961 0.016556
0.925002 0.389136 0.0168307
0.937499 0.391821 0.0173342
0.949996 0.395682 0.0180514
0.962493 0.400183 0.0188449
0.975006 0.405188 0.0197452
0.987503 0.410056 0.0205844
1 0.415396 0.0215305
0 0.467857 0
0.0124971 0.472145 0
0.0249943 0.478004 0
0.0374914 0.484428 0
0.0499886 0.491203 0
0.062501 0.498741 0
0.0749981 0.505928 0
0.0874952 0.511101 0
0.0999924 0.514153 0
0.11249 0.514351 0
0.131777 0.514443 0
0.182986 0.515038 0
0.261112 0.510109 0
0.37142 0.496925 0
0.488869 0.482094 0.00741588
0.585245 0.471107 0.0199893
0.66009 0.467155 0.0296635
0.721828 0.467247 0.0343633
0.773495 0.468956 0.0345464
0.818936 0.470832 0.0330663
0.850004 0.471839 0.0315099
0.862501 0.470512 0.0304723
0.874998 0.466987 0.0296483
0.887495 0.464317 0.0290379
0.899992 0.462654 0.0287022
0.912505 0.462547 0.0287327
0.925002 0.464057 0.0291295
0.937499 0.467079 0.0298314
0.949996 0.471183 0.030808
0.962493 0.475868 0.0318914
0.975006 0.480797 0.0330205
0.987503 0.485847 0.0341802
1 0.490974 0.0353704
0 0.531319 0
0.0124971 0.535531 0
0.0249943 0.541726 0
0.0374914 0.548302 0
0.0499886 0.555352 0
0.062501 0.56347 0
0.0749981 0.572183 0
0.0874952 0.578805 0
0.0999924 0.582452 0
0.11249 0.582925 0
0.125002 0.582071 0
0.167117 0.582467 0
0.236088 0.580056 0
0.335225 0.56791 0
0.458152 0.54699 0.00137331
0.563348 0.526894 0.0121309
0.64654 0.523552 0.0252842
0.719722 0.529625 0.0367742
0.776394 0.531823 0.0432441
0.822904 0.533547 0.0451209
0.850004 0.535912 0.0444343
0.862501 0.536904 0.0432746
0.874998 0.534783 0.0425422
0.887495 0.53286 0.0420996
0.899992 0.531792 0.0418708
0.912505 0.532097 0.0419471
0.925002 0.533791 0.0423285
0.937499 0.536675 0.0429999
0.949996 0.540276 0.0438392
0.962493 0.544549 0.044831
0.975006 0.548531 0.0456397
0.987503 0.55256 0.0464027
1 0.556558 0.0471656
0 0.599054 0
0.0124971 0.604273 0
0.0249943 0.611231 0
0.0374914 0.618601 0
0.0499886 0.626123 0
0.062501 0.63476 0
0.0749981 0.643366 0
0.0874952 0.649821 0
0.0999924 0.653498 0
0.11249 0.654154 0
0.125002 0.652934 0
0.158007 0.652522 0
0.222263 0.649088 0
0.310964 0.63299 0
0.429999 0.606348 0
0.542672 0.583017 0.00505074
0.633387 0.586419 0.0179904
0.712764 0.596048 0.0319829
0.77438 0.596887 0.0432898
0.823865 0.596429 0.0498817
0.850004 0.597208 0.05243
0.862501 0.598047 0.0527352
0.874998 0.597284 0.0523079
0.887495 0.595895 0.0520638
0.899992 0.595148 0.0519722
0.912505 0.595392 0.0520638
0.925002 0.596719 0.052369
0.937499 0.599207 0.052842
0.949996 0.602274 0.0532082
0.962493 0.605829 0.0536355
0.975006 0.609827 0.054139
0.987503 0.613581 0.0546273
1 0.617441 0.0551308
0 0.670283 0
0.0124971 0.675029 0
0.0250553 0.681849 0
0.0377661 0.688991 0
0.0506142 0.696223 0.000106813
0.0637064 0.70396 0.000534066
0.0771344 0.712169 0.00134279
0.090425 0.718425 0.00205997
0.103456 0.722179 0.002533
0.11606 0.723323 0.00259403
0.128222 0.721965 0.00224308
0.15584 0.720775 0.00285344
0.214801 0.719707 0.00483711
0.291325 0.711711 0.00440986
0.397101 0.696468 0.00108339
0.522774 0.681147 0.0015259
0.629191 0.671687 0.0116426
0.70605 0.666423 0.0247959
0.768872 0.662409 0.0375677
0.82092 0.659739 0.0472877
0.850004 0.658427 0.0534829
0.862501 0.658198 0.0569162
0.874998 0.657816 0.0580148
0.887495 0.656748 0.0580758
0.899992 0.65597 0.0580758
0.912505 0.655879 0.0579995
0.925002 0.657023 0.0580453
0.937499 0.659083 0.0581521
0.949996 0.661891 0.05832
0.962493 0.664759 0.0584726
0.975006 0.667887 0.0586557
0.987503 0.670924 0.0588388
1 0.674159 0.0590372
0.00300603 0.738369 0.00263981
0.0166171 0.742901 0.00361639
0.0305486 0.749203 0.00477607
0.0446937 0.755856 0.00610361
0.0588693 0.762387 0.00759899
0.0731975 0.769543 0.0093843
0.0876173 0.777066 0.0112917
0.101656 0.783093 0.0128023
0.115145 0.786923 0.0137789
0.127855 0.787869 0.0139925
0.140078 0.786816 0.0137179
0.15967 0.784741 0.0137179
0.211902 0.784482 0.0156252
0.279683 0.782147 0.0155337
0.37026 0.774044 0.0109102
0.495033 0.757015 0.00469978
0.613886 0.738811 0.00798047
0.696208 0.727993 0.0182193
0.761379 0.72163 0.0303807
0.81532 0.717586 0.041062
0.850004 0.714519 0.0493782
0.862501 0.712764 0.0555123
0.874998 0.71162 0.0587625
0.887495 0.710414 0.0595865
0.899992 0.709529 0.0596475
0.912505 0.709484 0.059617
0.925002 0.710445 0.0595865
0.937499 0.712291 0.0595865
0.949996 0.714672 0.0595865
0.962493 0.717235 0.0595865
0.975006 0.71989 0.0595865
0.987503 0.722484 0.0595865
1 0.725231 0.0595865
0.0155795 0.801663 0.0142061
0.0290837 0.805768 0.0152132
0.0430304 0.811658 0.0166476
0.0570687 0.81796 0.0181582
0.0710002 0.823972 0.0195773
0.0850385 0.830243 0.021088
0.0989548 0.835584 0.0224918
0.112474 0.83917 0.0234989
0.125566 0.841016 0.0240787
0.138247 0.841321 0.0242466
0.150607 0.840497 0.0241093
0.164996 0.838972 0.0238651
0.209751 0.83801 0.0248722
0.273548 0.836347 0.0246738
0.354147 0.831373 0.0203403
0.469154 0.818631 0.0112306
0.593194 0.798321 0.00756847
0.683207 0.784237 0.0131228
0.752117 0.776318 0.0234226
0.808637 0.771466 0.0339055
0.849012 0.7673 0.0429999
0.862501 0.764157 0.0506142
0.874998 0.761913 0.0559091
0.887495 0.760327 0.0582742
0.899992 0.759503 0.0587625
0.912505 0.759426 0.0587625
0.925002 0.760266 0.058732
0.937499 0.761746 0.0586709
0.949996 0.763592 0.0585946
0.962493 0.765927 0.0584878
0.975006 0.768215 0.0583963
0.987503 0.770474 0.0583047
1 0.772671 0.0581521
0.0259251 0.854795 0.0244144
0.0392157 0.857908 0.0252079
0.0529183 0.861311 0.0263981
0.0662394 0.862501 0.0272068
0.0792859 0.862501 0.0277256
0.0923171 0.862501 0.0282597
0.105272 0.862501 0.0287022
0.118059 0.862501 0.0289769
0.130709 0.862501 0.0291142
0.143236 0.862501 0.0291447
0.155703 0.862501 0.0291295
0.169741 0.862501 0.0290837
0.206317 0.862501 0.0297398
0.266682 0.862501 0.0297551
0.341054 0.862501 0.026215
0.448295 0.859419 0.0165408
0.571054 0.848295 0.00857557
0.667964 0.835874 0.00932326
0.741176 0.827222 0.0168765
0.800427 0.821561 0.0267491
0.844251 0.816785 0.0360571
0.862501 0.812909 0.0443885
0.874998 0.809995 0.0511635
0.887495 0.808057 0.0552682
0.899992 0.806973 0.0563668
0.912505 0.806607 0.0564279
0.925002 0.807065 0.0563973
0.937499 0.808316 0.0562905
0.949996 0.809964 0.0561685
0.962493 0.811994 0.0560159
0.975006 0.813733 0.0558633
0.987503 0.815259 0.0556954
1 0.81677 0.0555428
0.0312505 0.874998 0.0296483
0.0439155 0.874998 0.0298161
0.0564126 0.874998 0.0298161
0.0689097 0.874998 0.0298161
0.0814221 0.874998 0.0298161
0.0939193 0.874998 0.0298161
0.106416 0.874998 0.0298161
0.118914 0.874998 0.0298161
0.131411 0.874998 0.0298161
0.143923 0.874998 0.0298161
0.15642 0.874998 0.0298161
0.169909 0.874998 0.0298619
0.200412 0.874998 0.030457
0.258518 0.874998 0.030869
0.329473 0.874998 0.0281987
0.431098 0.874998 0.0192111
0.551751 0.874113 0.00962844
0.653162 0.868513 0.00733959
0.729 0.861189 0.0124819
0.790021 0.856245 0.0214389
0.838376 0.852644 0.0305486
0.862501 0.849882 0.038941
0.874998 0.8477 0.0464027
0.887495 0.84596 0.0518807
0.899992 0.844999 0.0537118
0.912505 0.844633 0.0539254
0.925002 0.844968 0.0538949
0.937499 0.845823 0.0538033
0.949996 0.84712 0.053666
0.962493 0.848341 0.0535439
0.975006 0.849027 0.0534524
0.987503 0.849744 0.0533761
1 0.850095 0.0533455
0.0314183 0.887495 0.0298161
0.0439155 0.887495 0.0298161
0.0564126 0.887495 0.0298161
0.0689097 0.887495 0.0298161
0.0814221 0.887495 0.0298161
0.0939193 0.887495 0.0298161
0.106416 0.887495 0.0298161
0.118914 0.887495 0.0298161
0.131411 0.887495 0.0298161
0.143923 0.887495 0.0298161
0.15642 0.887495 0.0298161
0.168994 0.887495 0.0298161
0.196063 0.887495 0.0303502
0.251484 0.887495 0.0310369
0.32192 0.887495 0.0286259
0.419059 0.887495 0.0204776
0.537484 0.887495 0.0104677
0.641215 0.884871 0.00666819
0.717189 0.877791 0.0107424
0.779385 0.873243 0.0187991
0.833387 0.870207 0.0277256
0.861982 0.867948 0.0361486
0.874998 0.866209 0.0437171
0.887495 0.864897 0.049836
0.899992 0.864256 0.0526589
0.912505 0.864118 0.0531624
0.925002 0.864164 0.0531624
0.937499 0.864347 0.0531319
0.949996 0.864561 0.0531167
0.962493 0.864591 0.0531167
0.975006 0.864591 0.0531167
0.987503 0.864591 0.0531167
1 0.864591 0.0531167
0.0314183 0.899992 0.0298161
0.0439155 0.899992 0.0298161
0.0564126 0.899992 0.0298161
0.0689097 0.899992 0.0298161
0.0814221 0.899992 0.0298161
0.0939193 0.899992 0.0298161
0.106416 0.899992 0.0298161
0.118914 0.899992 0.0298161
0.131411 0.899992 0.0298161
0.143923 0.899992 0.0298161
0.15642 0.899992 0.0298161
0.168917 0.899992 0.0298161
0.191608 0.899992 0.0302281
0.247715 0.899992 0.0310063
0.317708 0.899992 0.028809
0.411795 0.899992 0.0211643
0.527749 0.899992 0.0110475
0.631662 0.899245 0.00645457
0.707851 0.89134 0.00982681
0.770459 0.886488 0.0171359
0.826261 0.883253 0.0259251
0.859968 0.880873 0.0343786
0.874998 0.879118 0.0420081
0.887495 0.877867 0.0484627
0.899992 0.877195 0.0524605
0.912505 0.877089 0.0531167
0.925002 0.877089 0.0531167
0.937499 0.877089 0.0531167
0.949996 0.877089 0.0531167
0.962493 0.877089 0.0531167
0.975006 0.877089 0.0531167
0.987503 0.877089 0.0531167
1 0.877089 0.0531167
0.0314183 0.912505 0.0298161
0.0439155 0.912505 0.0298161
0.0564126 0.912505 0.0298161
0.0689097 0.912505 0.0298161
0.0814221 0.912505 0.0298161
0.0939193 0.912505 0.0298161
0.106416 0.912505 0.0298161
0.118914 0.912505 0.0298161
0.131411 0.912505 0.0298161
0.143923 0.912505 0.0298161
0.15642 0.912505 0.0298161
0.168917 0.912505 0.0298161
0.186923 0.912505 0.0300298
0.248112 0.912505 0.0308843
0.317403 0.912505 0.028809
0.410346 0.912505 0.0212711
0.523964 0.912505 0.0111696
0.62533 0.911345 0.00674449
0.702129 0.904494 0.009308
0.764752 0.899474 0.0161288
0.820844 0.896101 0.0247501
0.859953 0.89366 0.0331579
0.874998 0.891859 0.0408331
0.887495 0.890532 0.0475319
0.899992 0.889677 0.0525216
0.912505 0.889586 0.0530861
0.925002 0.889586 0.0531167
0.937499 0.889586 0.0531167
0.949996 0.889586 0.0531167
0.962493 0.889586 0.0531167
0.975006 0.889586 0.0531167
0.987503 0.889586 0.0531167
1 0.889586 0.0531167
0.0314183 0.925002 0.0298161
0.0439155 0.925002 0.0298161
0.0564126 0.925002 0.0298161
0.0689097 0.925002 0.0298161
0.0814221 0.925002 0.0298161
0.0939193 0.925002 0.0298161
0.106416 0.925002 0.0298161
0.118914 0.925002 0.0298161
0.131411 0.925002 0.0298161
0.143923 0.925002 0.0298161
0.15642 0.925002 0.0298161
0.168978 0.925002 0.0298161
0.194156 0.925002 0.0302434
0.251911 0.925002 0.0308385
0.32105 0.925002 0.0286259
0.413718 0.925002 0.0209506
0.523888 0.925002 0.0113222
0.623453 0.923354 0.0069276
0.69926 0.917327 0.0090486
0.761898 0.912215 0.0155947
0.817884 0.908797 0.0241093
0.862181 0.90631 0.0325017
0.874998 0.904494 0.0401465
0.887495 0.903151 0.0468757
0.899992 0.902235 0.0522011
0.912505 0.902113 0.0529793
0.925002 0.902098 0.0531014
0.937499 0.902098 0.0531167
0.949996 0.902098 0.0531167
0.962493 0.902098 0.0531167
0.975006 0.902098 0.0531167
0.987503 0.902098 0.0531167
1 0.902098 0.0531167
0.0314183 0.937499 0.0298161
0.0439155 0.937499 0.0298161
0.0564126 0.937499 0.0298161
0.0689097 0.937499 0.0298161
0.0814221 0.937499 0.0298161
0.0939193 0.937499 0.0298161
0.106416 0.937499 0.0298161
0.118914 0.937499 0.0298161
0.131411 0.937499 0.0298161
