datas/cubes/TC - DARE_20.cube
TITLE "Generate by Resolve"
LUT_3D_SIZE 33
0 0 0
0.0249943 0 0
0.0499886 0 0
0.0749828 0 0
0.0999924 0 0
0.124987 0 0
0.149996 0 0
0.175418 0 0
0.20383 0 0
0.235508 0 0
0.268284 0 0
0.30161 0 0
0.336324 0 0
0.374762 0 0
0.417914 0 0
0.466514 0 0
0.531014 0 0
0.59379 0 0
0.638712 0 0
0.674739 0 0
0.699992 0 0
0.725002 0 0
0.749996 0 0
0.77499 0 0
0.8 0 0
0.824994 0 0
0.850004 0 0
0.874998 0 0
0.899992 0 0
0.925002 0 0
0.949996 0 0
0.975006 0 0
1 0 0
0 0.0249943 0
0.0249943 0.0249943 0
0.0499886 0.0249943 0
0.0749828 0.0249943 0
0.0999924 0.0249943 0
0.124987 0.0249943 0
0.149996 0.0249943 0
0.175479 0.0249943 0
0.203922 0.0249943 0
0.235569 0.0249943 0
0.26833 0.0249943 0
0.301686 0.0249943 0
0.336431 0.0249943 0
0.37499 0.0249943 0
0.418219 0.0249943 0
0.467231 0.0249943 0
0.532189 0.0249943 0
0.594537 0.0249943 0
0.639277 0.0249943 0
0.674998 0.0249943 0
0.699992 0.0249943 0
0.725002 0.0249943 0
0.749996 0.0249943 0
0.77499 0.0249943 0
0.8 0.0249943 0
0.824994 0.0249943 0
0.850004 0.0249943 0
0.874998 0.0249943 0
0.899992 0.0249943 0
0.925002 0.0249943 0
0.949996 0.0249943 0
0.975006 0.0249943 0
1 0.0249943 0
0 0.0499886 0
0.0249943 0.0499886 0
0.0499886 0.0499886 0
0.0749828 0.0499886 0
0.0999924 0.0499886 0
0.124987 0.0499886 0
0.149996 0.0499886 0
0.175586 0.0499886 0
0.204181 0.0499886 0
0.23592 0.0499886 0
0.268727 0.0499886 0
0.301976 0.0499886 0
0.336797 0.0499886 0
0.375662 0.0499886 0
0.419043 0.0499886 0
0.46891 0.0499886 0
0.534752 0.0499886 0
0.596048 0.0499886 0
0.640421 0.0499886 0
0.674998 0.0499886 0
0.699992 0.0499886 0
0.725002 0.0499886 0
0.749996 0.0499886 0
0.77499 0.0499886 0
0.8 0.0499886 0
0.824994 0.0499886 0
0.850004 0.0499886 0
0.874998 0.0499886 0
0.899992 0.0499886 0
0.925002 0.0499886 0
0.949996 0.0499886 0
0.975006 0.0499886 0
1 0.0499886 0
0 0.0749828 0
0.0249943 0.0749828 0
0.0499886 0.0749828 0
0.0749828 0.0749828 0
0.0999924 0.0749828 0
0.124987 0.0749828 0
0.149996 0.0749828 0
0.175601 0.0749828 0
0.204532 0.0749828 0
0.236439 0.0749828 0
0.269306 0.0749828 0
0.30277 0.0749828 0
0.337804 0.0749828 0
0.376745 0.0749828 0
0.420432 0.0749828 0
0.471565 0.0749828 0
0.538628 0.0749828 0
0.598352 0.0749828 0
0.642054 0.0749828 0
0.674998 0.0749828 0
0.699992 0.0749828 0
0.725002 0.0749828 0
0.749996 0.0749828 0
0.77499 0.0749828 0
0.8 0.0749828 0
0.824994 0.0749828 0
0.850004 0.0749828 0
0.874998 0.0749828 0
0.899992 0.0749828 0
0.925002 0.0749828 0
0.949996 0.0749828 0
0.975006 0.0749828 0
1 0.0749828 0
0 0.0999924 0
0.0249943 0.0999924 0
0.0499886 0.0999924 0
0.0749828 0.0999924 0
0.0999924 0.0999924 0
0.124987 0.0999924 0
0.149996 0.0999924 0
0.175509 0.0999924 0
0.204746 0.0999924 0
0.236957 0.0999924 0
0.270069 0.0999924 0
0.303746 0.0999924 0
0.339361 0.0999924 0
0.379294 0.0999924 0
0.422873 0.0999924 0
0.475074 0.0999924 0
0.543236 0.0999924 0
0.601297 0.0999924 0
0.643702 0.0999924 0
0.674998 0.0999924 0
0.699992 0.0999924 0
0.725002 0.0999924 0
0.749996 0.0999924 0
0.77499 0.0999924 0
0.8 0.0999924 0
0.824994 0.0999924 0
0.850004 0.0999924 0
0.874998 0.0999924 0
0.899992 0.0999924 0
0.925002 0.0999924 0
0.949996 0.0999924 0
0.975006 0.0999924 0
1 0.0999924 0
0 0.126284 0
0.0249943 0.126299 0
0.0499886 0.126329 0
0.0749828 0.12639 0
0.0999924 0.126452 0
0.124987 0.126421 0
0.150011 0.126345 0
0.175647 0.125994 0
0.205005 0.125628 0
0.23743 0.125154 0
0.270909 0.124987 0
0.304723 0.124987 0
0.340703 0.124987 0
0.381826 0.124987 0
0.426429 0.124987 0
0.480705 0.124987 0
0.549157 0.124987 0
0.605127 0.124987 0
0.645548 0.124987 0
0.674998 0.124987 0
0.699992 0.124987 0
0.725002 0.124987 0
0.749996 0.124987 0
0.77499 0.124987 0
0.8 0.124987 0
0.824994 0.124987 0
0.850004 0.124987 0
0.874998 0.124987 0
0.899992 0.124987 0
0.925002 0.124987 0
0.949996 0.124987 0
0.975006 0.124987 0
1 0.124987 0
0 0.153689 0
0.0249943 0.15375 0
0.0499886 0.153826 0
0.0749828 0.153964 0
0.0999924 0.154101 0
0.124987 0.154162 0
0.150027 0.154086 0
0.176135 0.15346 0
0.205234 0.152941 0
0.236957 0.152483 0
0.270726 0.151736 0
0.305455 0.150896 0
0.342107 0.150195 0
0.383764 0.149996 0
0.429374 0.149996 0
0.485985 0.149996 0
0.555398 0.149996 0
0.609125 0.149996 0
0.647669 0.149996 0
0.674998 0.149996 0
0.699992 0.149996 0
0.725002 0.149996 0
0.749996 0.149996 0
0.77499 0.149996 0
0.8 0.149996 0
0.824994 0.149996 0
0.850004 0.149996 0
0.874998 0.149996 0
0.899992 0.149996 0
0.925002 0.149996 0
0.949996 0.149996 0
0.975006 0.149996 0
1 0.149996 0
0 0.182132 0
0.0249943 0.182269 0
0.0499886 0.182513 0
0.0749828 0.182742 0
0.0999924 0.182956 0
0.124987 0.183108 0
0.149996 0.183093 0
0.176211 0.182345 0
0.205661 0.181491 0
0.237018 0.180819 0
0.270436 0.179858 0
0.305928 0.178302 0
0.343511 0.176562 0
0.385595 0.175097 0
0.431464 0.17499 0
0.48835 0.17499 0
0.559045 0.17499 0
0.611429 0.17499 0
0.649744 0.17499 0
0.674998 0.17499 0
0.699992 0.17499 0
0.725002 0.17499 0
0.749996 0.17499 0
0.77499 0.17499 0
0.8 0.17499 0
0.824994 0.17499 0
0.850004 0.17499 0
0.874998 0.17499 0
0.899992 0.17499 0
0.925002 0.17499 0
0.949996 0.17499 0
0.975006 0.17499 0
1 0.17499 0
0 0.21149 0
0.0249943 0.211734 0
0.0499886 0.212024 0
0.0749828 0.212345 0
0.0999924 0.212604 0
0.124987 0.212802 0
0.149996 0.212863 0
0.175952 0.212253 0
0.205905 0.211185 0
0.237797 0.21033 0.000228885
0.27068 0.209644 0.000213626
0.306584 0.208179 0
0.345556 0.206073 0
0.388312 0.203311 0
0.433738 0.201099 0
0.48835 0.199985 0
0.557397 0.199985 0
0.611215 0.199985 0
0.649424 0.199985 0
0.674998 0.199985 0
0.699992 0.199985 0
0.725002 0.199985 0
0.749996 0.199985 0
0.77499 0.199985 0
0.8 0.199985 0
0.824994 0.199985 0
0.850004 0.199985 0
0.874998 0.199985 0
0.899992 0.199985 0
0.925002 0.200763 0
0.949996 0.204105 0
0.975006 0.207416 0
1 0.210712 0
0 0.241245 0
0.0249943 0.241596 0
0.0499886 0.241978 0
0.0749828 0.242405 0
0.0999924 0.242802 0
0.124987 0.243137 0
0.149996 0.24332 0
0.175494 0.243015 0
0.205341 0.242023 0
0.238727 0.240864 0.000839246
0.271916 0.240284 0.00169375
0.308156 0.2392 0.000427253
0.348043 0.237232 0
0.391653 0.234607 0
0.437232 0.231708 0
0.490227 0.228107 0
0.556451 0.224994 0
0.612421 0.224994 0
0.649897 0.224994 0
0.674998 0.224994 0
0.699992 0.224994 0
0.725002 0.224994 0
0.749996 0.224994 0
0.77499 0.225696 0
0.8 0.228275 0
0.824994 0.231144 0
0.850004 0.234211 0
0.874998 0.237568 0
0.899992 0.241306 0
0.925002 0.245029 0
0.949996 0.248798 0
0.975006 0.252567 0
1 0.256291 0
0 0.271916 0
0.0249943 0.272435 0
0.0499886 0.27303 0
0.0749828 0.273655 0
0.0999924 0.274266 0
0.124987 0.274815 0
0.149996 0.275212 0
0.175143 0.275273 0
0.203662 0.2748 0
0.238636 0.27364 0.000640879
0.274128 0.272816 0.00361639
0.311086 0.272328 0.0037232
0.352071 0.271046 0.00190738
0.396063 0.269215 0.000518807
0.441779 0.267308 3.0518e-05
0.493553 0.26424 0
0.557183 0.258854 0
0.615 0.255634 0
0.649989 0.256092 0
0.674998 0.258534 0
0.699992 0.261585 0
0.725002 0.26511 0
0.749996 0.267796 0
0.77499 0.270588 0
0.8 0.273701 0
0.824994 0.277119 0
0.850004 0.280705 0
0.874998 0.284428 0
0.899992 0.288228 0
0.925002 0.29218 0
0.949996 0.295979 0
0.975006 0.299657 0
1 0.30341 0.000793469
0 0.304204 0
0.0249943 0.304997 0
0.0499886 0.306035 0
0.0749828 0.307134 0
0.0999924 0.30811 0
0.124987 0.309026 0
0.149996 0.309697 0
0.17499 0.310155 0
0.201587 0.310384 0
0.236683 0.310033 3.0518e-05
0.275929 0.309148 0.00347906
0.315862 0.309026 0.00639353
0.358236 0.30898 0.00650034
0.402106 0.308827 0.00527962
0.446693 0.308766 0.00320439
0.495964 0.307866 0.000564584
0.556039 0.304936 0
0.615961 0.302419 0
0.649989 0.302998 0
0.674998 0.305974 0
0.699992 0.309392 0
0.725002 0.313024 0
0.749996 0.316197 0
0.77499 0.319219 0
0.8 0.322408 0
0.824994 0.325811 0
0.850004 0.329549 0
0.874998 0.333516 0
0.899992 0.337453 0
0.925002 0.341436 0
0.949996 0.345663 0
0.975006 0.349874 0.000137331
1 0.354208 0.00135805
0 0.339422 0
0.0249943 0.340902 0
0.0499886 0.342519 0
0.0749828 0.344228 0
0.0999924 0.345846 0
0.124987 0.347295 0
0.149996 0.348791 0
0.17499 0.349813 0
0.200259 0.350927 0
0.233616 0.352056 0
0.276051 0.351888 0.00215152
0.321691 0.35169 0.00735485
0.366812 0.35256 0.0100862
0.41059 0.354162 0.0112612
0.453696 0.356008 0.0109712
0.499443 0.357061 0.00852979
0.550835 0.357 0.00399786
0.608713 0.35555 0
0.649989 0.354879 0
0.674998 0.356878 0
0.699992 0.360037 0
0.725002 0.363653 0
0.749996 0.367163 0
0.77499 0.370504 0
0.8 0.373938 0
0.824994 0.377569 0
0.850004 0.381369 0
0.874998 0.385443 0
0.899992 0.389715 0
0.925002 0.394141 0
0.949996 0.398535 0
0.975006 0.402808 0.000167849
1 0.40708 0.000869764
0 0.379095 0
0.0249943 0.381262 0
0.0499886 0.383642 0
0.0749828 0.386328 0
0.0999924 0.389166 0
0.124987 0.391684 0
0.149996 0.39379 0
0.17499 0.3953 0
0.199985 0.397192 0
0.231922 0.39971 0
0.27689 0.400351 0.00157168
0.328313 0.39968 0.00817884
0.376638 0.400366 0.0133364
0.4206 0.402487 0.0166934
0.46276 0.404852 0.0182345
0.50573 0.406928 0.0174868
0.550454 0.408545 0.014374
0.59852 0.409598 0.00756847
0.6486 0.409689 0.000961318
0.674998 0.410452 0
0.699992 0.413153 0
0.725002 0.416526 0
0.749996 0.420035 0
0.77499 0.423499 0
0.8 0.426871 0
0.824994 0.430457 0
0.850004 0.434348 0
0.874998 0.438422 0
0.899992 0.44239 0
0.925002 0.446494 0
0.949996 0.450645 0
0.975006 0.45452 3.0518e-05
1 0.458274 0.000106813
0 0.423438 0
0.0249943 0.426749 0
0.0499886 0.430304 0
0.0749828 0.433982 0
0.0999924 0.437583 0
0.124987 0.441001 0
0.149996 0.443931 0
0.17499 0.446021 0
0.199985 0.448234 0
0.23267 0.451072 0
0.279591 0.451652 0.00158694
0.335821 0.449516 0.00929274
0.386862 0.448844 0.0166323
0.431449 0.450263 0.022034
0.473243 0.452674 0.0255436
0.51458 0.455314 0.0271305
0.555627 0.458091 0.0262455
0.596689 0.460883 0.0219272
0.640711 0.463004 0.0118868
0.674952 0.463828 0.00227359
0.699992 0.465202 0
0.725002 0.468147 0
0.749996 0.471427 0
0.77499 0.474784 0
0.8 0.478202 0
0.824994 0.481498 0
0.850004 0.484916 0
0.874998 0.488563 0
0.899992 0.49218 0
0.925002 0.495491 0
0.949996 0.498802 0
0.975006 0.502083 0
1 0.504982 0
0 0.473198 0
0.0249943 0.477378 0
0.0499886 0.481956 0
0.0749828 0.486748 0
0.0999924 0.491402 0
0.124987 0.495369 0
0.149996 0.498848 0
0.17499 0.501366 0
0.2 0.503044 0
0.229999 0.504662 0
0.279469 0.503761 0.000137331
0.340871 0.499931 0.00819409
0.395789 0.497826 0.018677
0.442023 0.498207 0.0272068
0.483589 0.500084 0.0331121
0.5234 0.502632 0.0370336
0.561639 0.505531 0.038468
0.598932 0.50869 0.0364843
0.637049 0.511894 0.0282139
0.673594 0.514366 0.0138705
0.699992 0.515831 0.0031281
0.725002 0.517357 9.15541e-05
0.749996 0.51986 0
0.77499 0.522484 0
0.8 0.525307 0
0.824994 0.528344 0
0.850004 0.531029 0
0.874998 0.533806 0
0.899992 0.536629 0
0.925002 0.539284 0
0.949996 0.541604 0
0.975006 0.543862 0
1 0.546105 0
0 0.528191 0
0.0249943 0.533211 0
0.0499886 0.53843 0
0.0749828 0.543511 0
0.0999924 0.548424 0
0.124987 0.552575 0
0.149996 0.555947 0
0.17499 0.558145 0
0.199985 0.559442 0
0.226322 0.560281 0
0.271885 0.558221 0
0.34197 0.551003 0.00564584
0.402823 0.546136 0.0189364
0.451377 0.544625 0.0310826
0.49305 0.545419 0.0403449
0.531411 0.547356 0.0467536
0.567651 0.549874 0.0505379
0.602457 0.552682 0.0510262
0.636957 0.555657 0.0457771
0.672786 0.558648 0.03093
0.699992 0.560784 0.0141909
0.725002 0.562112 0.00381476
0.749996 0.563516 0.00015259
0.77499 0.56524 0
0.8 0.567269 0
0.824994 0.569543 0
0.850004 0.571862 0
0.874998 0.573892 0
0.899992 0.575967 0
0.925002 0.577935 0
0.949996 0.579675 0
0.975006 0.581247 0
1 0.582788 0
0 0.584802 0
0.0249943 0.589532 0
0.0499886 0.594339 0
0.0749828 0.599008 0
0.0999924 0.602853 0
0.124987 0.605982 0
0.149996 0.608621 0
0.17499 0.610452 0
0.199985 0.612024 0
0.224994 0.61294 0
0.261616 0.611811 0
0.333288 0.602853 0.00155642
0.407172 0.592859 0.0158846
0.460288 0.588586 0.0327153
0.502205 0.587808 0.0461738
0.539117 0.588663 0.0555581
0.573602 0.590295 0.061387
0.606592 0.592325 0.0638437
0.639109 0.594598 0.0611429
0.672572 0.597116 0.0495003
0.699992 0.599481 0.0307164
0.725002 0.601038 0.0145876
0.749996 0.60209 0.00440986
0.77499 0.603204 0.000564584
0.8 0.604654 0.000183108
0.824994 0.606394 0.000137331
0.850004 0.608209 0
0.874998 0.609949 1.5259e-05
0.899992 0.611551 7.62951e-05
0.925002 0.613062 0
0.949996 0.614389 0
0.975006 0.615656 0.000259403
1 0.616785 0.00236515
0 0.636744 0
0.0249943 0.640299 0
0.0499886 0.643778 0
0.0749828 0.647181 0
0.0999924 0.649638 0
0.124987 0.649424 0
0.149996 0.649271 0
0.17499 0.649317 0
0.199985 0.649729 0
0.224994 0.649989 0
0.258854 0.649989 0
0.318654 0.649989 0
0.403677 0.638804 0.00595102
0.467277 0.629816 0.028336
0.510262 0.626856 0.0484474
0.546105 0.626444 0.0620127
0.579141 0.627146 0.0700389
0.61091 0.628382 0.07364
0.642283 0.629953 0.072343
0.674037 0.63183 0.0636454
0.699992 0.633829 0.0466316
0.725002 0.635569 0.0276951
0.749996 0.636744 0.0141146
0.77499 0.637736 0.00607309
0.8 0.639017 0.00318914
0.824994 0.640452 0.00306706
0.850004 0.641947 0.00288396
0.874998 0.643427 0.00260929
0.899992 0.644862 0.00204471
0.925002 0.646143 0.00282292
0.949996 0.647166 0.00567636
0.975006 0.648127 0.00868238
1 0.649027 0.0118105
0 0.674907 0
0.0249943 0.674983 0
0.0499886 0.674998 0
0.0749828 0.674998 0
0.0999924 0.674998 0
0.124987 0.674998 0
0.149996 0.674998 0
0.17499 0.674998 0
0.199985 0.674998 0
0.225528 0.674998 0
0.26302 0.674998 0
0.3122 0.674998 0
0.391424 0.674571 0.00030518
0.468071 0.670024 0.0131075
0.516503 0.663661 0.0407568
0.552071 0.661509 0.0628367
0.584176 0.661265 0.0744182
0.615152 0.66186 0.0791791
0.645975 0.662928 0.0783398
0.674861 0.664317 0.0711528
0.699992 0.665995 0.0562905
0.725002 0.667689 0.038056
0.749996 0.668986 0.0231479
0.77499 0.67013 0.0150912
0.8 0.671412 0.0132601
0.824994 0.67274 0.0128176
0.850004 0.674006 0.0123903
0.874998 0.674525 0.0121614
0.899992 0.674846 0.0118105
0.925002 0.674998 0.0120089
0.949996 0.674998 0.0157778
0.975006 0.674998 0.0195773
1 0.674998 0.0237125
0 0.699992 0
0.0249943 0.699992 0
0.0499886 0.699992 0
0.0749828 0.699992 0
0.0999924 0.699992 0
0.124987 0.699992 0
0.149996 0.699992 0
0.17499 0.699992 0
0.199985 0.699992 0
0.226139 0.699992 0
0.265797 0.699992 0
0.313817 0.699992 0
0.384894 0.699992 0
0.463798 0.699992 0.00189212
0.519509 0.6981 0.0212863
0.556909 0.695659 0.0514687
0.588724 0.694148 0.0709544
0.619333 0.694072 0.0786755
0.649134 0.694713 0.0782483
0.674998 0.695781 0.0713817
0.699992 0.69723 0.057908
0.725002 0.698589 0.0420996
0.749996 0.699351 0.0303197
0.77499 0.69984 0.0255894
0.8 0.699992 0.0250706
0.824994 0.699992 0.0247807
0.850004 0.699992 0.024445
0.874998 0.699992 0.0240024
0.899992 0.699992 0.02327
0.925002 0.699992 0.0225376
0.949996 0.699992 0.0279698
0.975006 0.699992 0.0337377
1 0.699992 0.0395514
0 0.725002 0
0.0249943 0.725002 0
0.0499886 0.725002 0
0.0749828 0.725002 0
0.0999924 0.725002 0
0.124987 0.725002 0
0.149996 0.725002 0
0.17499 0.725002 0
0.199985 0.725002 0
0.227665 0.725002 0
0.267994 0.725002 0
0.316823 0.725002 0
0.386801 0.725002 0
0.460243 0.725002 0
0.520684 0.725002 0.0037995
0.56054 0.725002 0.0304875
0.592859 0.725002 0.057557
0.62327 0.72491 0.070634
0.649989 0.724849 0.0720989
0.674998 0.72491 0.0654765
0.699992 0.724987 0.0541238
0.725002 0.725002 0.0420386
0.749996 0.725002 0.037583
0.77499 0.725002 0.0370336
0.8 0.725002 0.037232
0.824994 0.725002 0.038056
0.850004 0.725002 0.0394141
0.874998 0.725002 0.0408637
0.899992 0.725002 0.0424964
0.925002 0.725002 0.0453193
0.949996 0.725002 0.0521401
0.975006 0.725002 0.0589761
1 0.725002 0.0653391
0 0.749996 0
0.0249943 0.749996 0
0.0499886 0.749996 0
0.0749828 0.749996 0
0.0999924 0.749996 0
0.124987 0.749996 0
0.149996 0.749996 0
0.17499 0.749996 0
0.200061 0.749996 0
0.232212 0.749996 0
0.272068 0.749996 0
0.320943 0.749996 0
0.391516 0.749996 0
0.462943 0.749996 0
0.520195 0.749996 0.000900282
0.562402 0.749996 0.0144808
0.595972 0.749996 0.0406195
0.624887 0.749996 0.0575875
0.649989 0.749996 0.063035
0.674998 0.749996 0.0593576
0.699992 0.749996 0.052781
0.725002 0.749996 0.0517281
0.749996 0.749996 0.0535134
0.77499 0.749996 0.0559701
0.8 0.749996 0.0594034
0.824994 0.749996 0.0630961
0.850004 0.749996 0.0671397
0.874998 0.749996 0.0709087
0.899992 0.749996 0.0743725
0.925002 0.749996 0.077409
0.949996 0.749996 0.0823072
0.975006 0.749996 0.0872358
1 0.749996 0.0917067
0 0.77499 0
0.0249943 0.77499 0
0.0499886 0.77499 0
0.0749828 0.77499 0
0.0999924 0.77499 0
0.124987 0.77499 0
0.149996 0.77499 0
0.17499 0.77499 0
0.200305 0.77499 0
0.236988 0.77499 0
0.27686 0.77499 0
0.3308 0.77499 0
0.402228 0.77499 0
0.472663 0.77499 0
0.525292 0.77499 0
0.565728 0.77499 0.0129091
0.598856 0.77499 0.0406958
0.624994 0.77499 0.0618601
0.649989 0.77499 0.0700236
0.674998 0.77499 0.0707103
0.699992 0.77499 0.0728771
0.725002 0.77499 0.0771038
0.749996 0.77499 0.0809339
0.77499 0.77499 0.0843824
0.8 0.77499 0.0877852
0.824994 0.77499 0.0908522
0.850004 0.77499 0.0942245
0.874998 0.77499 0.0973526
0.899992 0.77499 0.100328
0.925002 0.77499 0.102724
0.949996 0.77499 0.105943
0.975006 0.77499 0.108949
1 0.77499 0.111727
0 0.8 0
0.0249943 0.8 0
0.0499886 0.8 0
0.0749828 0.8 0
0.0999924 0.8 0
0.124987 0.8 0
0.149996 0.8 0
0.175067 0.8 0
0.205539 0.8 0
0.241886 0.8 0
0.283375 0.8 0
0.340642 0.8 0
0.413504 0.8 0
0.481102 0.8 0
0.531273 0.8 0.000885023
0.570077 0.8 0.018677
0.599893 0.8 0.052903
0.624994 0.8 0.0762951
0.649989 0.8 0.0858778
0.674998 0.8 0.0911116
0.699992 0.8 0.0970932
0.725002 0.8 0.101472
0.749996 0.8 0.104601
0.77499 0.8 0.107286
0.8 0.8 0.109941
0.824994 0.8 0.112261
0.850004 0.8 0.114656
0.874998 0.8 0.116915
0.899992 0.8 0.118822
0.925002 0.8 0.120714
0.949996 0.8 0.122972
0.975006 0.8 0.124941
1 0.8 0.126635
0 0.824994 0
0.0249943 0.824994 0
0.0499886 0.824994 0
0.0749828 0.824994 0
0.0999924 0.824994 0
0.124987 0.824994 0
0.150042 0.824994 0
0.176257 0.824994 0
0.210513 0.824994 0
0.246815 0.824994 0
0.289189 0.824994 0
0.35169 0.824994 0
0.423941 0.824994 0
0.489555 0.824994 0
0.535897 0.824994 0.00163272
0.572854 0.824994 0.0263066
0.6 0.824994 0.064683
0.624994 0.824994 0.0884718
0.649989 0.824994 0.100999
0.674998 0.824994 0.110414
0.699992 0.824994 0.116411
0.725002 0.824994 0.119905
0.749996 0.824994 0.122362
0.77499 0.824994 0.124224
0.8 0.824994 0.12604
0.824994 0.824994 0.127687
0.850004 0.824994 0.129091
0.874998 0.824994 0.130617
0.899992 0.824994 0.131762
0.925002 0.824994 0.132555
0.949996 0.824994 0.133837
0.975006 0.824994 0.134844
1 0.824994 0.135775
0 0.850004 0
0.0249943 0.850004 0
0.0499886 0.850004 0
0.0749828 0.850004 0
0.0999924 0.850004 6.10361e-05
0.124987 0.850004 1.5259e-05
0.150439 0.850004 0
0.181186 0.850004 0
0.21503 0.850004 0
0.25127 0.850004 0
0.29752 0.850004 0
0.361593 0.850004 0
0.433845 0.850004 0
0.494987 0.850004 0
0.5402 0.850004 0.000701915
0.574258 0.850004 0.0336767
0.6 0.850004 0.0738231
0.624994 0.850004 0.0985122
0.649989 0.850004 0.114473
0.674998 0.850004 0.124956
0.699992 0.850004 0.130617
0.725002 0.850004 0.133333
0.749996 0.850004 0.13492
0.77499 0.850004 0.136217
0.8 0.850004 0.137362
0.824994 0.850004 0.138521
0.850004 0.850004 0.139361
0.874998 0.850004 0.140139
0.899992 0.850004 0.140658
0.925002 0.850004 0.141176
0.949996 0.850004 0.141817
0.975006 0.850004 0.142306
1 0.850004 0.142794
0 0.874998 0
0.0249943 0.874998 0.000289921
0.0499886 0.874998 0.000610361
0.0749828 0.874998 0.000549325
0.0999924 0.874998 0.000183108
0.125368 0.874998 0
0.153048 0.874998 0
0.18529 0.874998 1.5259e-05
0.218982 0.874998 4.57771e-05
