datas/cubes/TC - DARE_20.cube
TITLE "Generate by Resolve"
LUT_3D_SIZE 5
0 0 0
0.20383 0 0
0.531014 0 0
0.8 0 0
1 0 0
0 0.21149 0
0.205905 0.211185 0
0.557397 0.199985 0
0.8 0.199985 0
1 0.210712 0
0 0.528191 0
0.199985 0.559442 0
0.567651 0.549874 0.0505379
0.8 0.567269 0
1 0.582788 0
0 0.8 0
0.205539 0.8 0
0.599893 0.8 0.052903
0.8 0.8 0.109941
1 0.8 0.126635
0 1 0.00935378
0.232136 1 0.00276188
0.6 1 0.109117
0.8 1 0.154665
1 1 0.155596
0 0 0.214771
0.202228 0 0.219287
0.520409 0 0.199985
0.8 0 0.199985
1 0 0.199985
0 0.213382 0.213489
0.20325 0.214618 0.216083
0.549264 0.199985 0.199985
0.8 0.200015 0.200626
1 0.221134 0.226123
0 0.538338 0.2009
0.20412 0.565393 0.217655
0.572992 0.558923 0.284566
0.8 0.572976 0.216312
1 0.585199 0.245472
0 0.8 0.216114
0.209934 0.8 0.222324
0.599268 0.8 0.328145
0.8 0.8 0.360754
1 0.8 0.363104
0 1 0.243748
0.240208 1 0.248417
0.6 1 0.348318
0.8 1 0.372412
1 1 0.372839
0 0 0.525429
0.199985 0 0.56875
0.508064 0 0.512306
0.8 0 0.53962
1 0 0.549325
0 0.214496 0.503044
0.199985 0.21384 0.535683
0.547189 0.199985 0.544396
0.8 0.199985 0.588067
1 0.221576 0.6
0 0.558083 0.51075
0.202167 0.58088 0.542016
0.573571 0.556329 0.568185
0.8 0.566262 0.572961
1 0.575753 0.582147
0 0.8 0.541497
0.21178 0.8 0.573938
0.580591 0.8 0.574914
0.8 0.8 0.592172
1 0.8 0.590097
0 1 0.582605
0.252796 1 0.595361
0.586511 1 0.578271
0.8 1 0.6
1 1 0.6
0 0 0.8
0.199985 0 0.8
0.523247 0 0.8
0.8 0 0.8
1 0 0.8
0 0.217624 0.8
0.199985 0.21944 0.8
0.563806 0.199985 0.8
0.8 0.201999 0.8
1 0.226749 0.8
0 0.5841 0.799481
0.199985 0.598779 0.8
0.547723 0.571023 0.8
0.8 0.568109 0.8
1 0.576242 0.8
0 0.8 0.8
0.199985 0.8 0.8
0.580804 0.8 0.8
0.8 0.799603 0.8
1 0.799603 0.8
0 1 0.8
0.213123 1 0.8
0.584985 1 0.8
0.8 0.999619 0.8
1 0.999619 0.8
0 0 1
0.199985 0 1
0.506447 0 1
0.8 0 1
1 0 1
0 0.225086 1
0.199985 0.227619 1
0.565011 0.199985 1
0.8 0.209766 1
1 0.235966 1
0 0.597009 1
0.199985 0.6 1
0.550057 0.578378 1
0.8 0.57145 1
1 0.578103 1
0 0.8 1
0.201419 0.8 1
0.58024 0.8 1
0.8 0.799603 1
1 0.799603 1
0 1 1
0.213169 1 1
0.584451 1 1
0.8 0.999619 1
1 0.999619 1
