datas/cubes/TC - CLARITY_20.cube
TITLE "Generate by Resolve"
LUT_3D_SIZE 33
0 0 0
0.0259098 0 0
0.0518196 0 0
0.0777905 1.5259e-05 1.5259e-05
0.103792 0 1.5259e-05
0.129854 0 0
0.156054 0 0
0.182422 0 0
0.212055 0 3.0518e-05
0.247059 0 0.00109865
0.283314 0 0.00265507
0.319066 0.000274662 0.00462348
0.354803 0.00135805 0.00677501
0.39147 0.00218204 0.00865187
0.428595 0.00247196 0.0101625
0.469322 0.00161746 0.0110781
0.521141 3.0518e-05 0.0104829
0.579767 0 0.00881971
0.634974 0 0.00756847
0.674052 0 0.00784314
0.699992 0 0.00825513
0.725002 0 0.00820935
0.749996 0 0.00816358
0.77499 0 0.0081178
0.8 0 0.00808728
0.824994 0 0.00805676
0.850004 0 0.00802625
0.874998 0 0.00799573
0.899992 0 0.00798047
0.925002 0 0.00794995
0.949996 0 0.00793469
0.975006 0 0.00790417
1 0 0.00787366
0 0.0258488 0
0.0258793 0.0258183 0
0.0517281 0.0258183 0
0.0776837 0.025803 0
0.103685 0.0257725 0
0.129763 0.0257267 0
0.155962 0.0256504 0
0.182361 0.0255283 0
0.21178 0.0253452 3.0518e-05
0.246967 0.0251164 0.00106813
0.283406 0.0249943 0.00267033
0.319188 0.0252842 0.004654
0.354955 0.0263676 0.00679026
0.391653 0.0271763 0.00866712
0.42887 0.027451 0.010193
0.469886 0.0265507 0.0110781
0.522057 0.0250095 0.0104372
0.580896 0.0249943 0.00877394
0.636149 0.0249943 0.00753796
0.674372 0.0249943 0.00790417
0.699992 0.0249943 0.00825513
0.725002 0.0249943 0.00820935
0.749996 0.0249943 0.00816358
0.77499 0.0249943 0.0081178
0.8 0.0249943 0.00808728
0.824994 0.0249943 0.0080415
0.850004 0.0249943 0.00802625
0.874998 0.0249943 0.00799573
0.899992 0.0249943 0.00796521
0.925002 0.0249943 0.00794995
0.949996 0.0249943 0.00791943
0.975006 0.0249943 0.00788891
1 0.0249943 0.00787366
3.0518e-05 0.0516823 1.5259e-05
0.0258335 0.0516365 0
0.0516365 0.051606 0
0.0775921 0.0515755 0
0.103593 0.0515297 0
0.129671 0.0514534 0
0.155886 0.0513619 0
0.182345 0.0512398 0
0.211383 0.0509804 1.5259e-05
0.24683 0.0506142 0.000991836
0.283467 0.0504311 0.00265507
0.319493 0.0505989 0.00471504
0.355337 0.0514076 0.00686656
0.392157 0.0522011 0.00874342
0.429465 0.0524605 0.0102693
0.471122 0.0514076 0.0110781
0.523919 0.0500038 0.0103609
0.583154 0.0499886 0.00866712
0.638361 0.0499886 0.00746166
0.674891 0.0499886 0.00799573
0.699992 0.0499886 0.00823987
0.725002 0.0499886 0.00819409
0.749996 0.0499886 0.00814832
0.77499 0.0499886 0.00810254
0.8 0.0499886 0.00807202
0.824994 0.0499886 0.0080415
0.850004 0.0499886 0.00801099
0.874998 0.0499886 0.00798047
0.899992 0.0499886 0.00794995
0.925002 0.0499886 0.00793469
0.949996 0.0499886 0.00790417
0.975006 0.0499886 0.00787366
1 0.0499886 0.00784314
4.57771e-05 0.0775464 1.5259e-05
0.0257877 0.0775006 0
0.0515297 0.0774853 0
0.0774853 0.0774395 0
0.103487 0.0773938 0
0.12958 0.0773327 0
0.155825 0.0772259 0
0.182361 0.0770733 0
0.211185 0.0767681 0
0.24683 0.0762036 0.000915541
0.283665 0.0759747 0.00267033
0.31989 0.0763561 0.00480659
0.355856 0.0771649 0.00703441
0.392859 0.0776226 0.00891127
0.43032 0.0775616 0.0103914
0.472999 0.0761883 0.0110781
0.526696 0.0749981 0.0102541
0.586282 0.0749828 0.00852979
0.64152 0.0749828 0.00735485
0.674998 0.0749828 0.0080415
0.699992 0.0749828 0.00823987
0.725002 0.0749828 0.00817884
0.749996 0.0749828 0.00813306
0.77499 0.0749828 0.00810254
0.8 0.0749828 0.00805676
0.824994 0.0749828 0.00802625
0.850004 0.0749828 0.00799573
0.874998 0.0749828 0.00796521
0.899992 0.0749828 0.00793469
0.925002 0.0749828 0.00791943
0.949996 0.0749828 0.00788891
0.975006 0.0749828 0.0078584
1 0.0749828 0.00782788
3.0518e-05 0.103441 0
0.0256962 0.103395 0
0.0513924 0.103365 0
0.0773632 0.103349 0
0.10338 0.103319 0
0.129488 0.103258 0
0.155734 0.103166 0
0.182376 0.103014 0
0.211109 0.102724 0
0.24686 0.102159 0.000839246
0.283894 0.101884 0.00267033
0.320363 0.102235 0.00489815
0.356527 0.103044 0.00724804
0.393606 0.103517 0.00917067
0.431266 0.103487 0.0106661
0.474479 0.101793 0.0112459
0.529427 0.0999924 0.010193
0.590127 0.0999924 0.00836194
0.645563 0.0999924 0.00721752
0.674998 0.0999924 0.00810254
0.699992 0.0999924 0.00822461
0.725002 0.0999924 0.00817884
0.749996 0.0999924 0.00813306
0.77499 0.0999924 0.00808728
0.8 0.0999924 0.0080415
0.824994 0.0999924 0.00801099
0.850004 0.0999924 0.00798047
0.874998 0.0999924 0.00794995
0.899992 0.0999924 0.00790417
0.925002 0.0999924 0.0078584
0.949996 0.0999924 0.00779736
0.975006 0.0999924 0.00775158
1 0.0999924 0.00769055
0 0.129366 0
0.0256046 0.129335 0
0.0512245 0.129335 0
0.0772106 0.12932 0
0.103227 0.129305 0
0.129366 0.129259 0
0.155627 0.129183 0
0.18233 0.129046 0
0.211154 0.128756 1.5259e-05
0.24683 0.128206 0.000747692
0.284138 0.127916 0.00265507
0.320897 0.128237 0.00500496
0.357214 0.129061 0.0074464
0.3944 0.129564 0.00946059
0.43238 0.129503 0.010956
0.475776 0.127886 0.0115206
0.53135 0.124987 0.0102693
0.592004 0.124987 0.00830091
0.644816 0.124987 0.00737011
0.674998 0.124987 0.0080415
0.699992 0.124987 0.00813306
0.725002 0.124987 0.00808728
0.749996 0.124987 0.0080415
0.77499 0.124987 0.00799573
0.8 0.124987 0.00793469
0.824994 0.124987 0.00788891
0.850004 0.124987 0.00784314
0.874998 0.124987 0.0077821
0.899992 0.124987 0.00773632
0.925002 0.124987 0.00769055
0.949996 0.124987 0.00762951
0.975006 0.124987 0.00758373
1 0.124987 0.0075227
0 0.155367 0
0.0254673 0.155367 0
0.0510262 0.155383 0
0.0769818 0.155383 0
0.103029 0.155383 0
0.129183 0.155352 0
0.155474 0.155306 0
0.182223 0.155184 0
0.211185 0.154925 1.5259e-05
0.246586 0.154391 0.00062562
0.284245 0.15407 0.00260929
0.32137 0.154376 0.00509651
0.357931 0.155215 0.00769055
0.395239 0.155764 0.00978103
0.433402 0.155673 0.0112917
0.476738 0.154162 0.0118715
0.533165 0.150591 0.0103609
0.593957 0.149996 0.00822461
0.645029 0.149996 0.00740063
0.674998 0.149996 0.00799573
0.699992 0.149996 0.00798047
0.725002 0.149996 0.00793469
0.749996 0.149996 0.00787366
0.77499 0.149996 0.00782788
0.8 0.149996 0.00776684
0.824994 0.149996 0.00772107
0.850004 0.149996 0.00767529
0.874998 0.149996 0.00761425
0.899992 0.149996 0.00756847
0.925002 0.149996 0.00750744
0.949996 0.149996 0.0074464
0.975006 0.149996 0.00740063
1 0.149996 0.00758373
0 0.181491 0
0.0252995 0.181521 0
0.0507973 0.181552 0
0.0766766 0.181582 0
0.102754 0.181613 0
0.128923 0.181613 0
0.155245 0.181582 0
0.181964 0.181506 0
0.210727 0.181277 1.5259e-05
0.246113 0.180758 0.000457771
0.284138 0.180423 0.00251774
0.321721 0.180682 0.00515755
0.358541 0.181552 0.00791943
0.395972 0.182147 0.010132
0.43418 0.182116 0.0116732
0.477729 0.180652 0.0122072
0.534554 0.176013 0.0105287
0.59527 0.17499 0.00823987
0.647196 0.17499 0.00726329
0.674998 0.17499 0.00784314
0.699992 0.17499 0.00781262
0.725002 0.17499 0.00775158
0.749996 0.17499 0.00770581
0.77499 0.17499 0.00764477
0.8 0.17499 0.00758373
0.824994 0.17499 0.00753796
0.850004 0.17499 0.00747692
0.874998 0.17499 0.00743114
0.899992 0.17499 0.00738537
0.925002 0.17499 0.00732433
0.949996 0.17499 0.00779736
0.975006 0.17499 0.00827039
1 0.17499 0.00877394
0 0.209842 0
0.0250858 0.210056 0
0.0504158 0.210239 0
0.076051 0.210422 0
0.102129 0.210513 0
0.128328 0.210529 0
0.154681 0.210407 0
0.181338 0.210101 0
0.209537 0.209537 0
0.245014 0.208545 0.000274662
0.283772 0.207599 0.00230411
0.321874 0.20737 0.00517281
0.358907 0.208087 0.00813306
0.396475 0.208728 0.0104677
0.434669 0.208804 0.0121004
0.47866 0.20737 0.0125734
0.535103 0.202625 0.0108034
0.596124 0.199985 0.00827039
0.649989 0.199985 0.00695811
0.674998 0.199985 0.00761425
0.699992 0.199985 0.00762951
0.725002 0.199985 0.00756847
0.749996 0.199985 0.00750744
0.77499 0.199985 0.00746166
0.8 0.199985 0.00740063
0.824994 0.199985 0.00735485
0.850004 0.199985 0.00730907
0.874998 0.199985 0.00729381
0.899992 0.199985 0.00781262
0.925002 0.199985 0.00839246
0.949996 0.199985 0.00895705
0.975006 0.199985 0.00953689
1 0.200931 0.00994888
0 0.240772 0
0.0249943 0.24126 0
0.0501259 0.241688 0
0.0753338 0.242069 0
0.101411 0.242359 0
0.127611 0.242527 0
0.153948 0.242496 0
0.180529 0.242222 0
0.20766 0.241627 0
0.242451 0.240467 7.62951e-05
0.282277 0.238819 0.00140383
0.322057 0.237278 0.00486763
0.359686 0.236896 0.0084535
0.397375 0.236942 0.0110781
0.435523 0.236698 0.0128176
0.479393 0.23505 0.0132296
0.535317 0.230335 0.0112917
0.596658 0.225589 0.00840772
0.648295 0.224994 0.00703441
0.674998 0.224994 0.00749218
0.699992 0.224994 0.00750744
0.725002 0.224994 0.00747692
0.749996 0.224994 0.00746166
0.77499 0.224994 0.0074464
0.8 0.224994 0.0074464
0.824994 0.224994 0.00746166
0.850004 0.225879 0.00766003
0.874998 0.227024 0.00796521
0.899992 0.228214 0.00828565
0.925002 0.229664 0.00859083
0.949996 0.232105 0.00888075
0.975006 0.234668 0.00915541
1 0.237156 0.00946059
0 0.273899 0
0.0249943 0.274601 0
0.0500496 0.275303 0
0.0753033 0.275868 0
0.101106 0.276371 0
0.127275 0.276738 0
0.153582 0.276967 0
0.180087 0.276951 0
0.206867 0.276677 0
0.239841 0.275898 0.000122072
0.278233 0.27483 0.00151064
0.320333 0.272877 0.00358587
0.3608 0.27158 0.00860609
0.399252 0.27097 0.0123293
0.437278 0.27039 0.0145113
0.4795 0.268849 0.0152285
0.532555 0.264652 0.013138
0.593408 0.258259 0.00933852
0.645701 0.254414 0.00704967
0.674998 0.253529 0.00704967
0.699992 0.253712 0.00695811
0.725002 0.254063 0.00683604
0.749996 0.254597 0.00669871
0.77499 0.255909 0.00653086
0.8 0.257923 0.00630198
0.824994 0.260151 0.00650034
0.850004 0.262501 0.00674449
0.874998 0.265019 0.00703441
0.899992 0.267826 0.00726329
0.925002 0.270771 0.00749218
0.949996 0.273442 0.00775158
0.975006 0.275944 0.00799573
1 0.278508 0.00816358
0.000228885 0.307942 0.000427253
0.0252842 0.308812 0.000564584
0.05037 0.309819 0.000717174
0.0759594 0.310674 0.00077821
0.101915 0.311467 0.00077821
0.128069 0.312154 0.000686656
0.154421 0.312703 0.000717174
0.180941 0.313069 0.000717174
0.207614 0.3131 0.00062562
0.237919 0.312825 0.000518807
0.276356 0.312093 0.00344854
0.315526 0.311543 0.00483711
0.358602 0.310079 0.00843824
0.399863 0.30901 0.0133516
0.438834 0.308537 0.0165255
0.479484 0.307774 0.0180819
0.527733 0.305364 0.016495
0.585122 0.300618 0.0115663
0.642496 0.29575 0.00720226
0.674998 0.293584 0.00537118
0.699992 0.293904 0.00514229
0.725002 0.294759 0.00500496
0.749996 0.296193 0.00485237
0.77499 0.297978 0.00466926
0.8 0.300008 0.00466926
0.824994 0.302342 0.00485237
0.850004 0.304784 0.00502022
0.874998 0.307408 0.00520333
0.899992 0.310124 0.00535592
0.925002 0.313176 0.00540169
0.949996 0.31606 0.00543221
0.975006 0.318914 0.00544747
1 0.321767 0.00547799
0.00210575 0.342962 0.00270085
0.0274357 0.344106 0.00306706
0.0528115 0.345388 0.00344854
0.0784314 0.34667 0.00384527
0.104723 0.347875 0.00416571
0.131075 0.348943 0.00444038
0.157488 0.349874 0.004654
0.183978 0.350576 0.00476081
0.210544 0.350958 0.00469978
0.238911 0.351064 0.00442512
0.276143 0.35111 0.00579843
0.314702 0.350927 0.009308
0.355047 0.350805 0.0112917
0.397421 0.350042 0.0150149
0.438544 0.34934 0.0187533
0.478996 0.348745 0.0211032
0.523445 0.347585 0.020798
0.57557 0.344701 0.0159609
0.632761 0.34052 0.00924697
0.674998 0.338109 0.00561532
0.699992 0.337789 0.00433356
0.725002 0.338491 0.00343328
0.749996 0.339742 0.00276188
0.77499 0.341634 0.00239567
0.8 0.343709 0.00202945
0.824994 0.346044 0.00198367
0.850004 0.348623 0.00204471
0.874998 0.351736 0.00215152
0.899992 0.355032 0.00187686
0.925002 0.358511 0.00154116
0.949996 0.361807 0.0015259
0.975006 0.365301 0.00213626
1 0.368795 0.0027924
0.00614939 0.379599 0.00683604
0.031693 0.38117 0.00741588
0.0573281 0.38294 0.00805676
0.0829633 0.384756 0.0087129
0.109331 0.386343 0.00923171
0.135775 0.387747 0.00968948
0.162264 0.388998 0.010071
0.1888 0.390005 0.0103456
0.215427 0.390677 0.0104982
0.243351 0.391089 0.0105287
0.278676 0.39173 0.011368
0.316823 0.392035 0.0149538
0.35584 0.39266 0.0178531
0.396201 0.393118 0.0203708
0.436912 0.393118 0.0229953
0.477363 0.392676 0.0249638
0.519799 0.392004 0.0255894
0.566537 0.390509 0.0219272
0.619913 0.387488 0.0135805
0.667094 0.385046 0.00723278
0.698482 0.38471 0.005066
0.724926 0.385229 0.00378424
0.749996 0.386328 0.00263981
0.77499 0.388022 0.00163272
0.8 0.390265 0.0009308
0.824994 0.39292 0.000854505
0.850004 0.395895 0.00102235
0.874998 0.399191 0.000885023
0.899992 0.402625 0.000656138
0.925002 0.406241 0.000976577
0.949996 0.409674 0.00190738
0.975006 0.413001 0.00291447
1 0.41619 0.00421149
0.0107881 0.418189 0.0115816
0.0363775 0.420157 0.0122072
0.0620279 0.422248 0.0128634
0.0876631 0.424414 0.0135195
0.113924 0.426261 0.0140536
0.140414 0.427924 0.0145724
0.166964 0.429374 0.0150607
0.193606 0.430518 0.0154879
0.22034 0.431312 0.0158236
0.248051 0.431708 0.0160678
0.282841 0.432517 0.0173495
0.321187 0.433265 0.0211032
0.359762 0.434058 0.025391
0.398672 0.435004 0.0277714
0.437507 0.435798 0.0294499
0.476387 0.436103 0.0304417
0.516838 0.435874 0.0306859
0.559899 0.435233 0.0279545
0.608087 0.433631 0.0195163
0.655985 0.431601 0.0102541
0.689097 0.431144 0.00701915
0.717891 0.431693 0.00541695
0.745739 0.432959 0.00408942
0.772198 0.434836 0.00299077
0.798932 0.437186 0.00225834
0.824247 0.439841 0.00222782
0.848814 0.442664 0.00251774
0.874144 0.445762 0.00285344
0.899809 0.448997 0.00317388
0.924483 0.452201 0.00384527
0.948257 0.454994 0.00553903
0.971923 0.45774 0.00723278
0.995453 0.460487 0.00894179
0.0149233 0.457954 0.0158541
0.0403754 0.460121 0.0163272
0.0658274 0.462333 0.0167849
0.0912795 0.464637 0.0172732
0.11754 0.466575 0.0178073
0.143938 0.468269 0.0182193
0.170367 0.469703 0.018555
0.196963 0.470756 0.0189212
0.223743 0.471473 0.0193179
0.250828 0.471763 0.0196994
0.286442 0.472572 0.021622
0.325124 0.473243 0.0255283
0.364172 0.473823 0.0311437
0.402655 0.474708 0.0344854
0.440238 0.475654 0.0360113
0.477394 0.47628 0.0365911
0.515602 0.476692 0.0364385
0.555962 0.476844 0.0341802
0.599664 0.476555 0.0267948
0.644831 0.475776 0.0162051
0.679057 0.475731 0.0112612
0.70779 0.476493 0.00924697
0.7355 0.477729 0.00790417
0.762539 0.479469 0.00686656
0.788937 0.481636 0.0065156
0.814786 0.484077 0.00674449
0.840391 0.486656 0.00717174
0.86595 0.489235 0.00793469
0.891386 0.491844 0.0087892
0.916411 0.494514 0.00985733
0.939879 0.497002 0.0118257
0.963745 0.499474 0.0137484
0.987625 0.501945 0.0157168
0.0171359 0.498085 0.0181888
0.0422065 0.500359 0.0183108
0.0671092 0.50277 0.0182498
0.0915999 0.505348 0.0177615
0.117327 0.507393 0.017731
0.143633 0.509071 0.0179751
0.170153 0.51043 0.0183413
0.19649 0.511711 0.0183719
0.223346 0.512383 0.0187533
0.25069 0.512322 0.0194553
0.287373 0.512139 0.0229038
0.327352 0.512047 0.027863
0.367208 0.512169 0.034226
0.406043 0.512673 0.0392462
0.443366 0.513527 0.0416114
0.479744 0.514473 0.0424506
0.516487 0.515282 0.0423285
0.554711 0.516014 0.0403601
0.594766 0.51667 0.0343023
0.6365 0.517006 0.024033
0.671427 0.517418 0.0174868
0.699825 0.518303 0.0154269
0.727184 0.519661 0.0140993
0.754131 0.521447 0.0131228
0.780789 0.523552 0.0128786
0.807034 0.525872 0.0132448
0.833051 0.528389 0.0138247
0.858885 0.530968 0.0145418
0.884901 0.533516 0.0152743
0.910674 0.53608 0.0162051
0.934951 0.538399 0.0180667
0.959274 0.540627 0.0198672
0.98378 0.542733 0.0215915
0.0136873 0.540383 0.0149996
0.0371252 0.543603 0.0135042
0.0605325 0.546883 0.0119783
0.0839246 0.550134 0.0104219
0.108675 0.552758 0.00926223
0.134279 0.554818 0.00866712
0.160449 0.556451 0.00846876
0.187396 0.557321 0.00891127
0.215122 0.557473 0.00996414
0.243824 0.556802 0.0115969
0.282933 0.554955 0.0178073
0.327184 0.553017 0.0267338
0.369543 0.551949 0.0356451
0.409705 0.551736 0.0428321
0.447364 0.552331 0.0467231
0.483436 0.553185 0.0481575
0.519295 0.554131 0.0481117
0.555947 0.55523 0.0462348
0.593301 0.55639 0.0411383
0.6318 0.557519 0.0319677
0.666667 0.558526 0.0243534
0.695628 0.559594 0.0215763
0.723018 0.56112 0.0202182
0.750103 0.562936 0.0191501
0.776806 0.564996 0.0187991
0.803342 0.567178 0.0189975
0.829816 0.569406 0.0193484
0.856168 0.571633 0.0198062
0.882429 0.573907 0.0203403
0.908568 0.576135 0.0209659
0.933379 0.578027 0.022446
0.958221 0.579843 0.0238651
0.983063 0.581598 0.0252537
0.000671397 0.587854 0.00222782
0.0249943 0.591394 0.00128176
0.0499886 0.59501 0.000885023
0.0749828 0.59852 0.000503548
0.100175 0.600931 0.000244144
0.124987 0.60267 0
0.150179 0.603891 0
0.176135 0.604654 0
0.20238 0.604746 0.00030518
0.229709 0.603983 0.000961318
0.271427 0.601053 0.00480659
0.321218 0.597009 0.0171359
0.369009 0.593668 0.0315404
0.412604 0.591852 0.0433509
0.451484 0.591577 0.0500038
0.487587 0.592142 0.0526436
0.522942 0.593072 0.0528115
0.558541 0.594263 0.0508431
0.594186 0.595605 0.0462196
0.630152 0.597101 0.0383307
0.665415 0.598688 0.0294194
0.694652 0.599832 0.0260471
0.722042 0.60119 0.0245212
0.749187 0.602853 0.0232547
0.776059 0.604654 0.0226596
0.802731 0.606577 0.0226749
0.829267 0.60856 0.0228428
0.855756 0.610513 0.0229801
0.882216 0.612406 0.0231479
0.908614 0.614282 0.0233463
0.933669 0.6159 0.0244755
0.958633 0.617441 0.0256199
0.983658 0.618875 0.0266117
0 0.63566 0
0.0249943 0.638926 0
0.0499886 0.642115 0
0.0749828 0.645014 0
0.0999924 0.647044 0
0.124987 0.648768 0
0.149996 0.650126 0
0.17499 0.650645 0
0.199985 0.650629 0
0.225193 0.649897 0
0.260533 0.646906 0
0.311299 0.642206 0.00401312
0.363561 0.636957 0.019379
0.412055 0.632853 0.0368963
0.453635 0.631052 0.0482185
0.4907 0.630793 0.0536507
0.525994 0.631357 0.0547951
0.561105 0.63238 0.0530556
0.595789 0.633707 0.0487984
0.630289 0.635279 0.0417792
0.664454 0.636957 0.0335393
0.695186 0.638376 0.0283665
0.722805 0.639673 0.0264286
0.749859 0.641169 0.0251164
0.776699 0.642771 0.0243839
0.803372 0.644404 0.0240787
0.829953 0.646097 0.0239261
0.856428 0.647776 0.0238499
0.882841 0.649409 0.0238346
0.909224 0.650996 0.0238193
0.934539 0.652369 0.0244297
0.959579 0.653635 0.0251621
0.984634 0.654826 0.0258946
0 0.679927 0
0.0249943 0.682292 0
0.0499886 0.684642 0
0.0749828 0.6869 0
0.0999924 0.688502 0
0.124987 0.689815 0
0.149996 0.690944 0
0.17499 0.691676 0
0.199985 0.69189 0
0.224994 0.691478 0
0.253117 0.690349 0
0.302693 0.685878 0
0.355764 0.680354 0.00375372
0.407721 0.674769 0.02327
0.45272 0.671092 0.0395361
0.491875 0.669413 0.0492714
0.527947 0.669245 0.0528115
0.563088 0.669932 0.0519875
0.597345 0.671031 0.0482338
0.630976 0.672419 0.0422065
0.664057 0.673991 0.0351873
0.695613 0.675593 0.0290684
0.723842 0.676799 0.0263371
0.751019 0.678111 0.0246586
0.777768 0.679454 0.0240482
0.804379 0.680888 0.0236362
0.830884 0.682368 0.0233463
0.857282 0.683787 0.0231327
0.883604 0.684977 0.022858
0.909895 0.686122 0.0225986
0.935347 0.687114 0.0229038
0.960372 0.687984 0.0234379
0.985412 0.688869 0.0239414
0 0.718944 0
0.0249943 0.721065 0
0.0499886 0.722423 0
0.0749828 0.723018 0
0.0999924 0.723674 0
0.124987 0.724483 0
0.149996 0.725002 0
0.17499 0.725002 0
0.199985 0.725002 0
0.224994 0.725002 0
0.254261 0.724453 0
0.299321 0.723247 0
0.350057 0.720211 9.15541e-05
0.401694 0.715114 0.00802625
0.448493 0.710719 0.0249638
0.489769 0.707988 0.0378729
0.527611 0.706813 0.04477
0.5635 0.706767 0.0462501
0.59791 0.707408 0.0439002
0.631357 0.708476 0.0393072
0.663951 0.709773 0.0335699
0.695415 0.711055 0.0281529
0.72462 0.7122 0.0246586
0.751904 0.713176 0.0233005
0.778653 0.714183 0.0225986
0.805173 0.71519 0.0221103
0.831525 0.715999 0.0217136
0.857801 0.71664 0.0213779
0.884016 0.717266 0.0211032
0.910185 0.717845 0.020798
0.935699 0.718364 0.0209354
0.960693 0.718807 0.0213321
0.985687 0.719234 0.0217441
0 0.749996 0
0.0249943 0.749996 0
0.0499886 0.749996 0
0.0749828 0.749996 0
0.0999924 0.749996 0
0.124987 0.749996 0
0.149996 0.749996 0
0.17499 0.749996 0
0.199985 0.749996 0
0.22504 0.749996 0
0.257389 0.749996 0
0.301305 0.749996 0
0.349386 0.74995 0
0.399542 0.748211 0.0030518
0.445823 0.744457 0.0163577
0.487648 0.741741 0.0294347
0.526284 0.740398 0.0372473
0.56286 0.740047 0.0401617
0.597543 0.740444 0.0390326
0.630991 0.741192 0.0356451
0.663371 0.742107 0.0311894
0.694804 0.743053 0.0267185
0.724407 0.743816 0.0235447
0.752209 0.744396 0.0218662
0.779034 0.744915 0.0209964
0.805447 0.745144 0.0204929
0.831724 0.745357 0.0200961
0.857908 0.745571 0.0197604
0.884047 0.745785 0.0194705
0.91017 0.745998 0.0191806
0.935668 0.746181 0.0192264
0.960647 0.746319 0.0195773
0.985626 0.746456 0.019913
0 0.77499 0
0.0249943 0.77499 0
0.0499886 0.77499 0
0.0749828 0.77499 0
0.0999924 0.77499 0
0.124987 0.77499 0
0.149996 0.77499 0
0.17499 0.77499 0
0.199985 0.77499 0
0.224994 0.77499 0
0.26096 0.77499 0
0.304509 0.77499 0
0.351476 0.77499 0
0.400671 0.77499 0.00140383
0.445823 0.772305 0.0150301
0.48716 0.769802 0.0272984
0.525795 0.768429 0.0352331
0.562234 0.768109 0.0381628
0.596933 0.768429 0.037644
0.630259 0.769116 0.0345464
0.662501 0.769879 0.0305943
0.693751 0.770626 0.0265202
0.724086 0.771282 0.0228275
0.752102 0.771618 0.0209659
0.779004 0.771847 0.0199893
0.805493 0.772045 0.0193179
0.831724 0.772213 0.0189059
0.857877 0.772396 0.0185397
0.883986 0.77258 0.0182193
0.910063 0.772747 0.0178683
0.935546 0.7729 0.0178683
0.96054 0.773007 0.018143
0.985519 0.773114 0.0184024
0 0.8 0
0.0249943 0.8 0
0.0499886 0.8 0
0.0749828 0.8 0
0.0999924 0.8 0
0.124987 0.8 0
0.149996 0.8 0
0.17499 0.8 0
0.199985 0.8 0
0.225788 0.8 0
0.264652 0.8 0
0.307759 0.8 0
0.354009 0.8 0
0.401831 0.8 0.00251774
0.446479 0.799146 0.0145113
0.487037 0.797162 0.0260929
0.525536 0.795697 0.033875
0.561913 0.795224 0.0370336
0.59649 0.795438 0.0366064
0.62974 0.796002 0.0339055
0.66183 0.796674 0.0302434
0.692927 0.797345 0.0263981
0.723262 0.797955 0.0227512
0.751736 0.798321 0.0204623
0.778958 0.798566 0.0191653
0.805554 0.798718 0.0184024
0.831754 0.798825 0.0179294
0.857877 0.798932 0.0175174
0.883955 0.799023 0.0171511
0.910002 0.79913 0.0167697
0.935424 0.799207 0.0167544
0.960403 0.799268 0.0169528
0.985397 0.799329 0.0171511
0 0.824994 0
0.0249943 0.824994 0
0.0499886 0.824994 0
0.0749828 0.824994 0
0.0999924 0.824994 0
0.124987 0.824994 0
0.149996 0.824994 0
0.17499 0.824994 0
0.199985 0.824994 0
0.228885 0.824994 0
0.268055 0.824994 0
0.310842 0.824994 0
0.356085 0.824994 0
0.403204 0.824994 0.0021973
0.446769 0.824903 0.0139773
0.48719 0.823911 0.0253758
0.525444 0.822721 0.0327764
0.561807 0.822126 0.0361486
0.596292 0.822248 0.0357977
0.629465 0.82269 0.0333867
0.661418 0.823301 0.0298466
0.692409 0.823896 0.0261387
0.722545 0.824399 0.0226902
0.751675 0.824689 0.019913
0.778943 0.82475 0.0185245
0.805539 0.824826 0.0177005
0.831815 0.824887 0.0171054
0.857908 0.824964 0.0166781
0.883955 0.824994 0.0162661
0.909972 0.824994 0.0158694
0.935302 0.824994 0.0158541
0.960296 0.824994 0.0160067
0.985275 0.824994 0.016144
0 0.850004 0
0.0249943 0.850004 0
0.0499886 0.850004 0
0.0749828 0.850004 0
0.0999924 0.850004 0
0.124987 0.850004 0
0.149996 0.850004 0
0.17499 0.850004 0
0.199985 0.850004 0
0.230823 0.850004 0
0.271183 0.850004 0
0.313573 0.850004 0
0.358175 0.850004 0
0.404273 0.850004 0.00234989
0.44715 0.850004 0.0135653
0.487205 0.849928 0.024445
0.52549 0.849317 0.0319982
0.5617 0.848875 0.0352026
0.596185 0.848875 0.0351263
0.629267 0.849226 0.0327916
0.661128 0.849515 0.0294347
0.692027 0.849714 0.025864
0.722148 0.849897 0.0224765
0.751247 0.850004 0.0197299
0.778836 0.850004 0.0180667
0.805508 0.850004 0.0171206
0.831891 0.850004 0.0164187
0.857939 0.850004 0.0159609
0.88397 0.850004 0.0155184
0.909972 0.850004 0.0150912
0.93518 0.850004 0.0150912
0.960174 0.850004 0.0151827
0.985168 0.850004 0.0152895
0 0.874998 0
0.0249943 0.874998 0
0.0499886 0.874998 0
0.0749828 0.874998 0
0.0999924 0.874998 0
0.124987 0.874998 0
0.149996 0.874998 0
0.17499 0.874998 0
0.201495 0.874998 0
