datas/cubes/TC - INTREPID_40.cube
TITLE "Generate by Resolve"
LUT_3D_SIZE 5
0.00732433 0.0174563 0.0281071
0.213245 0.00991836 0.0174716
0.65069 0 0
0.850004 0 0
1 0 0
0 0.201022 0.0122683
0.187579 0.200412 0.00703441
0.639429 0.150713 0
0.850004 0.149996 0
1 0.149996 0
0 0.527611 0
0.149996 0.568841 0
0.554757 0.562921 0
0.850004 0.555413 0
1 0.579782 0
0 0.850004 0
0.149996 0.850004 0
0.439933 0.850004 0
0.850004 0.850004 0
1 0.850004 0
0 1 0
0.149996 1 0
0.447044 1 0
0.850004 1 0
1 1 0
0.00712596 0.0132753 0.237995
0.204273 0.00790417 0.231891
0.628122 0 0.149996
0.850004 0 0.149996
1 0 0.149996
0 0.200671 0.197101
0.186892 0.199481 0.216785
0.619043 0.15523 0.156573
0.850004 0.149996 0.149996
1 0.149996 0.149996
0 0.540856 0.149996
0.149996 0.580346 0.151965
0.566796 0.574899 0.15407
0.850004 0.567102 0.149996
1 0.590509 0.149996
0 0.850004 0.149996
0.149996 0.850004 0.149996
0.446479 0.850004 0.149996
0.850004 0.850004 0.149996
1 0.850004 0.149996
0 1 0.149996
0.149996 1 0.149996
0.443809 1 0.149996
0.850004 1 0.149996
1 1 0.149996
0 0 0.699992
0.18233 0 0.699992
0.61239 0 0.611063
0.850004 0 0.582361
1 0 0.565057
0 0.171679 0.699992
0.172717 0.175723 0.679316
0.61294 0.149996 0.610513
0.850004 0.149996 0.637705
1 0.149996 0.659831
0 0.543755 0.502602
0.149996 0.582879 0.540749
0.566064 0.567376 0.58349
0.850004 0.568826 0.575341
1 0.586038 0.592386
0 0.850004 0.501762
0.149996 0.850004 0.541894
0.537896 0.850004 0.562387
0.848783 0.849134 0.497459
1 0.847623 0.481132
0 1 0.558618
0.149996 1 0.56669
0.522057 1 0.546746
0.844465 1 0.417929
1 1 0.353704
0 0 0.850004
0.167819 0 0.850004
0.624048 0 0.850004
0.850004 0 0.850004
1 0 0.850004
0 0.160403 0.850004
0.159899 0.163348 0.850004
0.653742 0.149996 0.850004
0.850004 0.149996 0.850004
1 0.149996 0.850004
0 0.547829 0.850004
0.149996 0.587366 0.850004
0.567437 0.566491 0.846296
0.850004 0.566247 0.850004
1 0.58143 0.850004
0 0.850004 0.850004
0.149996 0.850004 0.850004
0.503304 0.850004 0.850004
0.845548 0.837964 0.839658
1 0.833097 0.835081
0 1 0.850004
0.149996 1 0.850004
0.470802 1 0.850004
0.825879 1 0.820539
0.999344 1 0.812619
0 0 1
0.163989 0 1
0.616678 0 1
0.850004 0 1
1 0 1
0 0.159396 1
0.160845 0.164874 1
0.658457 0.149996 1
0.850004 0.149996 1
1 0.149996 1
0 0.555261 1
0.149996 0.59704 1
0.574273 0.57406 0.996033
0.850004 0.571771 1
1 0.58584 1
0 0.850004 1
0.149996 0.850004 1
0.497795 0.850004 1
0.84416 0.836515 1
1 0.830884 1
0 1 1
0.149996 1 1
0.443076 1 1
0.821378 1 0.998566
1 1 1
