datas/cubes/TC - EDITORIAL_60.cube
TITLE "Generate by Resolve"
LUT_3D_SIZE 5
0 0.00436408 0.0159915
0.160891 0.000289921 0.00267033
0.620523 0 0
0.871015 0 0
0.971023 0 0
0 0.1608 0
0.144762 0.159045 0.00125124
0.653864 0.102617 0
0.871229 0.0999924 0
0.97113 0.0999924 0
0 0.531319 0
0.0999924 0.582452 0
0.64654 0.523552 0.0252842
0.899992 0.531792 0.0418708
1 0.556558 0.0471656
0.0314183 0.899992 0.0298161
0.131411 0.899992 0.0298161
0.527749 0.899992 0.0110475
0.899992 0.877195 0.0524605
1 0.877089 0.0531167
0.0314183 1 0.0298161
0.131411 1 0.0298161
0.594125 1 0.00717174
0.899992 0.97731 0.0517433
1 0.977096 0.0531167
0 0 0.224247
0.15404 0 0.202289
0.617456 0 0.100267
0.871015 0 0.0999924
0.971023 0 0.0999924
0 0.161425 0.170993
0.137041 0.163455 0.179675
0.665354 0.104479 0.108064
0.871885 0.0999924 0.0999924
0.972 0.0999924 0.0999924
0 0.545998 0.0999924
0.0999924 0.599664 0.0999924
0.658854 0.537408 0.131868
0.899992 0.546197 0.145052
1 0.569635 0.14963
0.0314183 0.899992 0.129809
0.131411 0.899992 0.129809
0.546441 0.899992 0.109422
0.899992 0.877134 0.152834
1 0.877089 0.153109
0.0314183 1 0.129809
0.131411 1 0.129809
0.592935 1 0.107225
0.899992 0.97731 0.15169
1 0.977096 0.153109
0 0 0.765072
0.11429 0 0.747921
0.574075 0 0.606119
0.875868 0 0.476432
0.976043 0 0.461616
0 0.131426 0.731472
0.113039 0.137911 0.749401
0.645014 0.0999924 0.672145
0.874464 0.0999924 0.623407
0.97464 0.0999924 0.659998
0 0.550805 0.516274
0.0999924 0.603281 0.572641
0.588693 0.570901 0.605325
0.899992 0.555322 0.576089
1 0.577462 0.606119
0.0332494 0.899992 0.449607
0.131945 0.899992 0.50135
0.481682 0.899992 0.485176
0.899992 0.886778 0.513649
1 0.88484 0.454688
0.0279088 1 0.567147
0.126497 1 0.584604
0.496818 1 0.517632
0.899977 0.987198 0.499428
1 0.983795 0.401984
0 0 0.890211
0.0999924 0 0.890211
0.522744 0 0.874098
0.87715 0 0.878737
0.977142 0 0.878737
0 0.10454 0.890043
0.0999924 0.114656 0.890105
0.617121 0.0999924 0.870756
0.87715 0.0999924 0.878737
0.977142 0.0999924 0.878737
0 0.531975 0.861341
0.0999924 0.584985 0.855085
0.571969 0.553765 0.899992
0.899992 0.536782 0.899992
1 0.56025 0.899992
0.00627146 0.899992 0.86569
0.106264 0.899992 0.86569
0.434363 0.899992 0.88307
0.884962 0.899992 0.898207
1 0.899748 0.899992
0.00627146 1 0.86569
0.106264 1 0.86569
0.434882 1 0.883146
0.855863 1 0.894438
1 1 0.899992
0 0 0.990219
0.0999924 0 0.990219
0.51635 0 0.974517
0.87715 0 0.978744
0.977142 0 0.978744
0 0.106813 0.990051
0.0999924 0.1196 0.990173
0.632136 0.0999924 0.97084
0.87715 0.0999924 0.978744
0.977142 0.0999924 0.978744
0 0.544762 0.959426
0.0999924 0.602335 0.95375
0.585199 0.568002 1
0.899992 0.550912 1
1 0.571984 1
0.00627146 0.899992 0.965682
0.106264 0.899992 0.965682
0.44152 0.899992 0.983063
0.885786 0.899992 0.998322
1 0.899718 1
0.00627146 1 0.965682
0.106264 1 0.965682
0.431525 1 0.983169
0.85124 1 0.993851
1 1 1
