datas/cubes/TC - DARE_20.cube
TITLE "Generate by Resolve"
LUT_3D_SIZE 9
0 0 0
0.0999924 0 0
0.20383 0 0
0.336324 0 0
0.531014 0 0
0.699992 0 0
0.8 0 0
0.899992 0 0
1 0 0
0 0.0999924 0
0.0999924 0.0999924 0
0.204746 0.0999924 0
0.339361 0.0999924 0
0.543236 0.0999924 0
0.699992 0.0999924 0
0.8 0.0999924 0
0.899992 0.0999924 0
1 0.0999924 0
0 0.21149 0
0.0999924 0.212604 0
0.205905 0.211185 0
0.345556 0.206073 0
0.557397 0.199985 0
0.699992 0.199985 0
0.8 0.199985 0
0.899992 0.199985 0
1 0.210712 0
0 0.339422 0
0.0999924 0.345846 0
0.200259 0.350927 0
0.366812 0.35256 0.0100862
0.550835 0.357 0.00399786
0.699992 0.360037 0
0.8 0.373938 0
0.899992 0.389715 0
1 0.40708 0.000869764
0 0.528191 0
0.0999924 0.548424 0
0.199985 0.559442 0
0.402823 0.546136 0.0189364
0.567651 0.549874 0.0505379
0.699992 0.560784 0.0141909
0.8 0.567269 0
0.899992 0.575967 0
1 0.582788 0
0 0.699992 0
0.0999924 0.699992 0
0.199985 0.699992 0
0.384894 0.699992 0
0.588724 0.694148 0.0709544
0.699992 0.69723 0.057908
0.8 0.699992 0.0250706
0.899992 0.699992 0.02327
1 0.699992 0.0395514
0 0.8 0
0.0999924 0.8 0
0.205539 0.8 0
0.413504 0.8 0
0.599893 0.8 0.052903
0.699992 0.8 0.0970932
0.8 0.8 0.109941
0.899992 0.8 0.118822
1 0.8 0.126635
0 0.899992 0.00151064
0.100237 0.899992 0.00122072
0.222416 0.899992 0.000411994
0.44828 0.899992 0
0.6 0.899992 0.0893721
0.699992 0.899992 0.144762
0.8 0.899992 0.149096
0.899992 0.899992 0.150744
1 0.899992 0.151431
0 1 0.00935378
0.106203 1 0.00798047
0.232136 1 0.00276188
0.462791 1 0
0.6 1 0.109117
0.699992 1 0.151171
0.8 1 0.154665
0.899992 1 0.155596
1 1 0.155596
0 0 0.102083
0.0999924 0 0.103609
0.203647 0 0.103044
0.336446 0 0.0999924
0.531243 0 0.0999924
0.699992 0 0.0999924
0.8 0 0.0999924
0.899992 0 0.0999924
1 0 0.0999924
0 0.0999924 0.104067
0.0999924 0.0999924 0.103853
0.205112 0.0999924 0.103609
0.340078 0.0999924 0.0999924
0.545235 0.0999924 0.0999924
0.699992 0.0999924 0.0999924
0.8 0.0999924 0.0999924
0.899992 0.0999924 0.0999924
1 0.0999924 0.0999924
0 0.212055 0.101762
0.0999924 0.213306 0.102693
0.205509 0.212528 0.103868
0.350591 0.20621 0.100221
0.56144 0.199985 0.0999924
0.699992 0.199985 0.0999924
0.8 0.199985 0.0999924
0.899992 0.201892 0.0999924
1 0.216037 0.101289
0 0.341482 0.0999924
0.0999924 0.348791 0.0999924
0.201114 0.355825 0.100145
0.373495 0.358999 0.115099
0.556909 0.363684 0.109209
0.699992 0.366186 0.0999924
0.8 0.378714 0.10193
0.899992 0.394919 0.105837
1 0.412238 0.111025
0 0.535042 0.0999924
0.0999924 0.554711 0.0999924
0.199985 0.564218 0.0999924
0.407019 0.552605 0.12639
0.570764 0.554742 0.163561
0.699992 0.564828 0.127398
0.8 0.570489 0.100999
0.899992 0.578408 0.100252
1 0.584833 0.107057
0 0.699992 0.0999924
0.0999924 0.699992 0.0999924
0.199985 0.699992 0.0999924
0.381476 0.699992 0.100069
0.589258 0.694743 0.192782
0.699992 0.696788 0.193881
0.8 0.699962 0.17055
0.899992 0.699992 0.165454
1 0.699992 0.18735
0 0.8 0.0999924
0.0999924 0.8 0.101442
0.207553 0.8 0.101884
0.406424 0.8 0.0999924
0.59968 0.8 0.194232
0.699992 0.8 0.236011
0.8 0.8 0.241917
0.899992 0.8 0.245365
1 0.8 0.248722
0 0.899992 0.113756
0.100694 0.899992 0.114916
0.222721 0.899992 0.111254
0.440497 0.899992 0.0999924
0.6 0.899992 0.218921
0.699992 0.899992 0.257786
0.8 0.899992 0.260334
0.899992 0.899992 0.261189
1 0.899992 0.261524
0 1 0.12253
0.107393 1 0.121767
0.231174 1 0.115846
0.457527 1 0.101762
0.6 1 0.231617
0.699992 1 0.261006
0.8 1 0.263554
0.899992 1 0.264195
1 1 0.264195
0 0 0.214771
0.0999924 0 0.217243
0.202228 0 0.219287
0.337972 0 0.207797
0.520409 0 0.199985
0.699992 0 0.199985
0.8 0 0.199985
0.899992 0 0.199985
1 0 0.199985
0 0.100313 0.215824
0.0999924 0.100435 0.216358
0.20325 0.0999924 0.219913
0.342184 0.0999924 0.208972
0.532433 0.0999924 0.199985
0.699992 0.0999924 0.199985
0.8 0.0999924 0.199985
0.899992 0.0999924 0.199985
1 0.0999924 0.199985
0 0.213382 0.213489
0.0999924 0.214954 0.214313
0.20325 0.214618 0.216083
0.357809 0.205554 0.210452
0.549264 0.199985 0.199985
0.699992 0.199985 0.199985
0.8 0.200015 0.200626
0.899992 0.206531 0.210666
1 0.221134 0.226123
0 0.344976 0.205509
0.0999924 0.354101 0.208057
0.201373 0.362387 0.211582
0.379355 0.366354 0.228641
0.563882 0.369116 0.222736
0.699992 0.37116 0.216312
0.8 0.382513 0.220493
0.899992 0.398917 0.22504
1 0.416999 0.232273
0 0.538338 0.2009
0.0999924 0.556603 0.203494
0.20412 0.565393 0.217655
0.404028 0.561013 0.240696
0.572992 0.558923 0.284566
0.699992 0.567224 0.257359
0.8 0.572976 0.216312
0.899992 0.580056 0.21976
1 0.585199 0.245472
0 0.699992 0.200351
0.0999924 0.699992 0.207477
0.200061 0.699992 0.211185
0.375235 0.699992 0.208637
0.588937 0.695155 0.318547
0.699992 0.696117 0.333989
0.8 0.699199 0.325246
0.899992 0.699992 0.321538
1 0.699992 0.335195
0 0.8 0.216114
0.0999924 0.8 0.221729
0.209934 0.8 0.222324
0.400702 0.8 0.208667
0.599268 0.8 0.328145
0.699992 0.8 0.358648
0.8 0.8 0.360754
0.899992 0.8 0.36173
1 0.8 0.363104
0 0.899992 0.232517
0.101946 0.899992 0.235782
0.225391 0.899992 0.235309
0.439094 0.899992 0.221744
0.6 0.899992 0.340963
0.699992 0.899992 0.368475
0.8 0.899992 0.370245
0.899992 0.899992 0.370703
1 0.899992 0.370855
0 1 0.243748
0.10898 1 0.245212
0.240208 1 0.248417
0.454002 1 0.234989
0.6 1 0.348318
0.699992 1 0.370382
0.8 1 0.372412
0.899992 1 0.372824
1 1 0.372839
0 0 0.340398
0.0999924 0 0.343511
0.199985 0 0.350912
0.331533 0 0.345113
0.50341 0 0.325246
0.699107 0 0.32221
0.8 0 0.318334
0.899992 0 0.321447
1 0 0.328405
0 0.101625 0.340444
0.0999924 0.101701 0.343236
0.199985 0.100465 0.351537
0.335866 0.0999924 0.347707
0.514565 0.0999924 0.329747
0.699992 0.0999924 0.336828
0.8 0.0999924 0.340108
0.899992 0.0999924 0.353994
1 0.0999924 0.372442
0 0.214023 0.343252
0.0999924 0.216129 0.34464
0.199985 0.215518 0.349462
0.351888 0.204822 0.362692
0.535958 0.199985 0.345785
0.699992 0.199985 0.366445
0.8 0.199985 0.381765
0.899992 0.206653 0.405798
1 0.221271 0.429587
0 0.351644 0.334081
0.0999924 0.362783 0.340673
0.201404 0.371923 0.350469
0.373907 0.369329 0.384695
0.56936 0.369665 0.379629
0.699992 0.376272 0.389013
0.8 0.388205 0.400031
0.899992 0.405905 0.416266
1 0.4224 0.431922
0.000518807 0.544549 0.349096
0.100755 0.562188 0.360342
0.217563 0.568872 0.380499
0.389166 0.568246 0.392752
0.574365 0.561303 0.417075
0.699977 0.56585 0.406149
0.8 0.570718 0.405936
0.899992 0.576165 0.420951
1 0.580606 0.436011
0 0.699992 0.33994
0.0999924 0.699992 0.34905
0.201373 0.699992 0.361227
0.402975 0.699992 0.403983
0.585855 0.696101 0.445563
0.699992 0.696025 0.464378
0.8 0.698619 0.462333
0.899992 0.699992 0.461036
1 0.699992 0.464637
0 0.8 0.359991
0.0999924 0.8 0.370306
0.21735 0.8 0.398184
0.430533 0.8 0.425544
0.593347 0.8 0.449928
0.699992 0.8 0.476066
0.8 0.8 0.476997
0.899992 0.8 0.476921
1 0.8 0.477302
0 0.899992 0.385779
0.103349 0.899992 0.404059
0.252171 0.899992 0.441657
0.449226 0.899992 0.442512
0.598367 0.899992 0.454887
0.699992 0.899992 0.480583
0.8 0.899992 0.482383
0.899992 0.899992 0.482582
1 0.899992 0.482582
0 1 0.406531
0.113878 1 0.425818
0.276692 1 0.455039
0.455009 1 0.447364
0.6 1 0.459495
0.699992 1 0.48188
0.8 1 0.484535
0.899992 1 0.485054
1 1 0.485084
0 0 0.525429
0.0999924 0 0.536355
0.199985 0 0.56875
0.316442 0 0.559121
0.508064 0 0.512306
0.694728 0 0.539162
0.8 0 0.53962
0.899992 0 0.543572
1 0 0.549325
0 0.100237 0.518441
0.0999924 0.100389 0.530541
0.199985 0.0999924 0.574609
0.321965 0.0999924 0.565179
0.52752 0.0999924 0.528405
0.699992 0.0999924 0.554009
0.8 0.0999924 0.557992
0.899992 0.0999924 0.565728
1 0.0999924 0.574044
0 0.214496 0.503044
0.0999924 0.216342 0.510292
0.199985 0.21384 0.535683
0.328542 0.204929 0.561242
0.547189 0.199985 0.544396
0.699992 0.199985 0.577005
0.8 0.199985 0.588067
0.899992 0.206668 0.599557
1 0.221576 0.6
0 0.358358 0.491783
0.0999924 0.37229 0.501747
0.199985 0.381918 0.503578
0.341848 0.380941 0.558419
0.56939 0.370794 0.565179
0.699992 0.381689 0.583474
0.8 0.393576 0.587503
0.899992 0.40972 0.591897
1 0.424659 0.595483
0 0.558083 0.51075
0.0999924 0.575784 0.526802
0.202167 0.58088 0.542016
0.392554 0.575082 0.564675
0.573571 0.556329 0.568185
0.699992 0.561776 0.568917
0.8 0.566262 0.572961
0.899992 0.57145 0.577874
1 0.575753 0.582147
0 0.699992 0.515999
0.0999924 0.699992 0.528481
0.200778 0.699992 0.5449
0.426902 0.699992 0.576562
0.574945 0.699336 0.569955
0.699992 0.696269 0.581079
0.8 0.698024 0.57792
0.899992 0.699458 0.577859
1 0.699992 0.579461
0 0.8 0.541497
0.0999924 0.8 0.551705
0.21178 0.8 0.573938
0.445045 0.8 0.581689
0.580591 0.8 0.574914
0.699992 0.8 0.590723
0.8 0.8 0.592172
0.899992 0.8 0.590692
1 0.8 0.590097
0 0.899992 0.568338
0.0999924 0.899992 0.579034
0.237339 0.899992 0.591409
0.455512 0.899992 0.585214
0.584634 0.899992 0.577508
0.699992 0.899992 0.595163
0.8 0.899992 0.599603
0.899992 0.899992 0.599359
1 0.899992 0.599069
0 1 0.582605
0.10074 1 0.589303
0.252796 1 0.595361
0.459297 1 0.586572
0.586511 1 0.578271
0.699992 1 0.596246
0.8 1 0.6
0.899992 1 0.6
1 1 0.6
0 0 0.699992
0.0999924 0 0.699992
0.199985 0 0.699992
0.303914 0 0.699992
0.537392 0 0.699992
0.695476 0 0.692378
0.8 0 0.693706
0.899992 0 0.695872
1 0 0.69839
0 0.0999924 0.699992
0.0999924 0.0999924 0.699992
0.199985 0.0999924 0.699992
0.307836 0.0999924 0.699992
0.549798 0.0999924 0.699992
0.699992 0.0999924 0.699123
0.8 0.0999924 0.699992
0.899992 0.0999924 0.699992
1 0.0999924 0.699992
0 0.214435 0.699992
0.0999924 0.21767 0.699992
0.199985 0.215427 0.699992
0.31191 0.205524 0.699992
0.569436 0.199985 0.699992
0.699992 0.199985 0.699992
0.8 0.200855 0.699992
0.899992 0.210101 0.699992
1 0.223575 0.699992
0 0.373449 0.671351
0.0999924 0.391608 0.677043
0.199985 0.402243 0.679622
0.308507 0.395193 0.699992
0.569085 0.375708 0.699992
0.699992 0.378729 0.699992
0.8 0.390829 0.699992
0.899992 0.40882 0.699992
1 0.425376 0.699992
0 0.574777 0.677882
0.0999924 0.588632 0.689265
0.199985 0.593957 0.69366
0.359594 0.586465 0.695613
0.556054 0.564355 0.699779
0.699992 0.562661 0.699992
0.8 0.566827 0.699992
0.899992 0.57171 0.699992
1 0.575677 0.699992
0 0.699992 0.694682
0.0999924 0.699992 0.698833
0.199985 0.699992 0.699992
0.403464 0.699992 0.699733
0.576303 0.699992 0.699809
0.699992 0.6925 0.698772
0.8 0.693782 0.699275
0.899992 0.695827 0.699992
1 0.697643 0.699992
0 0.8 0.699962
0.0999924 0.8 0.699992
0.199985 0.8 0.699992
0.432486 0.8 0.699779
0.581842 0.8 0.699992
0.699992 0.799985 0.699992
0.8 0.8 0.699992
0.899992 0.8 0.699992
1 0.8 0.699992
0 0.899992 0.699992
0.0999924 0.899992 0.699992
0.209232 0.899992 0.699992
0.447852 0.899992 0.699306
0.585077 0.899992 0.699992
0.699992 0.899992 0.699992
0.8 0.899611 0.699992
0.899992 0.899611 0.699992
1 0.899748 0.699992
0 1 0.699992
0.0999924 1 0.699992
0.216541 1 0.699992
0.452415 1 0.699336
0.586633 1 0.699992
0.699992 1 0.699992
0.8 0.999619 0.699992
0.899992 0.999619 0.699992
1 0.999619 0.699992
0 0 0.8
0.0999924 0 0.8
0.199985 0 0.8
0.300175 0 0.8
0.523247 0 0.8
0.694102 0 0.8
0.8 0 0.8
0.899992 0 0.8
1 0 0.8
0 0.0999924 0.8
0.0999924 0.0999924 0.8
0.199985 0.0999924 0.8
0.300664 0.0999924 0.8
0.540719 0.0999924 0.8
0.699992 0.0999924 0.8
0.8 0.0999924 0.8
0.899992 0.0999924 0.8
1 0.0999924 0.8
0 0.217624 0.8
0.0999924 0.221668 0.8
0.199985 0.21944 0.8
0.305028 0.20972 0.8
0.563806 0.199985 0.8
0.699992 0.200031 0.8
0.8 0.201999 0.8
0.899992 0.213581 0.8
1 0.226749 0.8
0 0.387701 0.798779
0.0999924 0.405844 0.799283
0.199985 0.414145 0.8
0.301091 0.406775 0.8
0.557015 0.383825 0.8
0.699992 0.382559 0.8
0.8 0.395087 0.8
0.899992 0.413062 0.8
1 0.428779 0.8
0 0.5841 0.799481
0.0999924 0.595941 0.8
0.199985 0.598779 0.8
0.322271 0.598733 0.8
0.547723 0.571023 0.8
0.699992 0.564721 0.8
0.8 0.568109 0.8
0.899992 0.572564 0.8
1 0.576242 0.8
0 0.699992 0.8
0.0999924 0.699992 0.8
0.199985 0.699992 0.8
0.387686 0.699992 0.8
0.573266 0.699992 0.8
0.699657 0.69395 0.8
0.8 0.693874 0.8
0.899992 0.695903 0.8
1 0.697627 0.8
0 0.8 0.8
0.0999924 0.8 0.8
0.199985 0.8 0.8
0.429145 0.8 0.8
0.580804 0.8 0.8
0.699992 0.799985 0.8
0.8 0.799603 0.8
0.899992 0.799603 0.8
1 0.799603 0.8
0 0.899992 0.8
0.0999924 0.899992 0.8
0.207141 0.899992 0.8
0.444572 0.899992 0.799405
0.583642 0.899992 0.8
0.699992 0.899855 0.8
0.8 0.899611 0.8
0.899992 0.899611 0.8
1 0.899611 0.8
0 1 0.8
0.0999924 1 0.8
0.213123 1 0.8
0.449302 1 0.799298
0.584985 1 0.8
0.699992 0.999802 0.8
0.8 0.999619 0.8
0.899992 0.999619 0.8
1 0.999619 0.8
0 0 0.899992
0.0999924 0 0.899992
0.199985 0 0.899992
0.299992 0 0.899992
0.514305 0 0.899992
0.693156 0 0.899992
0.8 0 0.899992
0.899992 0 0.899992
1 0 0.899992
0 0.0999924 0.899992
0.0999924 0.0999924 0.899992
0.199985 0.0999924 0.899992
0.300877 0.0999924 0.899992
0.536004 0.0999924 0.899992
0.699733 0.0999924 0.899992
0.8 0.0999924 0.899992
0.899992 0.0999924 0.899992
1 0.0999924 0.899992
0 0.22118 0.899992
0.0999924 0.225803 0.899992
0.199985 0.22388 0.899992
0.303349 0.214221 0.899992
0.5626 0.199985 0.899992
0.699992 0.2009 0.899992
0.8 0.204944 0.899992
0.899992 0.218006 0.899992
1 0.231174 0.899992
0 0.398398 0.899992
0.0999924 0.416785 0.899992
0.199985 0.424323 0.899992
0.299992 0.417166 0.899992
0.550942 0.392294 0.899992
0.699992 0.390158 0.899992
0.8 0.401801 0.899992
0.899992 0.418738 0.899992
1 0.433173 0.899992
0 0.59147 0.899992
0.0999924 0.599481 0.899992
0.199985 0.6 0.899992
0.318502 0.6 0.899992
0.545571 0.576455 0.899992
0.699992 0.567254 0.899992
0.8 0.569833 0.899992
0.899992 0.573831 0.899992
1 0.577157 0.899992
0 0.699992 0.899992
0.0999924 0.699992 0.899992
0.199985 0.699992 0.899992
0.379568 0.699992 0.899992
0.571618 0.699992 0.899992
0.69807 0.696223 0.899992
0.8 0.694759 0.899992
0.899992 0.696513 0.899992
1 0.697826 0.899992
0 0.8 0.899992
0.0999924 0.8 0.899992
0.200641 0.8 0.899992
0.428855 0.8 0.899962
0.579919 0.8 0.899992
0.699992 0.8 0.899992
0.8 0.799603 0.899992
0.899992 0.799603 0.899992
1 0.799603 0.899992
0 0.899992 0.899992
0.0999924 0.899992 0.899992
0.20766 0.899992 0.899992
0.44448 0.899992 0.899382
0.583276 0.899992 0.899992
0.699992 0.899855 0.899992
0.8 0.899611 0.899992
0.899992 0.899611 0.899992
1 0.899611 0.899992
0 1 0.899992
0.0999924 1 0.899992
0.213001 1 0.899992
0.448814 1 0.899306
0.584482 1 0.899992
0.699992 0.999817 0.899992
0.8 0.999619 0.899992
0.899992 0.999619 0.899992
1 0.999619 0.899992
0 0 1
0.0999924 0 1
0.199985 0 1
0.299992 0 1
0.506447 0 1
0.692134 0 1
0.8 0 1
0.899992 0 1
1 0 1
0 0.10045 1
0.0999924 0.100267 1
0.199985 0.0999924 1
0.300496 0.0999924 1
0.532631 0.0999924 1
0.699992 0.0999924 1
0.8 0.0999924 1
0.899992 0.0999924 1
1 0.0999924 1
0 0.225086 1
0.0999924 0.230121 1
0.199985 0.227619 1
0.302449 0.218265 1
0.565011 0.199985 1
0.699992 0.202487 1
0.8 0.209766 1
0.899992 0.22237 1
1 0.235966 1
0 0.409293 1
0.0999924 0.425772 0.999924
0.199985 0.431174 0.999832
0.300984 0.423743 1
0.554818 0.398108 1
0.699992 0.396658 1
0.8 0.408042 1
0.899992 0.423865 1
1 0.437034 1
0 0.597009 1
0.0999924 0.6 1
0.199985 0.6 1
0.326009 0.6 1
0.550057 0.578378 1
0.699992 0.569116 1
0.8 0.57145 1
0.899992 0.575097 1
1 0.578103 1
0 0.699992 1
0.0999924 0.699992 1
0.199985 0.699992 1
0.389746 0.699992 1
0.572564 0.699992 1
0.698405 0.697704 1
0.8 0.695583 1
0.899992 0.697139 1
1 0.698024 1
0 0.8 1
0.0999924 0.8 1
0.201419 0.8 1
0.431556 0.8 0.999863
0.58024 0.8 1
0.699992 0.8 1
0.8 0.799603 1
0.899992 0.799603 1
1 0.799603 1
0 0.899992 1
0.0999924 0.899992 1
0.208469 0.899992 1
0.445243 0.899992 0.999344
0.583383 0.899992 1
0.699992 0.899855 1
0.8 0.899611 1
0.899992 0.899611 1
1 0.899611 1
0 1 1
0.0999924 1 1
0.213169 1 1
0.44889 1 0.999298
0.584451 1 1
0.699992 0.999817 1
0.8 0.999619 1
0.899992 0.999619 1
1 0.999619 1
